/* XPM */
static char * floor_xpm[] = {
"128 128 4696 2",
"  	c #434343",
". 	c #505050",
"+ 	c #4E4F50",
"@ 	c #383633",
"# 	c #1C1A1C",
"$ 	c #221F22",
"% 	c #242023",
"& 	c #1C1B1F",
"* 	c #1F1E20",
"= 	c #1D1C20",
"- 	c #232022",
"; 	c #1E1D20",
"> 	c #17181D",
", 	c #211E22",
"' 	c #16171C",
") 	c #201E21",
"! 	c #1E1C20",
"~ 	c #19181C",
"{ 	c #19181D",
"] 	c #111219",
"^ 	c #15151A",
"/ 	c #1E1C1E",
"( 	c #16161A",
"_ 	c #141419",
": 	c #1D1A1D",
"< 	c #221E20",
"[ 	c #211E20",
"} 	c #221F21",
"| 	c #262223",
"1 	c #252223",
"2 	c #242123",
"3 	c #262325",
"4 	c #2B2628",
"5 	c #282528",
"6 	c #292628",
"7 	c #242226",
"8 	c #2B2729",
"9 	c #262427",
"0 	c #292629",
"a 	c #2D282B",
"b 	c #2E2A2C",
"c 	c #272529",
"d 	c #202026",
"e 	c #262428",
"f 	c #2A262A",
"g 	c #222126",
"h 	c #222026",
"i 	c #1F1E24",
"j 	c #2A272A",
"k 	c #29262A",
"l 	c #282529",
"m 	c #222227",
"n 	c #2A272B",
"o 	c #222127",
"p 	c #242328",
"q 	c #252327",
"r 	c #242227",
"s 	c #151416",
"t 	c #E2E2E2",
"u 	c #ECECEC",
"v 	c #ECECEB",
"w 	c #ECECEA",
"x 	c #ECECE6",
"y 	c #ECECE9",
"z 	c #C1B7AD",
"A 	c #201F1E",
"B 	c #57515A",
"C 	c #565059",
"D 	c #4C4955",
"E 	c #544E57",
"F 	c #4C4A54",
"G 	c #534E57",
"H 	c #4B4854",
"I 	c #3E3F4D",
"J 	c #3C3D4B",
"K 	c #484650",
"L 	c #474550",
"M 	c #554F56",
"N 	c #3D3E4A",
"O 	c #383A48",
"P 	c #2E3241",
"Q 	c #343542",
"R 	c #423F48",
"S 	c #49444D",
"T 	c #41404A",
"U 	c #3D3C47",
"V 	c #534C52",
"W 	c #605558",
"X 	c #585056",
"Y 	c #6F6162",
"Z 	c #62585D",
"` 	c #6E6164",
" .	c #5E575E",
"..	c #56525A",
"+.	c #625960",
"@.	c #5E5760",
"#.	c #7B6D6E",
"$.	c #696169",
"%.	c #5F5A66",
"&.	c #6D656D",
"*.	c #786C72",
"=.	c #716870",
"-.	c #807277",
";.	c #807278",
">.	c #7C7179",
",.	c #716974",
"'.	c #585767",
").	c #625D69",
"!.	c #66606C",
"~.	c #766D74",
"{.	c #66616D",
"].	c #625E6B",
"^.	c #535262",
"/.	c #6F666E",
"(.	c #706770",
"_.	c #69636E",
":.	c #68636F",
"<.	c #6F6872",
"[.	c #525265",
"}.	c #696370",
"|.	c #796E76",
"1.	c #595766",
"2.	c #807378",
"3.	c #6A646F",
"4.	c #4B464C",
"5.	c #0A090A",
"6.	c #F4E9D3",
"7.	c #F3E7D2",
"8.	c #F6EAD6",
"9.	c #F5E8D4",
"0.	c #FBEDD7",
"a.	c #FCE9E0",
"b.	c #EEE7E8",
"c.	c #F8ECE9",
"d.	c #FCEAD7",
"e.	c #F6E8D4",
"f.	c #F6E9D3",
"g.	c #F7E9D6",
"h.	c #F8EAD5",
"i.	c #F7EBD6",
"j.	c #F8ECD5",
"k.	c #EDE2CC",
"l.	c #F8EBD8",
"m.	c #F2E6D1",
"n.	c #F9EBD5",
"o.	c #FAEBD7",
"p.	c #F3E6D0",
"q.	c #FAECD9",
"r.	c #F7E8D4",
"s.	c #F8E7D8",
"t.	c #FEEADA",
"u.	c #FAEAD6",
"v.	c #F0E3D4",
"w.	c #F8E5D1",
"x.	c #F4E4D7",
"y.	c #EDE3E2",
"z.	c #E7E5E7",
"A.	c #FFEAD7",
"B.	c #F3E7EA",
"C.	c #FBEFDA",
"D.	c #F8EBD5",
"E.	c #F7EAD6",
"F.	c #F0E4CF",
"G.	c #EFE2CD",
"H.	c #F8F0D9",
"I.	c #F7ECD6",
"J.	c #F9EDD8",
"K.	c #F8ECD6",
"L.	c #F0E0CD",
"M.	c #FDEBD6",
"N.	c #FCEAD9",
"O.	c #F4EAE7",
"P.	c #FAE9D6",
"Q.	c #FBEAD6",
"R.	c #CEC7C3",
"S.	c #E2D3C0",
"T.	c #FCEBD8",
"U.	c #FCECD7",
"V.	c #FCECD8",
"W.	c #FBEAD5",
"X.	c #FAEADD",
"Y.	c #E6E1E4",
"Z.	c #86807C",
"`.	c #1C1C1C",
" +	c #1E1C1F",
".+	c #534E56",
"++	c #393842",
"@+	c #3C3A42",
"#+	c #423F46",
"$+	c #3A3943",
"%+	c #464248",
"&+	c #3C3A44",
"*+	c #34343E",
"=+	c #3A3840",
"-+	c #403D44",
";+	c #3B3942",
">+	c #413D45",
",+	c #36353E",
"'+	c #403C42",
")+	c #433D42",
"!+	c #3D3A3F",
"~+	c #38353D",
"{+	c #403B40",
"]+	c #474044",
"^+	c #443F44",
"/+	c #4E4649",
"(+	c #413D44",
"_+	c #5B5050",
":+	c #625656",
"<+	c #4F494E",
"[+	c #605557",
"}+	c #4D484F",
"|+	c #585053",
"1+	c #5F5457",
"2+	c #615659",
"3+	c #5C5358",
"4+	c #4B4750",
"5+	c #554F55",
"6+	c #554F58",
"7+	c #524E58",
"8+	c #5F575E",
"9+	c #5D565E",
"0+	c #6B6066",
"a+	c #5C565F",
"b+	c #55515B",
"c+	c #544F59",
"d+	c #5A535C",
"e+	c #5A545C",
"f+	c #59525B",
"g+	c #4A4854",
"h+	c #514D57",
"i+	c #545058",
"j+	c #635A5F",
"k+	c #58525B",
"l+	c #4D4B56",
"m+	c #55505A",
"n+	c #6C6166",
"o+	c #464655",
"p+	c #5E565E",
"q+	c #514E58",
"r+	c #504D58",
"s+	c #27272E",
"t+	c #08080A",
"u+	c #F4E9D2",
"v+	c #F6EAD4",
"w+	c #F5E9D3",
"x+	c #F9E9D5",
"y+	c #FBEBD7",
"z+	c #FAEAD5",
"A+	c #F6E7E9",
"B+	c #F6EADF",
"C+	c #F4E0CD",
"D+	c #F8E4D7",
"E+	c #F6E6D2",
"F+	c #FAEDD7",
"G+	c #FAECD6",
"H+	c #F9ECD6",
"I+	c #F7EAD4",
"J+	c #F2E5D0",
"K+	c #F8EAD3",
"L+	c #F4E6D2",
"M+	c #F7E9D5",
"N+	c #FBECD8",
"O+	c #FBE9D6",
"P+	c #F2E4CF",
"Q+	c #F6E7D3",
"R+	c #F8EAE0",
"S+	c #F4E6DE",
"T+	c #F8EBE6",
"U+	c #FAE9D5",
"V+	c #FBE8D4",
"W+	c #F5E1D6",
"X+	c #F0E4DE",
"Y+	c #FEEAD9",
"Z+	c #FBE8D3",
"`+	c #F9EAD6",
" @	c #F1E6D1",
".@	c #F8ECD7",
"+@	c #F9EED7",
"@@	c #F6E9D4",
"#@	c #F9E7D4",
"$@	c #F1E4E0",
"%@	c #F8E9D5",
"&@	c #F4E4E2",
"*@	c #DDDCDD",
"=@	c #E9E6E8",
"-@	c #F5E8E6",
";@	c #FBECD9",
">@	c #EFDECB",
",@	c #F5ECD9",
"'@	c #857D72",
")@	c #201E1D",
"!@	c #1B1A1E",
"~@	c #4D4A52",
"{@	c #4A4449",
"]@	c #383740",
"^@	c #403C44",
"/@	c #383640",
"(@	c #32323D",
"_@	c #474247",
":@	c #433E45",
"<@	c #3F3C44",
"[@	c #37363E",
"}@	c #423E44",
"|@	c #3A383F",
"1@	c #3A373E",
"2@	c #423C41",
"3@	c #4D4547",
"4@	c #4B4447",
"5@	c #464045",
"6@	c #4C4549",
"7@	c #5C5152",
"8@	c #5F5456",
"9@	c #554D52",
"0@	c #615658",
"a@	c #544D53",
"b@	c #575055",
"c@	c #5D5459",
"d@	c #5F565A",
"e@	c #534D55",
"f@	c #595258",
"g@	c #4D4953",
"h@	c #4A4852",
"i@	c #4D4A54",
"j@	c #565159",
"k@	c #5A535B",
"l@	c #615960",
"m@	c #655C63",
"n@	c #5E5860",
"o@	c #514E5A",
"p@	c #56515A",
"q@	c #4C4A56",
"r@	c #464552",
"s@	c #434250",
"t@	c #5A535A",
"u@	c #4E4B56",
"v@	c #474652",
"w@	c #61585E",
"x@	c #605960",
"y@	c #5B555E",
"z@	c #504D59",
"A@	c #4E4C57",
"B@	c #3E404E",
"C@	c #2E2C30",
"D@	c #09090A",
"E@	c #F3E7D3",
"F@	c #F3E6D2",
"G@	c #F1E4D2",
"H@	c #F5E9D4",
"I@	c #F3E5D0",
"J@	c #F8E8D4",
"K@	c #F4E2DB",
"L@	c #ECE0D5",
"M@	c #F0E7E4",
"N@	c #F2E6E7",
"O@	c #E6D9CC",
"P@	c #E9DDDA",
"Q@	c #F4ECE7",
"R@	c #F3EBE1",
"S@	c #F7E4DC",
"T@	c #FAEBD6",
"U@	c #FAECD8",
"V@	c #FAECD7",
"W@	c #F6E8EB",
"X@	c #F6E9DD",
"Y@	c #FAECDA",
"Z@	c #F4E6D8",
"`@	c #FAE8D4",
" #	c #F7E6D3",
".#	c #F5E6D2",
"+#	c #F7E8D3",
"@#	c #E3DDE6",
"##	c #EFE5DF",
"$#	c #FCE9DA",
"%#	c #F1E6E0",
"&#	c #FAE7D8",
"*#	c #F7E9D4",
"=#	c #F5E8D3",
"-#	c #F4E7D4",
";#	c #F5E8D2",
">#	c #F5E7D2",
",#	c #F1E2CE",
"'#	c #FAF1DA",
")#	c #F8EBD6",
"!#	c #F9EDD7",
"~#	c #F6E6D3",
"{#	c #F3E0CE",
"]#	c #FAF0DE",
"^#	c #F3E4CF",
"/#	c #F9E4D2",
"(#	c #FBE6D7",
"_#	c #EADCD8",
":#	c #FDEBE3",
"<#	c #EEE1CD",
"[#	c #F4E5D1",
"}#	c #F8ECD8",
"|#	c #888379",
"1#	c #1E1C1A",
"2#	c #1A191C",
"3#	c #514B53",
"4#	c #32323C",
"5#	c #393740",
"6#	c #3D3A41",
"7#	c #444045",
"8#	c #3E3B42",
"9#	c #484247",
"0#	c #444046",
"a#	c #474146",
"b#	c #50484B",
"c#	c #443F45",
"d#	c #484246",
"e#	c #38363E",
"f#	c #494246",
"g#	c #564C4E",
"h#	c #423E45",
"i#	c #4F474A",
"j#	c #534B4D",
"k#	c #645857",
"l#	c #564E53",
"m#	c #5A5256",
"n#	c #595156",
"o#	c #554E55",
"p#	c #62585B",
"q#	c #565057",
"r#	c #585258",
"s#	c #4E4A52",
"t#	c #565056",
"u#	c #4E4A53",
"v#	c #5F565B",
"w#	c #5D555B",
"x#	c #59525A",
"y#	c #726567",
"z#	c #645C63",
"A#	c #56525C",
"B#	c #5F585F",
"C#	c #464653",
"D#	c #555058",
"E#	c #5E565D",
"F#	c #575159",
"G#	c #585159",
"H#	c #5A545B",
"I#	c #545059",
"J#	c #58535C",
"K#	c #514E59",
"L#	c #474653",
"M#	c #424250",
"N#	c #464550",
"O#	c #2F2C30",
"P#	c #F2E7D1",
"Q#	c #EFE3CD",
"R#	c #F6EAD5",
"S#	c #F4E9D5",
"T#	c #E7DAC6",
"U#	c #F4E5D2",
"V#	c #FAEBD8",
"W#	c #F8E8D5",
"X#	c #F8E6D2",
"Y#	c #F8E7D3",
"Z#	c #F9E6DD",
"`#	c #F6ECEA",
" $	c #F8EDE6",
".$	c #F7E9DE",
"+$	c #FAEFEA",
"@$	c #F7EEF2",
"#$	c #F8ECEE",
"$$	c #EFE3E4",
"%$	c #FCECE6",
"&$	c #FAF2E8",
"*$	c #FBEBD8",
"=$	c #F6E8D3",
"-$	c #F4E7D3",
";$	c #F6E1CD",
">$	c #F8F2DD",
",$	c #F7ECD8",
"'$	c #F1E4D0",
")$	c #F0E2CE",
"!$	c #F7E8D6",
"~$	c #FBEEDA",
"{$	c #F5E6D3",
"]$	c #F0E1CE",
"^$	c #EFE8D8",
"/$	c #EFE2CE",
"($	c #FBE7D3",
"_$	c #EAE3EB",
":$	c #FBEADB",
"<$	c #F8EAD4",
"[$	c #8B897D",
"}$	c #1E1D1A",
"|$	c #1B1A1D",
"1$	c #46444E",
"2$	c #33323C",
"3$	c #2D2E38",
"4$	c #3F3B41",
"5$	c #4A4246",
"6$	c #52494C",
"7$	c #443F46",
"8$	c #4A4448",
"9$	c #50494C",
"0$	c #534A4D",
"a$	c #49444A",
"b$	c #50494D",
"c$	c #4A4549",
"d$	c #3E3B43",
"e$	c #464046",
"f$	c #50484C",
"g$	c #584E51",
"h$	c #5A5053",
"i$	c #524A50",
"j$	c #635859",
"k$	c #5E5559",
"l$	c #544E56",
"m$	c #5C5459",
"n$	c #4B4852",
"o$	c #534E55",
"p$	c #60575C",
"q$	c #554F57",
"r$	c #565058",
"s$	c #6B6062",
"t$	c #685E62",
"u$	c #665C62",
"v$	c #5A545E",
"w$	c #645C62",
"x$	c #56525B",
"y$	c #5A545D",
"z$	c #655C61",
"A$	c #4F4C55",
"B$	c #544F58",
"C$	c #555059",
"D$	c #3F404F",
"E$	c #484651",
"F$	c #595259",
"G$	c #28272D",
"H$	c #E5DAC5",
"I$	c #EEE2CD",
"J$	c #EFE3CF",
"K$	c #F2E5D1",
"L$	c #E8DCC8",
"M$	c #EFE3CE",
"N$	c #FCECD6",
"O$	c #FCECDA",
"P$	c #F5E5D5",
"Q$	c #FBECE3",
"R$	c #FCEDD8",
"S$	c #FBECD7",
"T$	c #FBEED8",
"U$	c #F1EAE4",
"V$	c #F6E7D4",
"W$	c #F2E9D7",
"X$	c #F6F3DF",
"Y$	c #F3E8D5",
"Z$	c #F3E5D1",
"`$	c #F4E8D3",
" %	c #FCF4DF",
".%	c #F3E6D1",
"+%	c #FAF5DE",
"@%	c #FBF1DC",
"#%	c #F2ECE8",
"$%	c #ECDED1",
"%%	c #F7E5DD",
"&%	c #CFC6BE",
"*%	c #ECE1DE",
"=%	c #FEF2DE",
"-%	c #FBECD6",
";%	c #F5E7D3",
">%	c #FBF4E0",
",%	c #F1E5D1",
"'%	c #F0E3CF",
")%	c #F8E8E7",
"!%	c #F7EADB",
"~%	c #F9EDD6",
"{%	c #F8F2DB",
"]%	c #F9EED8",
"^%	c #8C887D",
"/%	c #1F1D1A",
"(%	c #1D1B1E",
"_%	c #3E3D48",
":%	c #39363D",
"<%	c #534A4C",
"[%	c #494449",
"}%	c #4E474B",
"|%	c #4D464B",
"1%	c #4D464C",
"2%	c #50494E",
"3%	c #47434A",
"4%	c #484349",
"5%	c #4B454A",
"6%	c #474248",
"7%	c #4A444A",
"8%	c #574E51",
"9%	c #5A5153",
"0%	c #504A50",
"a%	c #534C51",
"b%	c #665A5D",
"c%	c #5B545A",
"d%	c #524E56",
"e%	c #5A5359",
"f%	c #645A5E",
"g%	c #4C4954",
"h%	c #5E565C",
"i%	c #4E4B54",
"j%	c #575158",
"k%	c #6E6266",
"l%	c #605860",
"m%	c #56525D",
"n%	c #484855",
"o%	c #6A6065",
"p%	c #524F5A",
"q%	c #504C55",
"r%	c #4F4B54",
"s%	c #4F4B55",
"t%	c #494752",
"u%	c #484652",
"v%	c #4A4853",
"w%	c #4B4853",
"x%	c #524D56",
"y%	c #29272D",
"z%	c #E7DDC9",
"A%	c #F4E8D4",
"B%	c #EEE3CE",
"C%	c #EFE5CF",
"D%	c #F4E8D2",
"E%	c #F3E8D2",
"F%	c #F3E7D5",
"G%	c #E6DAC6",
"H%	c #E9DCCA",
"I%	c #F2E6D0",
"J%	c #FAF4E1",
"K%	c #FBF2E0",
"L%	c #F0E1CC",
"M%	c #EADCC8",
"N%	c #F5E8DE",
"O%	c #F4EBDC",
"P%	c #F8EAD7",
"Q%	c #F1E3CF",
"R%	c #EFE1CD",
"S%	c #F6E7D2",
"T%	c #FAF1E0",
"U%	c #F2E2CE",
"V%	c #F7EBD5",
"W%	c #EEDECC",
"X%	c #EBE4EA",
"Y%	c #EEE6E3",
"Z%	c #F6F4EF",
"`%	c #F6F1EF",
" &	c #F2E3D6",
".&	c #F8E7D6",
"+&	c #FCEEDA",
"@&	c #FCF0DA",
"#&	c #F9EAD5",
"$&	c #FCF4E2",
"%&	c #F7E9D3",
"&&	c #F7EAD5",
"*&	c #F9EBD6",
"=&	c #FDEDDC",
"-&	c #EEE2CC",
";&	c #F7EED8",
">&	c #8B8478",
",&	c #1F1E1B",
"'&	c #1C1B1E",
")&	c #47444E",
"!&	c #3B383F",
"~&	c #4E4648",
"{&	c #554C4E",
"]&	c #4E474C",
"^&	c #464249",
"/&	c #524B4E",
"(&	c #514A4E",
"_&	c #403E47",
":&	c #423E47",
"<&	c #51494E",
"[&	c #48434A",
"}&	c #544C50",
"|&	c #4A454C",
"1&	c #5E5356",
"2&	c #5B5256",
"3&	c #544D54",
"4&	c #5C545B",
"5&	c #5A545A",
"6&	c #4E4A54",
"7&	c #61585C",
"8&	c #474551",
"9&	c #5F575D",
"0&	c #625A60",
"a&	c #665C63",
"b&	c #5C555E",
"c&	c #59545E",
"d&	c #524F59",
"e&	c #4C4A55",
"f&	c #494753",
"g&	c #444350",
"h&	c #5C555C",
"i&	c #43424E",
"j&	c #46444F",
"k&	c #5D555C",
"l&	c #60575D",
"m&	c #2D2B30",
"n&	c #F9F0DB",
"o&	c #F3EAD5",
"p&	c #F5EBD6",
"q&	c #FBF6E2",
"r&	c #F6EBD6",
"s&	c #FAF0DA",
"t&	c #E9DDC7",
"u&	c #F4E9D4",
"v&	c #F3E8D0",
"w&	c #FBF8EC",
"x&	c #F9ECD9",
"y&	c #F0E3CE",
"z&	c #E3D7C3",
"A&	c #F9ECD7",
"B&	c #FAEED7",
"C&	c #FBEED9",
"D&	c #F8EDD7",
"E&	c #FCF6E8",
"F&	c #F3E3D1",
"G&	c #F7E7D3",
"H&	c #FCF6E4",
"I&	c #E2DBDE",
"J&	c #F4EBF0",
"K&	c #F6F0EB",
"L&	c #EEE4E2",
"M&	c #FCEBD7",
"N&	c #FDEDD7",
"O&	c #FCEAD8",
"P&	c #F8ECDE",
"Q&	c #FAEEDA",
"R&	c #FCEDD9",
"S&	c #EFE4DF",
"T&	c #F1E5E0",
"U&	c #FBF1D9",
"V&	c #FBEDD8",
"W&	c #8C877A",
"X&	c #201E1B",
"Y&	c #44424B",
"Z&	c #4F484A",
"`&	c #4D474B",
" *	c #524A4E",
".*	c #564D50",
"+*	c #47434B",
"@*	c #4D474C",
"#*	c #514A4F",
"$*	c #4C464C",
"%*	c #48444A",
"&*	c #4D474D",
"**	c #4A444C",
"=*	c #47424A",
"-*	c #4B454B",
";*	c #5A5154",
">*	c #585054",
",*	c #564F55",
"'*	c #595157",
")*	c #5E555A",
"!*	c #524E57",
"~*	c #5C555B",
"{*	c #5F575C",
"]*	c #59535A",
"^*	c #62595E",
"/*	c #5B555C",
"(*	c #60585F",
"_*	c #5E575F",
":*	c #5A555E",
"<*	c #645B63",
"[*	c #3F4150",
"}*	c #5C545C",
"|*	c #504C54",
"1*	c #504B53",
"2*	c #5C545A",
"3*	c #4F4C56",
"4*	c #514C57",
"5*	c #2C2A30",
"6*	c #F6ECD6",
"7*	c #F7ECD5",
"8*	c #F6EDD8",
"9*	c #EEE3CF",
"0*	c #F2E6D2",
"a*	c #F4EBD6",
"b*	c #F8EDD6",
"c*	c #FAEED8",
"d*	c #EEE4CE",
"e*	c #F7ECDD",
"f*	c #FDF8EC",
"g*	c #F3E4D1",
"h*	c #FDECD8",
"i*	c #FDF0E3",
"j*	c #F6E5D4",
"k*	c #F5F0EE",
"l*	c #FEEEDA",
"m*	c #EFE8E5",
"n*	c #D8D6DF",
"o*	c #E9DCDA",
"p*	c #F0E5E4",
"q*	c #FCEAD6",
"r*	c #FCF0E5",
"s*	c #FDEAE0",
"t*	c #F6EDDE",
"u*	c #FCF7E6",
"v*	c #FAF8E8",
"w*	c #F8EAD6",
"x*	c #F8E9D4",
"y*	c #F4E6D1",
"z*	c #EFE2CF",
"A*	c #F4E6D3",
"B*	c #F2E1D4",
"C*	c #FCEBD6",
"D*	c #F7EDD8",
"E*	c #FEF8E9",
"F*	c #1A181C",
"G*	c #504A51",
"H*	c #4A4247",
"I*	c #4C464A",
"J*	c #464148",
"K*	c #4F494F",
"L*	c #534C50",
"M*	c #4C474E",
"N*	c #514A50",
"O*	c #574E52",
"P*	c #413E48",
"Q*	c #444048",
"R*	c #564D51",
"S*	c #4E484E",
"T*	c #5D5255",
"U*	c #585055",
"V*	c #5A5257",
"W*	c #675C5E",
"X*	c #61585D",
"Y*	c #685D60",
"Z*	c #59535B",
"`*	c #58525A",
" =	c #575259",
".=	c #6E6265",
"+=	c #57525B",
"@=	c #59545C",
"#=	c #534F5A",
"$=	c #5D565F",
"%=	c #494855",
"&=	c #4F4C57",
"*=	c #57525C",
"==	c #706569",
"-=	c #5A5560",
";=	c #59535E",
">=	c #56515B",
",=	c #57525A",
"'=	c #504C56",
")=	c #555057",
"!=	c #585158",
"~=	c #40404D",
"{=	c #1E2029",
"]=	c #F0E4D0",
"^=	c #F8EDD8",
"/=	c #F5ECD6",
"(=	c #E8DEC9",
"_=	c #F4EAD4",
":=	c #F0E5D0",
"<=	c #FAF0DB",
"[=	c #F2E8D2",
"}=	c #F7EDD7",
"|=	c #F8F2E0",
"1=	c #ECE1CC",
"2=	c #F0E6D1",
"3=	c #F2E6D4",
"4=	c #F0E4CE",
"5=	c #F9EBD7",
"6=	c #F6EDDB",
"7=	c #F8E5D9",
"8=	c #FFEFE0",
"9=	c #F2EDEE",
"0=	c #FEEFD8",
"a=	c #FEEDDC",
"b=	c #FFF7E8",
"c=	c #FEE9D9",
"d=	c #EDE6E4",
"e=	c #F7E3DC",
"f=	c #FAE6D2",
"g=	c #F8E8DF",
"h=	c #F6E4D9",
"i=	c #FDEBD7",
"j=	c #FAE9D4",
"k=	c #FAF3E5",
"l=	c #FBF3DE",
"m=	c #FBEED7",
"n=	c #FAEAE8",
"o=	c #F9EDE6",
"p=	c #FBF0DA",
"q=	c #1F1D1B",
"r=	c #1C1A1D",
"s=	c #665A5C",
"t=	c #51494D",
"u=	c #46424A",
"v=	c #46434C",
"w=	c #4C474F",
"x=	c #413F4A",
"y=	c #524C52",
"z=	c #574F54",
"A=	c #544C52",
"B=	c #48444C",
"C=	c #524C51",
"D=	c #61565A",
"E=	c #61575A",
"F=	c #544E55",
"G=	c #645B60",
"H=	c #5B545C",
"I=	c #60585E",
"J=	c #5C565E",
"K=	c #5B545D",
"L=	c #4F4C58",
"M=	c #4D4A56",
"N=	c #645C61",
"O=	c #54505A",
"P=	c #665D65",
"Q=	c #54515C",
"R=	c #4E4C58",
"S=	c #444450",
"T=	c #464450",
"U=	c #575058",
"V=	c #42424E",
"W=	c #47454F",
"X=	c #26242A",
"Y=	c #F6EBD7",
"Z=	c #F3E9D2",
"`=	c #F0E6D0",
" -	c #F2E7D2",
".-	c #ECE2CC",
"+-	c #F5EAD4",
"@-	c #FBF7E4",
"#-	c #F1E6D0",
"$-	c #E6DCC9",
"%-	c #EEE1CE",
"&-	c #FAF2DE",
"*-	c #FCF4E3",
"=-	c #EEEFEE",
"--	c #F2E2D2",
";-	c #FCE8D8",
">-	c #EEE2DF",
",-	c #FCFAF5",
"'-	c #F0E7EB",
")-	c #FCEADA",
"!-	c #FBE6D2",
"~-	c #EAE0E2",
"{-	c #F4EAE9",
"]-	c #FDEDD9",
"^-	c #F4E8EB",
"/-	c #E1DAD8",
"(-	c #F3E7E7",
"_-	c #F5E5D1",
":-	c #F3E4D0",
"<-	c #F6F4E6",
"[-	c #F3E4D2",
"}-	c #FAF3E1",
"|-	c #FAE8E0",
"1-	c #F8F0DA",
"2-	c #F7F0DB",
"3-	c #868074",
"4-	c #454047",
"5-	c #564E51",
"6-	c #544D52",
"7-	c #4D484E",
"8-	c #5B5255",
"9-	c #514B52",
"0-	c #534D54",
"a-	c #524C54",
"b-	c #544E54",
"c-	c #5E5458",
"d-	c #5C5458",
"e-	c #62595D",
"f-	c #6C6062",
"g-	c #675E62",
"h-	c #675D62",
"i-	c #58525C",
"j-	c #645B61",
"k-	c #625A61",
"l-	c #685F64",
"m-	c #5F5861",
"n-	c #5E5861",
"o-	c #4E4C59",
"p-	c #414250",
"q-	c #4A4753",
"r-	c #474651",
"s-	c #464451",
"t-	c #464551",
"u-	c #42404D",
"v-	c #585157",
"w-	c #353032",
"x-	c #EEE4CF",
"y-	c #EFE4D0",
"z-	c #F1E7D1",
"A-	c #E8DDC9",
"B-	c #FAEED9",
"C-	c #F7F1E0",
"D-	c #F5EAD5",
"E-	c #E9DFCA",
"F-	c #F4E4D2",
"G-	c #EDE1CC",
"H-	c #EFE4CF",
"I-	c #F0E6D2",
"J-	c #F9F7ED",
"K-	c #F3E7E2",
"L-	c #F6EFE5",
"M-	c #FFEADA",
"N-	c #FCEADC",
"O-	c #EEE7E6",
"P-	c #FBEBD6",
"Q-	c #F5E5D6",
"R-	c #ECE0DD",
"S-	c #F2E6E5",
"T-	c #F5E4DC",
"U-	c #F6E5D1",
"V-	c #F2E8E4",
"W-	c #F8E4D0",
"X-	c #F1E4CE",
"Y-	c #EFE9D6",
"Z-	c #FAECD5",
"`-	c #D6CDBD",
" ;	c #F6E7DB",
".;	c #F8E6D4",
"+;	c #F4E7D2",
"@;	c #8A897F",
"#;	c #231F20",
"$;	c #60565C",
"%;	c #584F52",
"&;	c #4E484D",
"*;	c #514A51",
"=;	c #534C53",
"-;	c #665B5D",
";;	c #5D545A",
">;	c #6C6063",
",;	c #534E58",
"';	c #695F63",
");	c #685E64",
"!;	c #665D62",
"~;	c #635B61",
"{;	c #605861",
"];	c #625A62",
"^;	c #58545E",
"/;	c #665E64",
"(;	c #53505B",
"_;	c #4C4853",
":;	c #4C4852",
"<;	c #44434F",
"[;	c #504A53",
"};	c #0B0A0B",
"|;	c #EEE2CE",
"1;	c #EDE2CD",
"2;	c #F8EFD9",
"3;	c #FDF8E2",
"4;	c #FAEFD9",
"5;	c #FAF4E2",
"6;	c #ECE2CD",
"7;	c #E3D8C4",
"8;	c #F1E5D0",
"9;	c #F2E4D0",
"0;	c #F6EDDF",
"a;	c #FEF7E7",
"b;	c #E3DEE1",
"c;	c #F5EEEA",
"d;	c #FAE9DA",
"e;	c #FCF6E1",
"f;	c #FBF6EB",
"g;	c #FDF4E1",
"h;	c #C6BCB8",
"i;	c #CDC1B1",
"j;	c #D0CECA",
"k;	c #F2EAE6",
"l;	c #F5E3CF",
"m;	c #DED6D6",
"n;	c #F1E4E2",
"o;	c #F7E1D0",
"p;	c #F8EFDB",
"q;	c #F6E9D5",
"r;	c #FBE9DC",
"s;	c #F0E1D7",
"t;	c #F8EED9",
"u;	c #FBEDD9",
"v;	c #8A8377",
"w;	c #1F1E1C",
"x;	c #524B4F",
"y;	c #48434B",
"z;	c #4C464D",
"A;	c #5D5458",
"B;	c #5E565B",
"C;	c #4D4952",
"D;	c #514C54",
"E;	c #6F6264",
"F;	c #6E6162",
"G;	c #706364",
"H;	c #6C6164",
"I;	c #706468",
"J;	c #696065",
"K;	c #665D64",
"L;	c #645C64",
"M;	c #6E6267",
"N;	c #54505B",
"O;	c #4D4B58",
"P;	c #5F5860",
"Q;	c #6D6266",
"R;	c #615A61",
"S;	c #605962",
"T;	c #494856",
"U;	c #635A5E",
"V;	c #42424D",
"W;	c #2C292E",
"X;	c #0A0A0B",
"Y;	c #FAEFD8",
"Z;	c #F4EAD3",
"`;	c #FCF7E2",
" >	c #EBE0CB",
".>	c #F6F2DE",
"+>	c #EBDFCA",
"@>	c #E6DAC4",
"#>	c #E9DDC8",
"$>	c #F1E6D2",
"%>	c #F3E8D3",
"&>	c #FAE9DD",
"*>	c #FBEBE0",
"=>	c #FFFDF5",
"->	c #FEF9EF",
";>	c #FBF2DD",
">>	c #FCF1E3",
",>	c #EAE0DE",
"'>	c #F4EEEF",
")>	c #ECDECF",
"!>	c #CAC8CA",
"~>	c #FCE9D9",
"{>	c #F8E8D3",
"]>	c #F6E5D2",
"^>	c #F3E5D4",
"/>	c #F6E8D2",
"(>	c #FAEADA",
"_>	c #F4E9E0",
":>	c #888276",
"<>	c #222021",
"[>	c #6A5F62",
"}>	c #564E52",
"|>	c #4A464D",
"1>	c #605658",
"2>	c #554E54",
"3>	c #695D5F",
"4>	c #665C5F",
"5>	c #675D60",
"6>	c #6A5E61",
"7>	c #5F565C",
"8>	c #796A6B",
"9>	c #645B62",
"0>	c #726568",
"a>	c #6B6165",
"b>	c #6B6166",
"c>	c #796B6E",
"d>	c #595460",
"e>	c #6C6268",
"f>	c #52505B",
"g>	c #5D5760",
"h>	c #635B62",
"i>	c #4E4B58",
"j>	c #605961",
"k>	c #4B4A58",
"l>	c #434350",
"m>	c #4C4851",
"n>	c #312D30",
"o>	c #0C0A0B",
"p>	c #F0E4D1",
"q>	c #F8EBD7",
"r>	c #EEE2CF",
"s>	c #FEFCF3",
"t>	c #E4DDC6",
"u>	c #F6F4EA",
"v>	c #FAF8E2",
"w>	c #E9E1CF",
"x>	c #E4DAC6",
"y>	c #FAEDD8",
"z>	c #FDEADA",
"A>	c #FAE8DF",
"B>	c #FEEBDE",
"C>	c #F8F3EA",
"D>	c #FCEDE2",
"E>	c #FDF3E6",
"F>	c #FEEEE3",
"G>	c #F8E4D4",
"H>	c #EBDED2",
"I>	c #DAD8E0",
"J>	c #FCEDED",
"K>	c #FDECD9",
"L>	c #FDF9EE",
"M>	c #EEE4DC",
"N>	c #FAEFF1",
"O>	c #FCEDDE",
"P>	c #877F74",
"Q>	c #605657",
"R>	c #5F5558",
"S>	c #645A5D",
"T>	c #665C60",
"U>	c #6B6063",
"V>	c #6A6063",
"W>	c #61595E",
"X>	c #5E575D",
"Y>	c #6C6267",
"Z>	c #635C63",
"`>	c #786A6D",
" ,	c #72676B",
".,	c #685F67",
"+,	c #6F646A",
"@,	c #7A6C6E",
"#,	c #6F656B",
"$,	c #625C66",
"%,	c #605A64",
"&,	c #504E5C",
"*,	c #54505C",
"=,	c #504E5A",
"-,	c #695F64",
";,	c #635C62",
">,	c #5C5660",
",,	c #5D5660",
"',	c #58535E",
"),	c #4A4956",
"!,	c #524E59",
"~,	c #61595F",
"{,	c #4B4955",
"],	c #60585D",
"^,	c #514C56",
"/,	c #363034",
"(,	c #0C0B0C",
"_,	c #F9ECD8",
":,	c #F6EAD3",
"<,	c #F6EFE2",
"[,	c #FAF3DC",
"},	c #E4D9C4",
"|,	c #F0E7D1",
"1,	c #F8F6EC",
"2,	c #F7EED6",
"3,	c #F7E6DC",
"4,	c #FEF4E3",
"5,	c #FDEADC",
"6,	c #F8ECE2",
"7,	c #F8E6E0",
"8,	c #F4E4DD",
"9,	c #FAF4EA",
"0,	c #FEFBEB",
"a,	c #FBEAD7",
"b,	c #FDF0DA",
"c,	c #F4E8E0",
"d,	c #F8F4EA",
"e,	c #F6EDD6",
"f,	c #F4EADB",
"g,	c #F6F1ED",
"h,	c #F5E9E6",
"i,	c #878074",
"j,	c #262224",
"k,	c #60565A",
"l,	c #665B5E",
"m,	c #655C62",
"n,	c #695F65",
"o,	c #6E6368",
"p,	c #6A6168",
"q,	c #696068",
"r,	c #6A6169",
"s,	c #686068",
"t,	c #615A64",
"u,	c #72676C",
"v,	c #665F68",
"w,	c #675F68",
"x,	c #5E5964",
"y,	c #53515E",
"z,	c #514E5B",
"A,	c #675E64",
"B,	c #5B555F",
"C,	c #53505A",
"D,	c #59545D",
"E,	c #58535D",
"F,	c #4D4A57",
"G,	c #534F58",
"H,	c #514D56",
"I,	c #322E32",
"J,	c #FCF4E8",
"K,	c #F9F2DE",
"L,	c #FDF6E8",
"M,	c #FDF8E8",
"N,	c #F2EDDC",
"O,	c #F8F4E3",
"P,	c #F9F7EA",
"Q,	c #FAF9EA",
"R,	c #EEE1CC",
"S,	c #F2F2E5",
"T,	c #F0E8E2",
"U,	c #F4E6E2",
"V,	c #F1E2E1",
"W,	c #FEEADC",
"X,	c #F8ECEC",
"Y,	c #F4E6E0",
"Z,	c #FAEAD9",
"`,	c #FCE9D5",
" '	c #FBF6E6",
".'	c #FEF9F0",
"+'	c #F4E7E5",
"@'	c #F6EAE2",
"#'	c #F6F5E9",
"$'	c #EDE2CE",
"%'	c #FCECE2",
"&'	c #E8DCCF",
"*'	c #F1E8DC",
"='	c #F7E7D2",
"-'	c #888075",
";'	c #252224",
">'	c #5A5255",
",'	c #5B5258",
"''	c #655A5D",
")'	c #63595E",
"!'	c #645A5F",
"~'	c #59535C",
"{'	c #6C6165",
"]'	c #685E65",
"^'	c #625B63",
"/'	c #645C66",
"('	c #635C66",
"_'	c #7F7173",
":'	c #756A70",
"<'	c #6A626A",
"['	c #5B5762",
"}'	c #685F66",
"|'	c #6A6066",
"1'	c #75696C",
"2'	c #4C4A58",
"3'	c #474755",
"4'	c #424453",
"5'	c #5B565F",
"6'	c #524E5A",
"7'	c #4E4B55",
"8'	c #F9EDDA",
"9'	c #FEF8EB",
"0'	c #FBF7EA",
"a'	c #FDF6E4",
"b'	c #F4EED6",
"c'	c #F7F4EA",
"d'	c #F3EFD8",
"e'	c #FCF8E4",
"f'	c #F0E2CF",
"g'	c #ECE3E2",
"h'	c #F8E6D3",
"i'	c #EAE6EA",
"j'	c #FAEBE0",
"k'	c #FBE9D5",
"l'	c #FBF6EF",
"m'	c #FCF6EC",
"n'	c #FCEED9",
"o'	c #DBD5D2",
"p'	c #E9DEC9",
"q'	c #F3E9D4",
"r'	c #F7F0DE",
"s'	c #FAEEDC",
"t'	c #E8D9C2",
"u'	c #F9EAD4",
"v'	c #888175",
"w'	c #272426",
"x'	c #5B5660",
"y'	c #6A5E62",
"z'	c #6C6266",
"A'	c #6F6469",
"B'	c #514F5B",
"C'	c #645D65",
"D'	c #625C64",
"E'	c #625C65",
"F'	c #655E67",
"G'	c #605A66",
"H'	c #585563",
"I'	c #6E656D",
"J'	c #72686E",
"K'	c #665F69",
"L'	c #7E7074",
"M'	c #615C66",
"N'	c #5D5762",
"O'	c #56525E",
"P'	c #53505C",
"Q'	c #4F4D59",
"R'	c #504D5A",
"S'	c #4A4856",
"T'	c #454552",
"U'	c #434454",
"V'	c #504E59",
"W'	c #5D565D",
"X'	c #FAE8D6",
"Y'	c #F9F4E9",
"Z'	c #EFE6D0",
"`'	c #F5F0E0",
" )	c #F4E7D1",
".)	c #F5E6D1",
"+)	c #F8E6D5",
"@)	c #F4E7DC",
"#)	c #FAEAD7",
"$)	c #EBE8F0",
"%)	c #FBE9D4",
"&)	c #F9E8D4",
"*)	c #FEF8EA",
"=)	c #FAEDD6",
"-)	c #F4F0E2",
";)	c #FAF6EC",
">)	c #F4E4D1",
",)	c #ECE0CB",
"')	c #F7EFDE",
"))	c #FCF4E6",
"!)	c #FCF5E7",
"~)	c #F8EBE0",
"{)	c #FCEAD4",
"])	c #898276",
"^)	c #222024",
"/)	c #605A62",
"()	c #5B565E",
"_)	c #696066",
":)	c #685F65",
"<)	c #686067",
"[)	c #5E5962",
"})	c #766A70",
"|)	c #766B72",
"1)	c #726971",
"2)	c #746A72",
"3)	c #69626C",
"4)	c #6E666E",
"5)	c #565362",
"6)	c #585561",
"7)	c #4C4B59",
"8)	c #4F4C59",
"9)	c #444452",
"0)	c #454452",
"a)	c #625A5F",
"b)	c #454554",
"c)	c #6F6466",
"d)	c #675E63",
"e)	c #343034",
"f)	c #0C0B0B",
"g)	c #FEF4E7",
"h)	c #FDEAD8",
"i)	c #FBE8DF",
"j)	c #FEF7EE",
"k)	c #F8F5EC",
"l)	c #F2E5D2",
"m)	c #F9F5E4",
"n)	c #F8F0DB",
"o)	c #F8F3E0",
"p)	c #FEF8E5",
"q)	c #E8DBC7",
"r)	c #F8EED8",
"s)	c #F9EFDA",
"t)	c #F1E3D1",
"u)	c #ECDFCB",
"v)	c #F2E2D0",
"w)	c #F6E8EA",
"x)	c #F6E8E2",
"y)	c #FCF5EF",
"z)	c #F9EFDB",
"A)	c #F9E8D5",
"B)	c #F2E6DB",
"C)	c #FAE6D3",
"D)	c #F7EDE6",
"E)	c #EEE0D8",
"F)	c #EFE2D0",
"G)	c #FCF5F0",
"H)	c #FBF5E5",
"I)	c #F4E7D5",
"J)	c #FAEFDA",
"K)	c #F1E2DA",
"L)	c #1C1B18",
"M)	c #262225",
"N)	c #6B6168",
"O)	c #5D565C",
"P)	c #685E63",
"Q)	c #685E66",
"R)	c #514F5C",
"S)	c #4F4D5A",
"T)	c #4B4A57",
"U)	c #665E66",
"V)	c #5D5862",
"W)	c #6C6269",
"X)	c #72686D",
"Y)	c #7A6E74",
"Z)	c #776D73",
"`)	c #766C73",
" !	c #635E6A",
".!	c #605C68",
"+!	c #665F6A",
"@!	c #6B636C",
"#!	c #4F4E5D",
"$!	c #655D64",
"%!	c #62595F",
"&!	c #4E4A56",
"*!	c #5C555D",
"=!	c #57535E",
"-!	c #625B62",
";!	c #655E65",
">!	c #E9E8ED",
",!	c #FAE8D9",
"'!	c #F9EBEA",
")!	c #FBEAE1",
"!!	c #F1DED6",
"~!	c #F6E6E1",
"{!	c #FCEED7",
"]!	c #E1D8CA",
"^!	c #F6E8E3",
"/!	c #FAE7D5",
"(!	c #ECE0CC",
"_!	c #F9E8D3",
":!	c #F7E8E7",
"<!	c #F4EBE8",
"[!	c #FCF0DB",
"}!	c #F9ECDA",
"|!	c #FDE8D6",
"1!	c #C1BCBA",
"2!	c #F3EEEB",
"3!	c #FDE8D7",
"4!	c #FAE6D5",
"5!	c #F7F0E0",
"6!	c #F7F5E7",
"7!	c #F6E5D0",
"8!	c #EEE1E5",
"9!	c #7F7A79",
"0!	c #1E1B19",
"a!	c #292426",
"b!	c #645B5F",
"c!	c #5B545B",
"d!	c #615A60",
"e!	c #6E646B",
"f!	c #796D72",
"g!	c #6C646D",
"h!	c #6E666F",
"i!	c #615C6A",
"j!	c #615D6A",
"k!	c #525262",
"l!	c #635E69",
"m!	c #5F5A65",
"n!	c #5A5662",
"o!	c #585460",
"p!	c #424251",
"q!	c #4C4854",
"r!	c #484753",
"s!	c #58545D",
"t!	c #817172",
"u!	c #675E66",
"v!	c #5F5962",
"w!	c #322E34",
"x!	c #FEECD8",
"y!	c #FBE8D7",
"z!	c #F2E3E5",
"A!	c #EFE8EA",
"B!	c #EEEAEE",
"C!	c #E9E4EB",
"D!	c #F1E9E6",
"E!	c #EAE0D8",
"F!	c #F0E6ED",
"G!	c #F2E9E2",
"H!	c #EEE4E6",
"I!	c #EFDFCC",
"J!	c #FAEDD9",
"K!	c #F1E4CF",
"L!	c #EBDFCB",
"M!	c #FAEAD8",
"N!	c #FAEAE2",
"O!	c #F6E5D6",
"P!	c #F3E7D1",
"Q!	c #F7EDD6",
"R!	c #FCF2DD",
"S!	c #F4E9DC",
"T!	c #FCE8D6",
"U!	c #F6E2D4",
"V!	c #F5E4D6",
"W!	c #F7F6EA",
"X!	c #FCF6F1",
"Y!	c #F9E9D4",
"Z!	c #EADEC8",
"`!	c #F4E5D0",
" ~	c #F8E9D8",
".~	c #8C837A",
"+~	c #201D1A",
"@~	c #2C2728",
"#~	c #776B70",
"$~	c #635A60",
"%~	c #55515A",
"&~	c #71676C",
"*~	c #6D646A",
"=~	c #7E7174",
"-~	c #6A626C",
";~	c #6F666F",
">~	c #6A636D",
",~	c #625E6A",
"'~	c #66606B",
")~	c #565464",
"!~	c #605B66",
"~~	c #595662",
"{~	c #5E5862",
"]~	c #6A6167",
"^~	c #504C57",
"/~	c #454451",
"(~	c #373A4A",
"_~	c #4C4952",
":~	c #74676A",
"<~	c #73686C",
"[~	c #766A6E",
"}~	c #72676D",
"|~	c #6C636A",
"1~	c #6E656C",
"2~	c #5F5A64",
"3~	c #5C5661",
"4~	c #55515C",
"5~	c #302D33",
"6~	c #ECE6E1",
"7~	c #F4E8E2",
"8~	c #F6E6DA",
"9~	c #EDE4DF",
"0~	c #F4E6D7",
"a~	c #E5DCE0",
"b~	c #BAB2A6",
"c~	c #FBEAD4",
"d~	c #FEEDDA",
"e~	c #E4D7D3",
"f~	c #F9E8D2",
"g~	c #F6ECD7",
"h~	c #EBDECB",
"i~	c #F6E5DD",
"j~	c #EDE1CD",
"k~	c #D9CEC4",
"l~	c #F6EFEB",
"m~	c #D0CAC6",
"n~	c #F6F4F2",
"o~	c #FBE9D9",
"p~	c #EAD8C8",
"q~	c #F8E9D6",
"r~	c #F3EAE2",
"s~	c #FEF9E7",
"t~	c #FCEDD7",
"u~	c #ECE2DF",
"v~	c #8A7F77",
"w~	c #2C2729",
"x~	c #6D646C",
"y~	c #60575E",
"z~	c #4C4B58",
"A~	c #6A6064",
"B~	c #6D6268",
"C~	c #7D6F71",
"D~	c #7C6F73",
"E~	c #7B6E73",
"F~	c #7D7075",
"G~	c #625C68",
"H~	c #5C5866",
"I~	c #6F676F",
"J~	c #6B646E",
"K~	c #5C5A67",
"L~	c #6D656E",
"M~	c #565463",
"N~	c #645D68",
"O~	c #4F4F5E",
"P~	c #786B6E",
"Q~	c #7C6E71",
"R~	c #6E646C",
"S~	c #565361",
"T~	c #67606A",
"U~	c #75696F",
"V~	c #4D4D5C",
"W~	c #57545E",
"X~	c #55525C",
"Y~	c #2E2C32",
"Z~	c #EAE5E0",
"`~	c #F4E6E4",
" {	c #F0E6E6",
".{	c #F9E8DA",
"+{	c #E5E0E6",
"@{	c #FAEAED",
"#{	c #EEE2D6",
"${	c #EFE1DD",
"%{	c #E3D8C6",
"&{	c #E8E1DC",
"*{	c #F5EAE6",
"={	c #ECD8C3",
"-{	c #FDEBD8",
";{	c #FDEFDA",
">{	c #F5E8D6",
",{	c #BBB4B1",
"'{	c #FAE9D7",
"){	c #FBEFD8",
"!{	c #F2EAE4",
"~{	c #F4ECF0",
"{{	c #FDECD7",
"]{	c #F0E1CD",
"^{	c #FBEDDE",
"/{	c #F7E7DC",
"({	c #F9F6F2",
"_{	c #FCECD9",
":{	c #E8DDE2",
"<{	c #EDE4E6",
"[{	c #F4E9DD",
"}{	c #8C8278",
"|{	c #7C6E73",
"1{	c #6B6065",
"2{	c #615A62",
"3{	c #5A555F",
"4{	c #70666B",
"5{	c #71666C",
"6{	c #796E72",
"7{	c #766C72",
"8{	c #6A646D",
"9{	c #545463",
"0{	c #796E73",
"a{	c #645F6A",
"b{	c #5D5A68",
"c{	c #4F5060",
"d{	c #676068",
"e{	c #555360",
"f{	c #4C4C5B",
"g{	c #5A545F",
"h{	c #4C4A57",
"i{	c #464654",
"j{	c #585259",
"k{	c #58535A",
"l{	c #6B6064",
"m{	c #686066",
"n{	c #6C636B",
"o{	c #625C67",
"p{	c #796C72",
"q{	c #565462",
"r{	c #2A2930",
"s{	c #0B0B0B",
"t{	c #F8E7DE",
"u{	c #F6E9E4",
"v{	c #F5E5E0",
"w{	c #EEEAE6",
"x{	c #EBE3E1",
"y{	c #F6E8D9",
"z{	c #F0E2DA",
"A{	c #FCEFDC",
"B{	c #F0E9E6",
"C{	c #F6F1F1",
"D{	c #EAE1E5",
"E{	c #F2E4D1",
"F{	c #FDEBDB",
"G{	c #FCF2DA",
"H{	c #E5D9C4",
"I{	c #F8E7DD",
"J{	c #E4E0DF",
"K{	c #E6DDDA",
"L{	c #FAF5F6",
"M{	c #F8EFEC",
"N{	c #E2DCE0",
"O{	c #F2E4DC",
"P{	c #FEF5ED",
"Q{	c #F7F2F2",
"R{	c #DCD2C5",
"S{	c #F4DACB",
"T{	c #FCE8DA",
"U{	c #F5E4DB",
"V{	c #F4E3E0",
"W{	c #FAEBE5",
"X{	c #8D8478",
"Y{	c #2A2628",
"Z{	c #5F585E",
"`{	c #5D575F",
" ]	c #70656A",
".]	c #504E5B",
"+]	c #645E67",
"@]	c #6C646C",
"#]	c #5A5764",
"$]	c #5C5966",
"%]	c #726870",
"&]	c #67616C",
"*]	c #655F6A",
"=]	c #68626C",
"-]	c #706870",
";]	c #5F5A68",
">]	c #575463",
",]	c #5E5A66",
"']	c #555260",
")]	c #494957",
"!]	c #4C4B57",
"~]	c #6F6468",
"{]	c #6E646A",
"]]	c #5A5763",
"^]	c #666069",
"/]	c #68606A",
"(]	c #464859",
"_]	c #524F5C",
":]	c #322F34",
"<]	c #EBE5E2",
"[]	c #ECE0D2",
"}]	c #FBE9DA",
"|]	c #FBEADC",
"1]	c #F4E4DE",
"2]	c #FDE9DF",
"3]	c #F6E6DD",
"4]	c #F7F1DC",
"5]	c #F4E3D0",
"6]	c #EFE7E7",
"7]	c #F4E6D9",
"8]	c #FCF6E6",
"9]	c #FCEBDA",
"0]	c #ECE3DB",
"a]	c #F1E2E4",
"b]	c #E7DACE",
"c]	c #FEEDDD",
"d]	c #FAF4EE",
"e]	c #FAF6F0",
"f]	c #FAE6DA",
"g]	c #EAE1DC",
"h]	c #E9E2DC",
"i]	c #FDE9D7",
"j]	c #EAE3E1",
"k]	c #FDF2E8",
"l]	c #8D897F",
"m]	c #746A71",
"n]	c #6B6267",
"o]	c #615A63",
"p]	c #665E65",
"q]	c #625B64",
"r]	c #6A6269",
"s]	c #655E6A",
"t]	c #68626D",
"u]	c #615C69",
"v]	c #645F6B",
"w]	c #5C5967",
"x]	c #575462",
"y]	c #5E5965",
"z]	c #5E5A64",
"A]	c #695E62",
"B]	c #736668",
"C]	c #585461",
"D]	c #645D66",
"E]	c #5B5864",
"F]	c #484A5A",
"G]	c #4E4D5B",
"H]	c #494958",
"I]	c #2B2A31",
"J]	c #09090B",
"K]	c #DAD6DA",
"L]	c #F7E9E4",
"M]	c #EEE9E7",
"N]	c #EEEEF5",
"O]	c #E0DEE1",
"P]	c #F5E6DD",
"Q]	c #EBDEC9",
"R]	c #EBDCC9",
"S]	c #E9DBC8",
"T]	c #E3D6C4",
"U]	c #EBE2E2",
"V]	c #F4E5CF",
"W]	c #EADED6",
"X]	c #F8EBD4",
"Y]	c #F1E2D0",
"Z]	c #F5EDDD",
"`]	c #F6E6D1",
" ^	c #F4E4DF",
".^	c #E7DCD3",
"+^	c #F3E7E4",
"@^	c #FAEBDE",
"#^	c #FEF5DE",
"$^	c #FAEEEC",
"%^	c #EFDFCB",
"&^	c #F8EADE",
"*^	c #F7E3D6",
"=^	c #E1DED5",
"-^	c #F5E7D9",
";^	c #F2EAE5",
">^	c #EAE6EE",
",^	c #FDF4EE",
"'^	c #F2E5DF",
")^	c #F4E0D6",
"!^	c #878181",
"~^	c #1F1D1C",
"{^	c #2C282A",
"]^	c #776C73",
"^^	c #6D6267",
"/^	c #6C6167",
"(^	c #4E4C5A",
"_^	c #6A626B",
":^	c #5A5765",
"<^	c #776C72",
"[^	c #585665",
"}^	c #4A4C5E",
"|^	c #605B68",
"1^	c #6B646D",
"2^	c #5B5866",
"3^	c #5D5966",
"4^	c #585562",
"5^	c #4C4D5D",
"6^	c #52505D",
"7^	c #706467",
"8^	c #605A63",
"9^	c #645C65",
"0^	c #6C6369",
"a^	c #474859",
"b^	c #414455",
"c^	c #54515E",
"d^	c #26262E",
"e^	c #09080A",
"f^	c #EDE7E8",
"g^	c #FEECE0",
"h^	c #EBE9F0",
"i^	c #FEEAD6",
"j^	c #F3E0D5",
"k^	c #F9E7D2",
"l^	c #ECDDCC",
"m^	c #FAEDDA",
"n^	c #FBEFD9",
"o^	c #F4E6D0",
"p^	c #F0E2CD",
"q^	c #F4F0DC",
"r^	c #ECE1CD",
"s^	c #E5DCDB",
"t^	c #F5E5D2",
"u^	c #F1E5D3",
"v^	c #F3E3CF",
"w^	c #F4EBE2",
"x^	c #FCF9EC",
"y^	c #F2E6DE",
"z^	c #F7E9E2",
"A^	c #ECDECB",
"B^	c #F8EFD8",
"C^	c #F8F0DC",
"D^	c #F2E7E1",
"E^	c #F7E4D0",
"F^	c #F8E6D8",
"G^	c #F0EAEE",
"H^	c #F7EEE9",
"I^	c #EEE2E8",
"J^	c #FAE5D6",
"K^	c #FBE8D5",
"L^	c #857F78",
"M^	c #64606D",
"N^	c #635A61",
"O^	c #73676C",
"P^	c #54515D",
"Q^	c #73676B",
"R^	c #5E5761",
"S^	c #5C5760",
"T^	c #6D6368",
"U^	c #675F67",
"V^	c #6B626A",
"W^	c #68616C",
"X^	c #484A5B",
"Y^	c #655E68",
"Z^	c #6F666C",
"`^	c #565460",
" /	c #6D636A",
"./	c #675F66",
"+/	c #5A5661",
"@/	c #4E4E5D",
"#/	c #4E4D5A",
"$/	c #59545F",
"%/	c #4D4C59",
"&/	c #27272F",
"*/	c #FBEBE3",
"=/	c #F0E4E6",
"-/	c #E5D8E1",
";/	c #EADCD9",
">/	c #F1E4D9",
",/	c #E6D6C4",
"'/	c #EADCC9",
")/	c #E4D7C4",
"!/	c #EBDECA",
"~/	c #EADDCB",
"{/	c #F4ECDA",
"]/	c #F4E9D8",
"^/	c #FCF6EA",
"//	c #FBF0DB",
"(/	c #F6ECD5",
"_/	c #F3E7D4",
":/	c #FAE7D4",
"</	c #F3E3D2",
"[/	c #F4E8EA",
"}/	c #FAECDD",
"|/	c #D2CCC4",
"1/	c #F9F1DC",
"2/	c #E4DAD2",
"3/	c #F4E3D6",
"4/	c #F5E6DC",
"5/	c #FAF2E6",
"6/	c #FCF7ED",
"7/	c #FDECDA",
"8/	c #F6E6D8",
"9/	c #F6E4D0",
"0/	c #ECDFDF",
"a/	c #F9E7D5",
"b/	c #8C8277",
"c/	c #201E1C",
"d/	c #2D292C",
"e/	c #726A74",
"f/	c #5B5661",
"g/	c #70666C",
"h/	c #71666B",
"i/	c #595560",
"j/	c #655C64",
"k/	c #4A4A58",
"l/	c #72666A",
"m/	c #5D5864",
"n/	c #635D68",
"o/	c #645E69",
"p/	c #68626B",
"q/	c #655F69",
"r/	c #655F68",
"s/	c #776C71",
"t/	c #746A70",
"u/	c #5A5664",
"v/	c #69616A",
"w/	c #615B66",
"x/	c #55525F",
"y/	c #6E6469",
"z/	c #807172",
"A/	c #73686D",
"B/	c #635C64",
"C/	c #4D4C5A",
"D/	c #52505C",
"E/	c #514E5C",
"F/	c #414352",
"G/	c #302E33",
"H/	c #FCE9D6",
"I/	c #F2ECE6",
"J/	c #F8EFDC",
"K/	c #EADDC9",
"L/	c #F8F2EB",
"M/	c #F2E5E1",
"N/	c #FDFAF0",
"O/	c #F4E6D4",
"P/	c #FAEAD4",
"Q/	c #FCE8D4",
"R/	c #F0E6E9",
"S/	c #F6E4DD",
"T/	c #F9E7DA",
"U/	c #F3E5E0",
"V/	c #FAE6E6",
"W/	c #F7EFED",
"X/	c #F3E4E2",
"Y/	c #E8DCD5",
"Z/	c #8C8478",
"`/	c #82767C",
" (	c #71666A",
".(	c #70666A",
"+(	c #655D66",
"@(	c #565360",
"#(	c #665F67",
"$(	c #70656B",
"%(	c #57545F",
"&(	c #696168",
"*(	c #5D5964",
"=(	c #4A4B5C",
"-(	c #5C5864",
";(	c #69626A",
">(	c #645E68",
",(	c #72686F",
"'(	c #625D68",
")(	c #545362",
"!(	c #766A6F",
"~(	c #74686E",
"{(	c #786C70",
"](	c #857678",
"^(	c #676069",
"/(	c #575460",
"((	c #51505E",
"_(	c #56535E",
":(	c #776B6E",
"<(	c #504E5D",
"[(	c #3E4050",
"}(	c #07070A",
"|(	c #F5E7D4",
"1(	c #FBF6E0",
"2(	c #EFE3D0",
"3(	c #F8E9D7",
"4(	c #F9F6E8",
"5(	c #F3E8D4",
"6(	c #F0E6DA",
"7(	c #F9E8DB",
"8(	c #FCF5EC",
"9(	c #F0E2D0",
"0(	c #F0DFCF",
"a(	c #C5B3A6",
"b(	c #EAE4DF",
"c(	c #FEF9F1",
"d(	c #F6E6DB",
"e(	c #FCE8D9",
"f(	c #E4E2EC",
"g(	c #D6C9C0",
"h(	c #EFE4EC",
"i(	c #E9E0DC",
"j(	c #F8E4D6",
"k(	c #F0E4E1",
"l(	c #FAE8D3",
"m(	c #82767D",
"n(	c #776A6F",
"o(	c #575461",
"p(	c #605A65",
"q(	c #665E68",
"r(	c #6D646B",
"s(	c #4C4B5A",
"t(	c #695F66",
"u(	c #4A4A5A",
"v(	c #6C646A",
"w(	c #4B4B5B",
"x(	c #56535F",
"y(	c #545260",
"z(	c #68616A",
"A(	c #5B5764",
"B(	c #71676E",
"C(	c #70676D",
"D(	c #796D71",
"E(	c #786D72",
"F(	c #70676F",
"G(	c #69626B",
"H(	c #53505D",
"I(	c #4A4957",
"J(	c #484754",
"K(	c #4A4855",
"L(	c #26252D",
"M(	c #060709",
"N(	c #FEFAEB",
"O(	c #FBF3E7",
"P(	c #FDF7E8",
"Q(	c #EEE2CB",
"R(	c #F2E5CF",
"S(	c #F8F5E3",
"T(	c #F0E5D1",
"U(	c #F8EAE4",
"V(	c #FCECDB",
"W(	c #E8DCD2",
"X(	c #FCF8E5",
"Y(	c #FAE7DB",
"Z(	c #F7E6D2",
"`(	c #F7E4D4",
" _	c #EEE6E8",
"._	c #FEF7E9",
"+_	c #D8D6DE",
"@_	c #F8EDE3",
"#_	c #F7F0E2",
"$_	c #FAF5EC",
"%_	c #F7EEDA",
"&_	c #F0E0CC",
"*_	c #EBDFDB",
"=_	c #EBE4E1",
"-_	c #EDE2DD",
";_	c #E2DCE6",
">_	c #E9E4E0",
",_	c #F8E8DC",
"'_	c #F8E6DD",
")_	c #FDEAD6",
"!_	c #2C292C",
"~_	c #80767D",
"{_	c #5D5863",
"]_	c #5A5663",
"^_	c #58545F",
"/_	c #5C5762",
"(_	c #5E5863",
"__	c #655E69",
":_	c #605B67",
"<_	c #70666E",
"[_	c #736970",
"}_	c #66606A",
"|_	c #6E656E",
"1_	c #615C67",
"2_	c #4E4E5C",
"3_	c #3E4152",
"4_	c #474654",
"5_	c #26252C",
"6_	c #FBEDDA",
"7_	c #F9EAD7",
"8_	c #FBF4EC",
"9_	c #FDF6E6",
"0_	c #F6EEDE",
"a_	c #F9ECDF",
"b_	c #F8ECD9",
"c_	c #E7DAC5",
"d_	c #FEF9E4",
"e_	c #EFE4D6",
"f_	c #B6B0AA",
"g_	c #CAC2BC",
"h_	c #F9EDDD",
"i_	c #F6E7DE",
"j_	c #FAE7DE",
"k_	c #FEF5E0",
"l_	c #FAF6EE",
"m_	c #F0E7D5",
"n_	c #FAEBD5",
"o_	c #EEDFCD",
"p_	c #C0B5AF",
"q_	c #E8E6EB",
"r_	c #FAE8E6",
"s_	c #FDE9D6",
"t_	c #E7DFE8",
"u_	c #EFEAEA",
"v_	c #FAEBE4",
"w_	c #8D8A7B",
"x_	c #1E1D1B",
"y_	c #746C77",
"z_	c #595561",
"A_	c #54525E",
"B_	c #72676E",
"C_	c #6B6269",
"D_	c #70666D",
"E_	c #5C5763",
"F_	c #625A64",
"G_	c #5A5660",
"H_	c #665F66",
"I_	c #615B65",
"J_	c #5C5865",
"K_	c #68616B",
"L_	c #6C656E",
"M_	c #515162",
"N_	c #52505E",
"O_	c #454654",
"P_	c #21212A",
"Q_	c #070709",
"R_	c #F6EBD4",
"S_	c #E6DCC6",
"T_	c #FCF8EA",
"U_	c #EADECD",
"V_	c #E1DBDD",
"W_	c #ECDCCC",
"X_	c #F7EAD7",
"Y_	c #F7F0E5",
"Z_	c #FDF8E6",
"`_	c #FBF1DA",
" :	c #FEFBE6",
".:	c #F6EBE1",
"+:	c #FCF7EE",
"@:	c #E9D9C7",
"#:	c #EFE5E6",
"$:	c #FAE6D4",
"%:	c #F4E0CC",
"&:	c #E7D8D8",
"*:	c #F3DFD7",
"=:	c #EDE5E7",
"-:	c #FFECDB",
";:	c #868480",
">:	c #312C2E",
",:	c #776E78",
"':	c #655D65",
"):	c #6D6369",
"!:	c #57535F",
"~:	c #635D67",
"{:	c #595663",
"]:	c #5E5A67",
"^:	c #585664",
"/:	c #404458",
"(:	c #454758",
"_:	c #484958",
"::	c #484857",
"<:	c #41424F",
"[:	c #323647",
"}:	c #E2D7C4",
"|:	c #E8DEC8",
"1:	c #F0EADA",
"2:	c #F8F8E2",
"3:	c #F6E4DB",
"4:	c #F6EAD7",
"5:	c #F8EDD9",
"6:	c #FEF5E1",
"7:	c #FCF6EE",
"8:	c #F6F2E2",
"9:	c #F8EFE4",
"0:	c #D9D3D7",
"a:	c #F2DECA",
"b:	c #D2C9C0",
"c:	c #CABCAE",
"d:	c #EAE3D8",
"e:	c #F6F0E9",
"f:	c #6E6874",
"g:	c #6F656A",
"h:	c #6F656C",
"i:	c #55515D",
"j:	c #55525D",
"k:	c #665E67",
"l:	c #7C7075",
"m:	c #7C7074",
"n:	c #4F4E5F",
"o:	c #454658",
"p:	c #444556",
"q:	c #4B4954",
"r:	c #4D4A55",
"s:	c #3E3E4B",
"t:	c #24232A",
"u:	c #F2E6D3",
"v:	c #F1E8D1",
"w:	c #EDE0CE",
"x:	c #F2E7D0",
"y:	c #F5ECDA",
"z:	c #F9F2E1",
"A:	c #F8E8D6",
"B:	c #F6F1E0",
"C:	c #F4EEDD",
"D:	c #FEFBEE",
"E:	c #FCEFE0",
"F:	c #FCF5DF",
"G:	c #F6EED9",
"H:	c #FCF5E4",
"I:	c #FFFEF6",
"J:	c #FAE5D3",
"K:	c #EAD9C6",
"L:	c #EFE0CD",
"M:	c #EFE1CB",
"N:	c #FDF9E8",
"O:	c #8A8477",
"P:	c #2C282C",
"Q:	c #726A75",
"R:	c #565461",
"S:	c #4F4E5E",
"T:	c #524F5B",
"U:	c #746A6F",
"V:	c #7C6F74",
"W:	c #786D74",
"X:	c #716872",
"Y:	c #69626D",
"Z:	c #6C646E",
"`:	c #5D5A66",
" <	c #424352",
".<	c #494652",
"+<	c #3F3F4C",
"@<	c #3E3E4A",
"#<	c #403E4A",
"$<	c #2B282C",
"%<	c #070809",
"&<	c #EEE1CF",
"*<	c #F4E8D5",
"=<	c #FCF9E8",
"-<	c #F6EBD9",
";<	c #F1E5D2",
"><	c #ECE0CD",
",<	c #E8DDC7",
"'<	c #F7E8DE",
")<	c #FCF1DA",
"!<	c #FAF0DC",
"~<	c #FAF2E4",
"{<	c #FCF7EA",
"]<	c #FCF8EE",
"^<	c #DCCEBB",
"/<	c #8A8378",
"(<	c #686370",
"_<	c #655E66",
":<	c #504F5E",
"<<	c #5B5662",
"[<	c #5F5A63",
"}<	c #55505B",
"|<	c #56505A",
"1<	c #585462",
"2<	c #6A636C",
"3<	c #7C7076",
"4<	c #6C6570",
"5<	c #635E6B",
"6<	c #796E75",
"7<	c #6C656F",
"8<	c #3C3E4C",
"9<	c #41404C",
"0<	c #40404C",
"a<	c #323645",
"b<	c #403F4B",
"c<	c #534D53",
"d<	c #28262C",
"e<	c #0A080A",
"f<	c #E7DCC8",
"g<	c #EDDFCA",
"h<	c #F9EDD5",
"i<	c #F8F0DD",
"j<	c #F3EBD6",
"k<	c #F9F4E3",
"l<	c #F9EED9",
"m<	c #F5EAD6",
"n<	c #F1E4D1",
"o<	c #E3DAC5",
"p<	c #F7F0DC",
"q<	c #F7ECD7",
"r<	c #F7F5E9",
"s<	c #FBF6E7",
"t<	c #F1E2CF",
"u<	c #837D71",
"v<	c #6B6572",
"w<	c #6B6268",
"x<	c #615B64",
"y<	c #57525D",
"z<	c #3C3F50",
"A<	c #444451",
"B<	c #796D73",
"C<	c #7D7176",
"D<	c #83757A",
"E<	c #86787C",
"F<	c #726A73",
"G<	c #807379",
"H<	c #786E76",
"I<	c #645F6C",
"J<	c #4B4B5A",
"K<	c #474756",
"L<	c #444553",
"M<	c #42414E",
"N<	c #393A48",
"O<	c #42404A",
"P<	c #48444D",
"Q<	c #42404B",
"R<	c #564F54",
"S<	c #2A282C",
"T<	c #080709",
"U<	c #F9E9D3",
"V<	c #F8F1DC",
"W<	c #F4F5E9",
"X<	c #F4EADC",
"Y<	c #F6F0E1",
"Z<	c #F6E9D6",
"`<	c #F8EDDA",
" [	c #F6EBD5",
".[	c #F4F1E9",
"+[	c #F2EBD8",
"@[	c #FCF9EB",
"#[	c #F5E8D5",
"$[	c #867F73",
"%[	c #83777D",
"&[	c #5F5862",
"*[	c #645D67",
"=[	c #5F5963",
"-[	c #524D57",
";[	c #675D61",
">[	c #645D64",
",[	c #5F5964",
"'[	c #74696E",
")[	c #756B72",
"![	c #7F7378",
"~[	c #84767B",
"{[	c #81767C",
"][	c #85787E",
"^[	c #766D76",
"/[	c #635E6C",
"([	c #3F4255",
"_[	c #444555",
":[	c #534F59",
"<[	c #40404F",
"[[	c #4A4752",
"}[	c #403F4C",
"|[	c #42414C",
"1[	c #4D4851",
"2[	c #43414C",
"3[	c #49454E",
"4[	c #4C4850",
"5[	c #FEEEDE",
"6[	c #E6DEDD",
"7[	c #FAF3DD",
"8[	c #FCF8EF",
"9[	c #ECE1CE",
"0[	c #F5EBD4",
"a[	c #FCF3DE",
"b[	c #F3E9D3",
"c[	c #FBF9ED",
"d[	c #332E30",
"e[	c #8B7E83",
"f[	c #796C70",
"g[	c #686069",
"h[	c #6F646C",
"i[	c #70676E",
"j[	c #7B7076",
"k[	c #6D6670",
"l[	c #756C75",
"m[	c #6B6571",
"n[	c #6F6874",
"o[	c #7C717A",
"p[	c #625F6E",
"q[	c #66616E",
"r[	c #625E6C",
"s[	c #5D5A69",
"t[	c #4C4E5F",
"u[	c #494A5A",
"v[	c #3A3E50",
"w[	c #494650",
"x[	c #44424C",
"y[	c #41404B",
"z[	c #4E494F",
"A[	c #2C292D",
"B[	c #0B0A0A",
"C[	c #EBE6EA",
"D[	c #F5E3DB",
"E[	c #DAD2C7",
"F[	c #F4F4E0",
"G[	c #EFE5D0",
"H[	c #EAE0CB",
"I[	c #F6F4DF",
"J[	c #F4ECD8",
"K[	c #FEF8E8",
"L[	c #DBD1BC",
"M[	c #EBE0CC",
"N[	c #605E6F",
"O[	c #5C5761",
"P[	c #73686E",
"Q[	c #766B70",
"R[	c #6F666D",
"S[	c #525160",
"T[	c #5C5863",
"U[	c #55525E",
"V[	c #474857",
"W[	c #74676B",
"X[	c #696067",
"Y[	c #807276",
"Z[	c #6D666E",
"`[	c #736A72",
" }	c #6E6772",
".}	c #67626F",
"+}	c #5A5969",
"@}	c #545466",
"#}	c #5D5B6A",
"$}	c #585766",
"%}	c #43465A",
"&}	c #434657",
"*}	c #444453",
"=}	c #514D58",
"-}	c #5A5258",
";}	c #4D4850",
">}	c #564E54",
",}	c #5B5257",
"'}	c #4E4952",
")}	c #302C2F",
"!}	c #FCE9DB",
"~}	c #F4E7E0",
"{}	c #EEE4D0",
"]}	c #F8EED7",
"^}	c #F7EBD8",
"/}	c #F3ECD9",
"(}	c #F5EAD3",
"_}	c #E8DDC8",
":}	c #F0E6CF",
"<}	c #F7EBD4",
"[}	c #F4EAD6",
"}}	c #FAF7E6",
"|}	c #F8F5EE",
"1}	c #827B70",
"2}	c #29272C",
"3}	c #5F5D6E",
"4}	c #807174",
"5}	c #54525F",
"6}	c #464656",
"7}	c #524D58",
"8}	c #6F6770",
"9}	c #68626E",
"0}	c #766D75",
"a}	c #696470",
"b}	c #5A5869",
"c}	c #5C5968",
"d}	c #515262",
"e}	c #605C69",
"f}	c #505062",
"g}	c #41465A",
"h}	c #494A5B",
"i}	c #464858",
"j}	c #4D4B57",
"k}	c #4A464E",
"l}	c #4F4A51",
"m}	c #2B292D",
"n}	c #EDE1DF",
"o}	c #FEEAD7",
"p}	c #EEE4E0",
"q}	c #F6EEDA",
"r}	c #F8F6E8",
"s}	c #FDF4DE",
"t}	c #F2E9D5",
"u}	c #FBF6E3",
"v}	c #E0D6C2",
"w}	c #2E2A2E",
"x}	c #7E747E",
"y}	c #625B65",
"z}	c #5A5762",
"A}	c #4A4B5A",
"B}	c #5D5761",
"C}	c #75686A",
"D}	c #75696D",
"E}	c #746A73",
"F}	c #7E7278",
"G}	c #5A5868",
"H}	c #535364",
"I}	c #4C4D5F",
"J}	c #545262",
"K}	c #4E4E5F",
"L}	c #404457",
"M}	c #494A59",
"N}	c #46444D",
"O}	c #4E4951",
"P}	c #4A464F",
"Q}	c #232229",
"R}	c #080809",
"S}	c #F1E2D8",
"T}	c #F6E3D1",
"U}	c #FBE7D7",
"V}	c #F9E6D4",
"W}	c #F8F3DD",
"X}	c #F0EDDC",
"Y}	c #F0E7D2",
"Z}	c #F4ECD7",
"`}	c #FCF5E8",
" |	c #F9F4E7",
".|	c #EBE1CC",
"+|	c #E1D7C4",
"@|	c #8A8277",
"#|	c #837880",
"$|	c #5E5864",
"%|	c #7A6D72",
"&|	c #5D5860",
"*|	c #4B4A56",
"=|	c #4E4C56",
"-|	c #74686D",
";|	c #5F5C6A",
">|	c #575666",
",|	c #505061",
"'|	c #515160",
")|	c #50505F",
"!|	c #53515F",
"~|	c #494854",
"{|	c #554E53",
"]|	c #49464F",
"^|	c #F9E6D3",
"/|	c #F6F0EA",
"(|	c #F1E0D3",
"_|	c #FAF3DA",
":|	c #E2D9C5",
"<|	c #EFECD6",
"[|	c #EAE0CC",
"}|	c #E4D8C4",
"||	c #F0EEE2",
"1|	c #ECE0CA",
"2|	c #F4EAD5",
"3|	c #F8F0DE",
"4|	c #F3ECD8",
"5|	c #EADFC9",
"6|	c #FAF5E9",
"7|	c #7A727E",
"8|	c #7A6E72",
"9|	c #555362",
"0|	c #504F5D",
"a|	c #786A6B",
"b|	c #73676A",
"c|	c #7F7073",
"d|	c #515060",
"e|	c #434557",
"f|	c #4F4A52",
"g|	c #504B51",
"h|	c #62585A",
"i|	c #2D2A2E",
"j|	c #F2E3CF",
"k|	c #FBE7D5",
"l|	c #FDEADF",
"m|	c #FCEEE7",
"n|	c #FBEADE",
"o|	c #F6EEE2",
"p|	c #F6E7DA",
"q|	c #EADFCB",
"r|	c #E6E0CC",
"s|	c #F9F3E1",
"t|	c #EBE1CE",
"u|	c #FBF4E2",
"v|	c #EBE1CB",
"w|	c #F6EED8",
"x|	c #1F1C1A",
"y|	c #6C6877",
"z|	c #6F656D",
"A|	c #595664",
"B|	c #595562",
"C|	c #75686B",
"D|	c #6E666D",
"E|	c #4D4C5B",
"F|	c #4D4951",
"G|	c #514C53",
"H|	c #48454F",
"I|	c #FCEEE2",
"J|	c #FAF3F0",
"K|	c #FEF4E6",
"L|	c #E6E1DF",
"M|	c #E9DDD9",
"N|	c #F4DDCA",
"O|	c #F9EBD8",
"P|	c #DDD2BE",
"Q|	c #F7F3E0",
"R|	c #FAF6E4",
"S|	c #E5D9C6",
"T|	c #FBF5E2",
"U|	c #F9EFDE",
"V|	c #EDE3CE",
"W|	c #F6E9D7",
"X|	c #898176",
"Y|	c #1F1E1A",
"Z|	c #2D2A2D",
"`|	c #716A78",
" 1	c #4D4D5B",
".1	c #4E4D5C",
"+1	c #585360",
"@1	c #5D5861",
"#1	c #4C4C5C",
"$1	c #4B4C5B",
"%1	c #5A565F",
"&1	c #404251",
"*1	c #514C55",
"=1	c #25242A",
"-1	c #FEF4DE",
";1	c #F8E8E2",
">1	c #F9E9DE",
",1	c #F2E4DA",
"'1	c #F7E6DE",
")1	c #DCD2BE",
"!1	c #F8F7E4",
"~1	c #FAF1DC",
"{1	c #F4ECD6",
"]1	c #F0EBD7",
"^1	c #FDF6E1",
"/1	c #F7ECDF",
"(1	c #878073",
"_1	c #27262A",
":1	c #736C78",
"<1	c #53505E",
"[1	c #5C5662",
"}1	c #776A6D",
"|1	c #6A6268",
"11	c #5C5862",
"21	c #72666C",
"31	c #5D5865",
"41	c #555361",
"51	c #544D55",
"61	c #504B52",
"71	c #504A52",
"81	c #2A272C",
"91	c #FDF1DC",
"01	c #FAE8D5",
"a1	c #F2E6EB",
"b1	c #F3E6E8",
"c1	c #FAEAE4",
"d1	c #F2E9E3",
"e1	c #FDEBDA",
"f1	c #F5E6D0",
"g1	c #F6EAD8",
"h1	c #F8F1DF",
"i1	c #FAF4DD",
"j1	c #F5E9D5",
"k1	c #FAF4E5",
"l1	c #FAF3E2",
"m1	c #F3E5D6",
"n1	c #786F7A",
"o1	c #635C65",
"p1	c #6A6067",
"q1	c #4C4C5A",
"r1	c #F2E7E4",
"s1	c #FCEAD5",
"t1	c #F5E9D7",
"u1	c #FAF3E6",
"v1	c #FBF4E1",
"w1	c #E6DBC6",
"x1	c #F2E8D3",
"y1	c #F8F1DB",
"z1	c #F6ECDA",
"A1	c #FAF4E6",
"B1	c #F9F4E8",
"C1	c #D4CAC2",
"D1	c #F8E5D2",
"E1	c #EAE3EC",
"F1	c #F6E0D2",
"G1	c #F9E8E2",
"H1	c #7C7978",
"I1	c #201D1B",
"J1	c #2B282D",
"K1	c #47495A",
"L1	c #56525F",
"M1	c #7D6F72",
"N1	c #514F5D",
"O1	c #524C53",
"P1	c #1E1F27",
"Q1	c #F3E7D0",
"R1	c #E5DBC7",
"S1	c #E6DBC8",
"T1	c #F3E3D0",
"U1	c #F0E0CB",
"V1	c #F9E8D6",
"W1	c #F8ECDC",
"X1	c #FAF7EE",
"Y1	c #E3D7C4",
"Z1	c #F0E8D7",
"`1	c #F5F1DE",
" 2	c #F2EBD4",
".2	c #F2E7D5",
"+2	c #F5E9D2",
"@2	c #F7EAD3",
"#2	c #FEF7E4",
"$2	c #FAF3EE",
"%2	c #E0D8D1",
"&2	c #F6E2CF",
"*2	c #EAE1DB",
"=2	c #F5E4D3",
"-2	c #B1AFB4",
";2	c #747069",
">2	c #817780",
",2	c #6B636A",
"'2	c #585560",
")2	c #605963",
"!2	c #837476",
"~2	c #6B626B",
"{2	c #756A6F",
"]2	c #6A616A",
"^2	c #4C4B5B",
"/2	c #4F4E5A",
"(2	c #E7DBC8",
"_2	c #F6ECEF",
":2	c #FAEBDD",
"<2	c #F7F3E8",
"[2	c #F1E8D7",
"}2	c #D9D0BC",
"|2	c #E9DDC9",
"12	c #FCEED8",
"22	c #F5E9D6",
"32	c #FCF4EA",
"42	c #F1ECDA",
"52	c #EFE4CE",
"62	c #F0E3DC",
"72	c #E5DFDF",
"82	c #FBE6D4",
"92	c #E2D4CE",
"02	c #D4CCC4",
"a2	c #676463",
"b2	c #1E1C1C",
"c2	c #342F32",
"d2	c #7F7681",
"e2	c #776C70",
"f2	c #686168",
"g2	c #605B65",
"h2	c #51505D",
"i2	c #454450",
"j2	c #504B54",
"k2	c #E6DAC8",
"l2	c #F9E9DC",
"m2	c #F5E8E0",
"n2	c #FBECDC",
"o2	c #FAF3E0",
"p2	c #F2EAD4",
"q2	c #F0E8D2",
"r2	c #F2EDD9",
"s2	c #ECE3CE",
"t2	c #FBF2DC",
"u2	c #F5ECD7",
"v2	c #F0E6E3",
"w2	c #F6EEEF",
"x2	c #EDE3E8",
"y2	c #F9E5D9",
"z2	c #E2DCDF",
"A2	c #8A837A",
"B2	c #2A282E",
"C2	c #97878C",
"D2	c #67616B",
"E2	c #625A63",
"F2	c #615C68",
"G2	c #736870",
"H2	c #F4E4D0",
"I2	c #F6E8E8",
"J2	c #E1DDDF",
"K2	c #FEF6E6",
"L2	c #E6DCC8",
"M2	c #F2E7D3",
"N2	c #F9ECD5",
"O2	c #F6E8E6",
"P2	c #F6EDD7",
"Q2	c #F0E9D7",
"R2	c #F4EAD8",
"S2	c #F8F2E5",
"T2	c #F9E9D9",
"U2	c #F4E6DD",
"V2	c #FDE8D5",
"W2	c #EAE4ED",
"X2	c #EEDFD9",
"Y2	c #F8E9E5",
"Z2	c #D2CECE",
"`2	c #8D8378",
" 3	c #1D1C1B",
".3	c #827984",
"+3	c #71686F",
"@3	c #57535D",
"#3	c #3F4252",
"$3	c #2B292E",
"%3	c #F8EAD8",
"&3	c #E8DCC9",
"*3	c #FBF3E8",
"=3	c #F2EAE9",
"-3	c #F2E5E9",
";3	c #E1D7C3",
">3	c #F5ECDC",
",3	c #FBF7E7",
"'3	c #FBFAE8",
")3	c #F7F0E3",
"!3	c #FCF9EA",
"~3	c #FCF4E0",
"{3	c #F6ECDE",
"]3	c #F7F4E9",
"^3	c #FAF6E7",
"/3	c #FEF6E4",
"(3	c #FAEBE9",
"_3	c #E7DFE6",
":3	c #FDE8D4",
"<3	c #F8E6DA",
"[3	c #F8E8D8",
"}3	c #DDCCC4",
"|3	c #8D837A",
"13	c #8D818A",
"23	c #605C67",
"33	c #746970",
"43	c #7C6F75",
"53	c #595765",
"63	c #575360",
"73	c #434452",
"83	c #FCF7E4",
"93	c #F1EAD8",
"03	c #FAF4E4",
"a3	c #EEE7E7",
"b3	c #F7EDDA",
"c3	c #FEF7EC",
"d3	c #FCF1E0",
"e3	c #F9EFD9",
"f3	c #FAF5DF",
"g3	c #FAF5E8",
"h3	c #FEFAF2",
"i3	c #EFEAF0",
"j3	c #FAE7D6",
"k3	c #EEE4E7",
"l3	c #FEECDC",
"m3	c #F1ECED",
"n3	c #F6E8DD",
"o3	c #8B8179",
"p3	c #2E2B30",
"q3	c #877C88",
"r3	c #4A4B5B",
"s3	c #786C71",
"t3	c #726970",
"u3	c #625E69",
"v3	c #5E5B68",
"w3	c #645E6A",
"x3	c #505060",
"y3	c #504E5E",
"z3	c #544F5A",
"A3	c #24242A",
"B3	c #F9F6ED",
"C3	c #F4E9D6",
"D3	c #DFD5CE",
"E3	c #EADFCA",
"F3	c #E9DEC7",
"G3	c #F8EFDD",
"H3	c #F2EADB",
"I3	c #F4EFD8",
"J3	c #F6EEE0",
"K3	c #FBE7D4",
"L3	c #FAEAE3",
"M3	c #FCEDE1",
"N3	c #F8EAEC",
"O3	c #FEECE2",
"P3	c #ECD6BF",
"Q3	c #1E1D1D",
"R3	c #332E32",
"S3	c #726E7C",
"T3	c #504F5C",
"U3	c #5D5A67",
"V3	c #5E5A68",
"W3	c #4D4D5E",
"X3	c #706568",
"Y3	c #2E2B2F",
"Z3	c #F0DFCC",
"`3	c #EADEDC",
" 4	c #EFE4D2",
".4	c #E9DFC9",
"+4	c #E7DDC8",
"@4	c #F9ECE8",
"#4	c #F2E8EC",
"$4	c #F2E5DE",
"%4	c #CFC1B6",
"&4	c #D6CEC5",
"*4	c #F7EBD7",
"=4	c #857E73",
"-4	c #201F1D",
";4	c #847A84",
">4	c #545261",
",4	c #635C67",
"'4	c #484858",
")4	c #736A71",
"!4	c #5D5965",
"~4	c #555261",
"{4	c #454656",
"]4	c #766A6C",
"^4	c #4D4954",
"/4	c #29282D",
"(4	c #F6EAE8",
"_4	c #EBDDC9",
":4	c #E5D8C6",
"<4	c #E3D9C4",
"[4	c #E2D7C3",
"}4	c #E4DAC5",
"|4	c #EADFCC",
"14	c #F6EEDC",
"24	c #F1E7D2",
"34	c #F8F0E0",
"44	c #F6E6DC",
"54	c #FAE9E4",
"64	c #E8DEDD",
"74	c #ECE0DC",
"84	c #F3E1D1",
"94	c #E4D4CE",
"04	c #88817F",
"a4	c #1C1C1B",
"b4	c #322E30",
"c4	c #807882",
"d4	c #7A6D71",
"e4	c #6A636B",
"f4	c #625D6A",
"g4	c #59555F",
"h4	c #24242B",
"i4	c #E9DBCB",
"j4	c #EEE3CD",
"k4	c #FEF7EB",
"l4	c #F0E5CF",
"m4	c #FBF7EC",
"n4	c #F1E3D0",
"o4	c #FAE5D2",
"p4	c #EDE2EB",
"q4	c #F9EAE1",
"r4	c #FAEAE5",
"s4	c #F8E6DC",
"t4	c #F4E5D4",
"u4	c #ECD8C8",
"v4	c #898179",
"w4	c #7C747F",
"x4	c #7B6E72",
"y4	c #545464",
"z4	c #535160",
"A4	c #464757",
"B4	c #434351",
"C4	c #41414E",
"D4	c #25242B",
"E4	c #070708",
"F4	c #EEE3DC",
"G4	c #F7E6DF",
"H4	c #E9DECA",
"I4	c #DFD4C0",
"J4	c #F5EDD7",
"K4	c #F0EEDC",
"L4	c #EEE0CD",
"M4	c #F8E4D2",
"N4	c #F8E3D0",
"O4	c #FCE8D5",
"P4	c #8B8075",
"Q4	c #8C7F86",
"R4	c #71676F",
"S4	c #867676",
"T4	c #7D7074",
"U4	c #635E68",
"V4	c #5F5B66",
"W4	c #5B555D",
"X4	c #484856",
"Y4	c #060708",
"Z4	c #BCB6AA",
"`4	c #847F73",
" 5	c #8C8276",
".5	c #858384",
"+5	c #8B867A",
"@5	c #867E73",
"#5	c #847D72",
"$5	c #868075",
"%5	c #867F74",
"&5	c #898378",
"*5	c #898478",
"=5	c #898476",
"-5	c #8B8578",
";5	c #898376",
">5	c #8E8A84",
",5	c #878175",
"'5	c #8A8276",
")5	c #8B8278",
"!5	c #898377",
"~5	c #847E73",
"{5	c #847E72",
"]5	c #827C70",
"^5	c #888275",
"/5	c #868175",
"(5	c #8A8578",
"_5	c #8C867C",
":5	c #88867B",
"<5	c #89887E",
"[5	c #8C8887",
"}5	c #8A8787",
"|5	c #8A8A86",
"15	c #8C8579",
"25	c #8A8278",
"35	c #625C53",
"45	c #332E31",
"55	c #34323A",
"65	c #3A363C",
"75	c #323038",
"85	c #3A363B",
"95	c #3C383C",
"05	c #3E393D",
"a5	c #443C3F",
"b5	c #423C3F",
"c5	c #403A3E",
"d5	c #3E3A3E",
"e5	c #3D383D",
"f5	c #3E383E",
"g5	c #3E393E",
"h5	c #36343A",
"i5	c #3E393C",
"j5	c #3D383C",
"k5	c #3C373D",
"l5	c #323138",
"m5	c #343239",
"n5	c #2C2C35",
"o5	c #3E383D",
"p5	c #373339",
"q5	c #302E35",
"r5	c #2E2C34",
"s5	c #363236",
"t5	c #322F35",
"u5	c #2E2C33",
"v5	c #332F34",
"w5	c #312E33",
"x5	c #312E32",
"y5	c #2F2C32",
"z5	c #2C2A31",
"A5	c #353035",
"B5	c #343035",
"C5	c #2F2D33",
"D5	c #302E34",
"E5	c #343036",
"F5	c #363237",
"G5	c #2D2B32",
"H5	c #2C2B32",
"I5	c #25252E",
"J5	c #1F202A",
"K5	c #24242C",
"L5	c #1A1C26",
"M5	c #18171C",
"N5	c #060608",
"O5	c #373532",
"P5	c #1F1D1E",
"Q5	c #201F1C",
"R5	c #1D1B18",
"S5	c #1C1B19",
"T5	c #1F1F1D",
"U5	c #20201E",
"V5	c #201F1F",
"W5	c #1B1917",
"X5	c #161418",
"Y5	c #0E0C0E",
"Z5	c #0B0B0C",
"`5	c #0E0C0D",
" 6	c #0E0D0E",
".6	c #0C0C0D",
"+6	c #0F0D0E",
"@6	c #100E0F",
"#6	c #0D0C0D",
"$6	c #0D0C0E",
"%6	c #0A0A0C",
"&6	c #0B0A0C",
"*6	c #0A090B",
"=6	c #07080A",
"-6	c #060607",
";6	c #18181B",
">6	c #1F1D20",
",6	c #1A191D",
"'6	c #1B191D",
")6	c #201C1F",
"!6	c #201D20",
"~6	c #1F1D1F",
"{6	c #1D1C1F",
"]6	c #211E21",
"^6	c #1C1B20",
"/6	c #282325",
"(6	c #282425",
"_6	c #211F22",
":6	c #2A2626",
"<6	c #242124",
"[6	c #242224",
"}6	c #232024",
"|6	c #302A2A",
"16	c #312B2B",
"26	c #282427",
"36	c #302A2B",
"46	c #212025",
"56	c #282629",
"66	c #272428",
"76	c #242228",
"86	c #252328",
"96	c #262429",
"06	c #252429",
"a6	c #29262B",
"b6	c #232228",
"c6	c #312C2F",
"d6	c #2F2B2E",
"e6	c #2C2A2E",
"f6	c #171618",
"g6	c #4D4C4C",
"h6	c #383632",
"i6	c #665B5F",
"j6	c #615961",
"k6	c #534E5A",
"l6	c #665D63",
"m6	c #74686C",
"n6	c #807274",
"o6	c #70666F",
"p6	c #726871",
"q6	c #5F5A67",
"r6	c #4C4D5E",
"s6	c #4B4D5E",
"t6	c #5B5867",
"u6	c #6A636E",
"v6	c #6D6673",
"w6	c #797078",
"x6	c #615E6E",
"y6	c #6C6774",
"z6	c #786F79",
"A6	c #79707A",
"B6	c #79717B",
"C6	c #807780",
"D6	c #EBECEC",
"E6	c #CDC7C1",
"F6	c #C0BEB4",
"G6	c #49444B",
"H6	c #403D46",
"I6	c #3E3B44",
"J6	c #4D464A",
"K6	c #484348",
"L6	c #4C464B",
"M6	c #4A474F",
"N6	c #3A3A46",
"O6	c #574E53",
"P6	c #60575B",
"Q6	c #655B60",
"R6	c #4E4A55",
"S6	c #474650",
"T6	c #524D54",
"U6	c #38343A",
"V6	c #FEF7F0",
"W6	c #FCF1DD",
"X6	c #EFE1D1",
"Y6	c #EEE5E0",
"Z6	c #EBDED3",
"`6	c #FCEDDA",
" 7	c #F7F2E6",
".7	c #F7EED9",
"+7	c #F6F6E6",
"@7	c #F6ECDF",
"#7	c #F8EADF",
"$7	c #FEFAED",
"%7	c #FEF5E9",
"&7	c #F2E2DB",
"*7	c #FAF6E5",
"=7	c #F3EFD6",
"-7	c #FEFAEE",
";7	c #F3E6D9",
">7	c #F0E9DA",
",7	c #F1EADE",
"'7	c #201E22",
")7	c #524A4F",
"!7	c #50494F",
"~7	c #403D47",
"{7	c #3F3C43",
"]7	c #4E474A",
"^7	c #484248",
"/7	c #50484D",
"(7	c #4B474F",
"_7	c #585156",
":7	c #4F4B56",
"<7	c #45434E",
"[7	c #42414D",
"}7	c #675E65",
"|7	c #2C2B34",
"17	c #F4F0EC",
"27	c #FCEFDA",
"37	c #F0E3D2",
"47	c #DAD0BC",
"57	c #F4F0E0",
"67	c #F9E6D2",
"77	c #F4E6DC",
"87	c #EEE2DA",
"97	c #EEE7D2",
"07	c #F9F4E6",
"a7	c #E4D8CF",
"b7	c #F2EFE9",
"c7	c #E0D6C0",
"d7	c #232023",
"e7	c #444149",
"f7	c #3E3C46",
"g7	c #423E46",
"h7	c #494348",
"i7	c #544C51",
"j7	c #575056",
"k7	c #4A4751",
"l7	c #4A4750",
"m7	c #615962",
"n7	c #323036",
"o7	c #E1D7C2",
"p7	c #EFE5D4",
"q7	c #FAEFD6",
"r7	c #F0ECDA",
"s7	c #F3EBD7",
"t7	c #EEE5D0",
"u7	c #F5F0DA",
"v7	c #F2E9F0",
"w7	c #F6EFDC",
"x7	c #F9F0E2",
"y7	c #F2E8E3",
"z7	c #E8E0D4",
"A7	c #1E1E1B",
"B7	c #423F47",
"C7	c #4E484C",
"D7	c #393841",
"E7	c #434047",
"F7	c #706264",
"G7	c #675C60",
"H7	c #5C555A",
"I7	c #3E3F4E",
"J7	c #323035",
"K7	c #EDE5D7",
"L7	c #E5DAC6",
"M7	c #F9F0DA",
"N7	c #E6DBC7",
"O7	c #F9F3E2",
"P7	c #FEFAEC",
"Q7	c #F9F6EA",
"R7	c #FCF3E5",
"S7	c #FAF2DF",
"T7	c #F2E6E9",
"U7	c #FAF2E5",
"V7	c #F7E8D2",
"W7	c #F9F4DE",
"X7	c #FAE7D3",
"Y7	c #ECE1D3",
"Z7	c #F4E7DE",
"`7	c #E4D9C5",
" 8	c #FAF4E0",
".8	c #848076",
"+8	c #222023",
"@8	c #45414A",
"#8	c #46424B",
"$8	c #4C474D",
"%8	c #413E47",
"&8	c #4B464B",
"*8	c #3A3843",
"=8	c #433F46",
"-8	c #3F3C45",
";8	c #5C5254",
">8	c #4B474E",
",8	c #544F57",
"'8	c #484550",
")8	c #44434E",
"!8	c #595257",
"~8	c #4B4851",
"{8	c #42404C",
"]8	c #464756",
"^8	c #282830",
"/8	c #F5EAD2",
"(8	c #F7E9D7",
"_8	c #DED4C0",
":8	c #FDF6E9",
"<8	c #F8EEDE",
"[8	c #F2EAD2",
"}8	c #FCEADB",
"|8	c #F4E6DB",
"18	c #D0C9C7",
"28	c #F6F3F1",
"38	c #F0E1CF",
"48	c #EDE4E9",
"58	c #E7DFD6",
"68	c #ECDECE",
"78	c #E6DBC5",
"88	c #FCF9ED",
"98	c #E6DCC7",
"08	c #F4F2E9",
"a8	c #F3ECDC",
"b8	c #88837B",
"c8	c #635B63",
"d8	c #3A3A45",
"e8	c #4F484E",
"f8	c #454048",
"g8	c #4A454A",
"h8	c #494349",
"i8	c #575057",
"j8	c #353848",
"k8	c #484653",
"l8	c #43424F",
"m8	c #60585C",
"n8	c #4F4A54",
"o8	c #534E54",
"p8	c #5B5358",
"q8	c #5E555C",
"r8	c #3F4152",
"s8	c #F6E8D6",
"t8	c #ECDECA",
"u8	c #FAF1DB",
"v8	c #F7EFD7",
"w8	c #F7F4ED",
"x8	c #F1F1E9",
"y8	c #FBEDD6",
"z8	c #FDF2DD",
"A8	c #F4EAE0",
"B8	c #F4E9E1",
"C8	c #FDF5E2",
"D8	c #F7F3E4",
"E8	c #F8EED6",
"F8	c #FEF7E3",
"G8	c #EBE1CA",
"H8	c #88877F",
"I8	c #524E5B",
"J8	c #45424C",
"K8	c #4F484F",
"L8	c #4B454C",
"M8	c #514B51",
"N8	c #3C3D4C",
"O8	c #62585C",
"P8	c #41404D",
"Q8	c #3C3C49",
"R8	c #48454E",
"S8	c #43424C",
"T8	c #322E33",
"U8	c #FAF0D8",
"V8	c #E0D3BE",
"W8	c #DCD2CC",
"X8	c #D7CDC2",
"Y8	c #E2D9D8",
"Z8	c #F8E5D6",
"`8	c #F5EBDB",
" 9	c #F0EAEF",
".9	c #F7E8E2",
"+9	c #F9EDD9",
"@9	c #FCF5E1",
"#9	c #FCF1DE",
"$9	c #F4EBD8",
"%9	c #F3E9F0",
"&9	c #F7EFD8",
"*9	c #ECE9D8",
"=9	c #FAF8EC",
"-9	c #FCFAEA",
";9	c #4E4950",
">9	c #4A454E",
",9	c #434049",
"'9	c #45424A",
")9	c #434048",
"!9	c #524B50",
"~9	c #4D474E",
"{9	c #48444B",
"]9	c #4E484F",
"^9	c #43404A",
"/9	c #5A5054",
"(9	c #48464F",
"_9	c #3C3C4A",
":9	c #5C565D",
"<9	c #645C60",
"[9	c #4C4953",
"}9	c #3F3E4A",
"|9	c #524D55",
"19	c #2F2C31",
"29	c #F5E9E4",
"39	c #FAEAE0",
"49	c #F4E4DC",
"59	c #F4E1CF",
"69	c #FEF9F5",
"79	c #EEE7EC",
"89	c #FBE8E4",
"99	c #FEEBDA",
"09	c #F6EEE3",
"a9	c #FAEFEB",
"b9	c #FAF1E4",
"c9	c #FBF6F0",
"d9	c #F2EEF0",
"e9	c #F3E9E0",
"f9	c #F9EDE2",
"g9	c #F6EAED",
"h9	c #F6E9E9",
"i9	c #F6E8D5",
"j9	c #EDE6D6",
"k9	c #E8E1CB",
"l9	c #FAF2E0",
"m9	c #878075",
"n9	c #211F24",
"o9	c #3F3E48",
"p9	c #424048",
"q9	c #3F3D48",
"r9	c #49464D",
"s9	c #44424D",
"t9	c #333646",
"u9	c #363845",
"v9	c #4E4850",
"w9	c #4C484F",
"x9	c #695E60",
"y9	c #6A5F63",
"z9	c #F4E6DF",
"A9	c #F5E6D4",
"B9	c #F4EBD7",
"C9	c #F8E8DE",
"D9	c #FCEBDC",
"E9	c #F3E5DF",
"F9	c #FDF6EB",
"G9	c #F0E7E9",
"H9	c #FBEFDB",
"I9	c #FDEFDB",
"J9	c #FDEBDC",
"K9	c #F8F0E5",
"L9	c #FDEDD8",
"M9	c #F3ECEA",
"N9	c #F6E7DC",
"O9	c #F2EAD7",
"P9	c #EBE6D6",
"Q9	c #FAF8EE",
"R9	c #FEFCE8",
"S9	c #201F22",
"T9	c #595053",
"U9	c #3E3D47",
"V9	c #323440",
"W9	c #383844",
"X9	c #625759",
"Y9	c #49454F",
"Z9	c #4B4850",
"`9	c #564F56",
" 0	c #494651",
".0	c #303444",
"+0	c #63595C",
"@0	c #322F33",
"#0	c #F9E7D3",
"$0	c #FAF2EA",
"%0	c #FBF7F0",
"&0	c #F5F0EA",
"*0	c #FBF1E0",
"=0	c #F5E8D1",
"-0	c #F2E3CE",
";0	c #FCE8DE",
">0	c #F6EADD",
",0	c #F8ECDA",
"'0	c #F8E7DB",
")0	c #E9DED8",
"!0	c #F1EAED",
"~0	c #F9E5D4",
"{0	c #F5EDDB",
"]0	c #F0E8D3",
"^0	c #F2EDDF",
"/0	c #ECE4D1",
"(0	c #252225",
"_0	c #403E48",
":0	c #3D3B43",
"<0	c #574F53",
"[0	c #45424D",
"}0	c #5E5459",
"|0	c #4F4A53",
"10	c #3E3E49",
"20	c #3E3E4C",
"30	c #44424E",
"40	c #3B3C4A",
"50	c #45434C",
"60	c #4F4A50",
"70	c #48444E",
"80	c #4B464E",
"90	c #4C464E",
"00	c #464652",
"a0	c #504C58",
"b0	c #292830",
"c0	c #EEDECA",
"d0	c #EBE0D8",
"e0	c #F4E4CF",
"f0	c #F8F6ED",
"g0	c #F9F5EC",
"h0	c #EEE0CC",
"i0	c #FBF3E2",
"j0	c #F5EDDF",
"k0	c #FBEDE4",
"l0	c #F0E5E1",
"m0	c #EADECA",
"n0	c #E8E3D0",
"o0	c #F3E5D2",
"p0	c #F0EADD",
"q0	c #E2D6C3",
"r0	c #8A867B",
"s0	c #211F23",
"t0	c #5E5558",
"u0	c #4D474F",
"v0	c #534B4F",
"w0	c #3D3C46",
"x0	c #49444C",
"y0	c #63585C",
"z0	c #3E3F4C",
"A0	c #545057",
"B0	c #3A3B47",
"C0	c #D7D5D5",
"D0	c #F2E7DA",
"E0	c #FDEAE2",
"F0	c #F2E2D6",
"G0	c #E6E2E3",
"H0	c #F2DCCC",
"I0	c #F4ECD9",
"J0	c #FEF6E3",
"K0	c #F0EADC",
"L0	c #E1D6C2",
"M0	c #F5EBD5",
"N0	c #F6F0E0",
"O0	c #F8EEDB",
"P0	c #F7EBD9",
"Q0	c #5F575F",
"R0	c #47444C",
"S0	c #413F48",
"T0	c #3E3C45",
"U0	c #4B4751",
"V0	c #5D555A",
"W0	c #403F4A",
"X0	c #47444D",
"Y0	c #25252C",
"Z0	c #F8E7D2",
"`0	c #E5DEE6",
" a	c #EADEC9",
".a	c #F2E4D2",
"+a	c #F6F2EF",
"@a	c #F8EADB",
"#a	c #F1E4DC",
"$a	c #FAF6E6",
"%a	c #FDFBEF",
"&a	c #FCF8EC",
"*a	c #F9F2E6",
"=a	c #F9EFDC",
"-a	c #FCF6E2",
";a	c #FBF8E4",
">a	c #FCF7F0",
",a	c #898277",
"'a	c #282426",
")a	c #3C3B46",
"!a	c #403E46",
"~a	c #4A444B",
"{a	c #584E52",
"]a	c #605659",
"^a	c #63595D",
"/a	c #524B52",
"(a	c #4A4651",
"_a	c #F2E3D0",
":a	c #FAF3ED",
"<a	c #F4F2EB",
"[a	c #F1ECE6",
"}a	c #DCD4CB",
"|a	c #D8D4DA",
"1a	c #C2BDBF",
"2a	c #EDE2D0",
"3a	c #FBF5E7",
"4a	c #F5ECD8",
"5a	c #F8F2DA",
"6a	c #F4EEDA",
"7a	c #4A454B",
"8a	c #5B5359",
"9a	c #4A4650",
"0a	c #3C3C48",
"aa	c #43414B",
"ba	c #5E565A",
"ca	c #F5E4D0",
"da	c #F9ECD4",
"ea	c #F7F2EF",
"fa	c #F7E7DF",
"ga	c #F0EFEF",
"ha	c #EEE1D1",
"ia	c #B4A899",
"ja	c #E2D8D7",
"ka	c #F9EAD9",
"la	c #FAF6E3",
"ma	c #F7F0DA",
"na	c #FAF9EE",
"oa	c #E8DBC8",
"pa	c #EBDDCE",
"qa	c #8C887C",
"ra	c #403E49",
"sa	c #595054",
"ta	c #43414E",
"ua	c #5B535A",
"va	c #3F3E4C",
"wa	c #544F56",
"xa	c #F5E4D1",
"ya	c #F3E1CE",
"za	c #FBE8DA",
"Aa	c #F0E5E8",
"Ba	c #FBEDE0",
"Ca	c #E6E0DC",
"Da	c #F7F1E7",
"Ea	c #FCF2E2",
"Fa	c #F7F0ED",
"Ga	c #F9F7EF",
"Ha	c #F5F2EA",
"Ia	c #ECE1CB",
"Ja	c #232124",
"Ka	c #5A5358",
"La	c #3D3D49",
"Ma	c #49464E",
"Na	c #46444C",
"Oa	c #44414A",
"Pa	c #4D4A53",
"Qa	c #383A47",
"Ra	c #49454C",
"Sa	c #0D0B0C",
"Ta	c #50504E",
"Ua	c #F7E8D5",
"Va	c #FDECE0",
"Wa	c #FEEBDB",
"Xa	c #EDE7E2",
"Ya	c #ECE0D4",
"Za	c #F0F1DE",
"`a	c #E8DCC7",
" b	c #F1E9DA",
".b	c #E5E4D8",
"+b	c #F2E8D4",
"@b	c #F7F2E1",
"#b	c #EADFC7",
"$b	c #DDD0BC",
"%b	c #ECEAD6",
"&b	c #F9F2DF",
"*b	c #878174",
"=b	c #403F48",
"-b	c #424049",
";b	c #4A454D",
">b	c #323544",
",b	c #43404B",
"'b	c #4F4950",
")b	c #64595B",
"!b	c #60575A",
"~b	c #2B282E",
"{b	c #0A0A0A",
"]b	c #FCEEDC",
"^b	c #FCE8D7",
"/b	c #F4E4D8",
"(b	c #F9E7D8",
"_b	c #F6F5E4",
":b	c #F4EDDE",
"<b	c #FBF4DF",
"[b	c #F8EFDE",
"}b	c #EDE1CE",
"|b	c #403F49",
"1b	c #46434B",
"2b	c #5D5457",
"3b	c #3C3D4A",
"4b	c #4B464F",
"5b	c #574F55",
"6b	c #5F555A",
"7b	c #524C55",
"8b	c #302D30",
"9b	c #0D0C0C",
"0b	c #ECDDCA",
"ab	c #DFD3BF",
"bb	c #DAD1CF",
"cb	c #F3DCD6",
"db	c #FAE8DD",
"eb	c #F3E6DD",
"fb	c #F9E9E0",
"gb	c #ECDFD7",
"hb	c #F4E8D6",
"ib	c #EDDFCC",
"jb	c #EEE6D4",
"kb	c #F7F5EA",
"lb	c #F3ECDE",
"mb	c #EDE0CC",
"nb	c #EFE1CE",
"ob	c #F0DEC8",
"pb	c #FAF7E4",
"qb	c #49454D",
"rb	c #3D3C45",
"sb	c #4B464D",
"tb	c #655B5F",
"ub	c #635B60",
"vb	c #46434D",
"wb	c #47434C",
"xb	c #3B3A46",
"yb	c #62575A",
"zb	c #302C30",
"Ab	c #FAF1DD",
"Bb	c #F9EBD4",
"Cb	c #E9D7D0",
"Db	c #D6D1D2",
"Eb	c #EDDED4",
"Fb	c #F6E6D7",
"Gb	c #E7D8CC",
"Hb	c #DAD2CB",
"Ib	c #F3E5D8",
"Jb	c #E9DBD2",
"Kb	c #F9ECDC",
"Lb	c #F2E9D4",
"Mb	c #F4F0E6",
"Nb	c #F7F3E6",
"Ob	c #EDEADC",
"Pb	c #FFFAE7",
"Qb	c #514B50",
"Rb	c #595055",
"Sb	c #56515C",
"Tb	c #4D4852",
"Ub	c #45424B",
"Vb	c #F3EDD8",
"Wb	c #F2E9EA",
"Xb	c #F3E8E2",
"Yb	c #F7E7D6",
"Zb	c #ECDED8",
"`b	c #F7E7D8",
" c	c #ECE1DA",
".c	c #F9EAE2",
"+c	c #E8D8D3",
"@c	c #F5F3E0",
"#c	c #F9F8EE",
"$c	c #F6F1DC",
"%c	c #FDEBDD",
"&c	c #F6EADC",
"*c	c #FAF0E2",
"=c	c #F1E6CF",
"-c	c #E9E0CB",
";c	c #E1D6C1",
">c	c #E2D8C3",
",c	c #4E4A51",
"'c	c #584F54",
")c	c #5A5259",
"!c	c #716466",
"~c	c #4A4754",
"{c	c #645A5C",
"]c	c #343033",
"^c	c #FAEDDB",
"/c	c #F7E9EC",
"(c	c #EFE6DE",
"_c	c #FCEBD5",
":c	c #ECE4EA",
"<c	c #F1DECA",
"[c	c #E7DAD2",
"}c	c #F4E5D8",
"|c	c #F0E4D8",
"1c	c #F0EBDB",
"2c	c #F1E7D4",
"3c	c #ECEDDD",
"4c	c #C4BDB9",
"5c	c #FFECE0",
"6c	c #F4E9EF",
"7c	c #F0EEE6",
"8c	c #C5BAAA",
"9c	c #F4ECEB",
"0c	c #ECE9EA",
"ac	c #EAE2E0",
"bc	c #EEEBEE",
"cc	c #FBEEDF",
"dc	c #424252",
"ec	c #413F49",
"fc	c #63585A",
"gc	c #565158",
"hc	c #2C2A2F",
"ic	c #F8F7E7",
"jc	c #FAEEEF",
"kc	c #FBEAD9",
"lc	c #F6E4D1",
"mc	c #EAE3E4",
"nc	c #EAE6E8",
"oc	c #FBF1DE",
"pc	c #F0E7E2",
"qc	c #FFF0DC",
"rc	c #DFD7D8",
"sc	c #E6E0DE",
"tc	c #EEE1E2",
"uc	c #E1D7C9",
"vc	c #ECE2D7",
"wc	c #F5E0CE",
"xc	c #ECE0D1",
"yc	c #FDEDE4",
"zc	c #E8E2E6",
"Ac	c #F6ECE9",
"Bc	c #FAF6EA",
"Cc	c #8A8478",
"Dc	c #494754",
"Ec	c #363642",
"Fc	c #454249",
"Gc	c #454149",
"Hc	c #3A3A44",
"Ic	c #363743",
"Jc	c #504A4F",
"Kc	c #42424F",
"Lc	c #60565B",
"Mc	c #4C4750",
"Nc	c #5A5156",
"Oc	c #363133",
"Pc	c #FCF8E1",
"Qc	c #F9EADC",
"Rc	c #F5EADE",
"Sc	c #E9DED2",
"Tc	c #F2E5E6",
"Uc	c #ECE3E8",
"Vc	c #DFDAD5",
"Wc	c #F5EED9",
"Xc	c #FBF8E7",
"Yc	c #EEE5E2",
"Zc	c #F7E6E1",
"`c	c #F7E9E7",
" d	c #F0E4EC",
".d	c #F1EAEA",
"+d	c #F0DFDA",
"@d	c #EEE4DB",
"#d	c #F5E7E2",
"$d	c #F4EBEA",
"%d	c #FBE8DB",
"&d	c #FCECDE",
"*d	c #F0DDC5",
"=d	c #F5EAD7",
"-d	c #18181E",
";d	c #454148",
">d	c #444148",
",d	c #665C5E",
"'d	c #554E56",
")d	c #3F3E49",
"!d	c #332F33",
"~d	c #F9F1DE",
"{d	c #DED3CF",
"]d	c #E9E3EA",
"^d	c #EDE0D6",
"/d	c #ECDDD0",
"(d	c #EFE5E4",
"_d	c #F3E6D3",
":d	c #EADECB",
"<d	c #FAEADE",
"[d	c #E5E0DE",
"}d	c #D1C8C2",
"|d	c #EADBC8",
"1d	c #F0E4E4",
"2d	c #E9DAC7",
"3d	c #F7E7E4",
"4d	c #EFE3DE",
"5d	c #FBEEE3",
"6d	c #E0CFBE",
"7d	c #F7F7E7",
"8d	c #494751",
"9d	c #3C3537",
"0d	c #F4ECDD",
"ad	c #CCC1B3",
"bd	c #F8E6D1",
"cd	c #E6DBD6",
"dd	c #F7E5D3",
"ed	c #FBE8DD",
"fd	c #FAE6D8",
"gd	c #F1E3D4",
"hd	c #E8E1E4",
"id	c #F2E0CD",
"jd	c #E9E1DE",
"kd	c #F4E2CF",
"ld	c #FCE9D4",
"md	c #EADEDE",
"nd	c #E4DDE5",
"od	c #D8D5D3",
"pd	c #FEF9E8",
"qd	c #4C474C",
"rd	c #4A464C",
"sd	c #534C54",
"td	c #5F565D",
"ud	c #6D6164",
"vd	c #443C3C",
"wd	c #F0EAD6",
"xd	c #F3DAD0",
"yd	c #FCE6D4",
"zd	c #FCE6D3",
"Ad	c #DDD5D8",
"Bd	c #F0DCC8",
"Cd	c #F5E4D8",
"Dd	c #BBB6B5",
"Ed	c #ECDEC9",
"Fd	c #EADED3",
"Gd	c #F8EDEC",
"Hd	c #E6E4E9",
"Id	c #DED8CE",
"Jd	c #FCEDEC",
"Kd	c #E6D9C5",
"Ld	c #E6DBD0",
"Md	c #D0C4B8",
"Nd	c #E6E0E4",
"Od	c #E3D9D2",
"Pd	c #C2BDBE",
"Qd	c #F8EEEC",
"Rd	c #F8E7D4",
"Sd	c #FAF1E1",
"Td	c #383742",
"Ud	c #44404A",
"Vd	c #3C3A45",
"Wd	c #3B3A45",
"Xd	c #3C3B45",
"Yd	c #64595D",
"Zd	c #534B51",
"`d	c #ECE8E6",
" e	c #D3CABF",
".e	c #F6E2D7",
"+e	c #F5E2DA",
"@e	c #D7D2CF",
"#e	c #F8ECE3",
"$e	c #F6E4E2",
"%e	c #FEECE5",
"&e	c #E8DDDA",
"*e	c #F0E2DC",
"=e	c #E4D8D0",
"-e	c #F0E3D0",
";e	c #D8CDB9",
">e	c #FCECE3",
",e	c #ACA59C",
"'e	c #F9E6D8",
")e	c #F2E4D4",
"!e	c #F3E8E5",
"~e	c #E6DFE0",
"{e	c #F8E3D6",
"]e	c #F8F7F3",
"^e	c #EEECEB",
"/e	c #F0EAEA",
"(e	c #F6F5EA",
"_e	c #343541",
":e	c #645A60",
"<e	c #4A4954",
"[e	c #3C3C47",
"}e	c #695E61",
"|e	c #FEECE1",
"1e	c #E6DEE0",
"2e	c #F4EAE6",
"3e	c #FCE9D8",
"4e	c #D6D4D4",
"5e	c #E8D8CA",
"6e	c #FCEBE5",
"7e	c #FEEAD8",
"8e	c #EAE4E2",
"9e	c #F3E8E6",
"0e	c #DCD5D4",
"ae	c #F8ECD4",
"be	c #F7EADC",
"ce	c #F1E0CE",
"de	c #F6E7D6",
"ee	c #FAEBD4",
"fe	c #FBF4F4",
"ge	c #FBF0D9",
"he	c #E8DCCA",
"ie	c #534B50",
"je	c #5F5559",
"ke	c #655A5E",
"le	c #313546",
"me	c #3A3B48",
"ne	c #6D6062",
"oe	c #EDE0CA",
"pe	c #F5E7E0",
"qe	c #FFEBD8",
"re	c #DCCDC0",
"se	c #E9DEDB",
"te	c #F6E5DB",
"ue	c #F0E4DB",
"ve	c #C5C2C1",
"we	c #F2DCCF",
"xe	c #C8C7C9",
"ye	c #F8E6E5",
"ze	c #B8B4B3",
"Ae	c #FDECD6",
"Be	c #F9EAD8",
"Ce	c #F3E3CB",
"De	c #DAD0C3",
"Ee	c #D0CAC8",
"Fe	c #CFC5BE",
"Ge	c #E8DEDB",
"He	c #E4D8CA",
"Ie	c #FAF7E3",
"Je	c #F7EFDD",
"Ke	c #EBDFCC",
"Le	c #F6ECD4",
"Me	c #413E46",
"Ne	c #6D6061",
"Oe	c #6E6264",
"Pe	c #444351",
"Qe	c #373844",
"Re	c #655A5C",
"Se	c #FFECD8",
"Te	c #C5BAAC",
"Ue	c #E7DEE1",
"Ve	c #E6E4E6",
"We	c #E4DBD7",
"Xe	c #E2CDCB",
"Ye	c #F0E0D4",
"Ze	c #FFEEDE",
"`e	c #FEECD9",
" f	c #FBEBDD",
".f	c #EAE0CA",
"+f	c #FCF4E7",
"@f	c #F2EBD7",
"#f	c #F7F1E1",
"$f	c #817B6F",
"%f	c #665A5A",
"&f	c #64595A",
"*f	c #6F6263",
"=f	c #5E555B",
"-f	c #3A3B49",
";f	c #393945",
">f	c #5A5155",
",f	c #5E545A",
"'f	c #302D32",
")f	c #F8E6D9",
"!f	c #F6E9E0",
"~f	c #F4E3CE",
"{f	c #EADDC7",
"]f	c #F2EAEE",
"^f	c #E1DBD5",
"/f	c #F2E4E0",
"(f	c #F4E8E1",
"_f	c #D4CFCE",
":f	c #E5D8C8",
"<f	c #F7EFEE",
"[f	c #EFE8E6",
"}f	c #F4E3DA",
"|f	c #F8E6DF",
"1f	c #E0D8DB",
"2f	c #F4EEDE",
"3f	c #878076",
"4f	c #3F3D46",
"5f	c #685E61",
"6f	c #3A3C4A",
"7f	c #5C5255",
"8f	c #F0E2D4",
"9f	c #EDE2DC",
"0f	c #ECE1E6",
"af	c #EEE0E1",
"bf	c #EEDFC8",
"cf	c #F2E6D8",
"df	c #F4E7E3",
"ef	c #FBE9DF",
"ff	c #DED6D4",
"gf	c #D2C6BA",
"hf	c #AFA298",
"if	c #E6DAD3",
"jf	c #C8C3BA",
"kf	c #EAE3E0",
"lf	c #EEDED8",
"mf	c #FDE9DB",
"nf	c #FFEBE4",
"of	c #EAE2DB",
"pf	c #FBF8E5",
"qf	c #1D1C19",
"rf	c #40414F",
"sf	c #3E3D49",
"tf	c #383335",
"uf	c #F5E4D2",
"vf	c #D4CAC4",
"wf	c #DFD6CC",
"xf	c #E3E1E0",
"yf	c #F2E8E7",
"zf	c #EBE3EA",
"Af	c #FEE9D8",
"Bf	c #EBDACF",
"Cf	c #E0D6CB",
"Df	c #EFE6CF",
"Ef	c #FAF2DC",
"Ff	c #F2ECD6",
"Gf	c #F2F2DF",
"Hf	c #1D1B19",
"If	c #61585B",
"Jf	c #3B3B48",
"Kf	c #46434E",
"Lf	c #F0E2D2",
"Mf	c #EADDCA",
"Nf	c #ECDBC8",
"Of	c #F7E5D2",
"Pf	c #F7EADF",
"Qf	c #EBE2E4",
"Rf	c #D0CFD7",
"Sf	c #E4DFDF",
"Tf	c #F0E6E8",
"Uf	c #F8EEDA",
"Vf	c #FAF1DF",
"Wf	c #FAF4DF",
"Xf	c #ECE8DA",
"Yf	c #F3E8D1",
"Zf	c #1A1A1F",
"`f	c #373742",
" g	c #332F32",
".g	c #DED3BE",
"+g	c #E7DEDF",
"@g	c #D8D3D3",
"#g	c #F9E6DA",
"$g	c #F6E1D3",
"%g	c #E5D8D6",
"&g	c #EFE7EB",
"*g	c #F9E8DC",
"=g	c #FDF4E8",
"-g	c #FEF8E0",
";g	c #F4EDD9",
">g	c #F3ECD6",
",g	c #F2EDF0",
"'g	c #EEE2E2",
")g	c #888074",
"!g	c #3E3C44",
"~g	c #726669",
"{g	c #3E4052",
"]g	c #F4E8EC",
"^g	c #EAE2E4",
"/g	c #F3E7DE",
"(g	c #F9E4D4",
"_g	c #EEE4D8",
":g	c #FBEDDC",
"<g	c #F8E6D6",
"[g	c #F2E8D1",
"}g	c #FBF4E3",
"|g	c #F0E5D2",
"1g	c #F8E5D8",
"2g	c #F2E4E1",
"3g	c #FEEDD7",
"4g	c #F7E4D8",
"5g	c #867F7A",
"6g	c #191817",
"7g	c #15161D",
"8g	c #524C50",
"9g	c #6F6366",
"0g	c #73666A",
"ag	c #6B6167",
"bg	c #3C3E4E",
"cg	c #45444F",
"dg	c #675B5E",
"eg	c #45424E",
"fg	c #2D2A2F",
"gg	c #ECECE7",
"hg	c #EFE4CD",
"ig	c #F0E2E1",
"jg	c #F0E4E0",
"kg	c #E9DCD4",
"lg	c #E6D6CD",
"mg	c #F8ECEB",
"ng	c #FEEBD7",
"og	c #FCEBE2",
"pg	c #E6DAC7",
"qg	c #F4EAD7",
"rg	c #F1E5DA",
"sg	c #F4EFE5",
"tg	c #F6F0E5",
"ug	c #F2E8EA",
"vg	c #FCEBDE",
"wg	c #D2C5BA",
"xg	c #DED1BC",
"yg	c #F9E5D2",
"zg	c #FBE8D6",
"Ag	c #F1E4DF",
"Bg	c #64585A",
"Cg	c #474856",
"Dg	c #504D57",
"Eg	c #695D60",
"Fg	c #ECE3CF",
"Gg	c #F0E7ED",
"Hg	c #E9E3E2",
"Ig	c #F9EFE6",
"Jg	c #FAEDE9",
"Kg	c #F7EBEA",
"Lg	c #F1E7E2",
"Mg	c #F0E4E3",
"Ng	c #F6E6D0",
"Og	c #F0E5DA",
"Pg	c #F9ECE0",
"Qg	c #E8E0E2",
"Rg	c #F5F0E9",
"Sg	c #F6F0E3",
"Tg	c #867E74",
"Ug	c #5B5357",
"Vg	c #43424D",
"Wg	c #62595C",
"Xg	c #DDD3BF",
"Yg	c #F7F3DD",
"Zg	c #F5E4CF",
"`g	c #ECE5E7",
" h	c #E6E2E0",
".h	c #F1E2D4",
"+h	c #FCEDDB",
"@h	c #FEF4E5",
"#h	c #F9EADE",
"$h	c #F9EEE6",
"%h	c #F1E5DC",
"&h	c #F0E0CA",
"*h	c #F9E8D9",
"=h	c #FCF6EB",
"-h	c #EFE4D9",
";h	c #F1E8EA",
">h	c #EAE1D0",
",h	c #F3E8D6",
"'h	c #FBF5E8",
")h	c #F9F4EE",
"!h	c #F9EEDB",
"~h	c #242024",
"{h	c #404150",
"]h	c #F1E8D2",
"^h	c #E5D9C5",
"/h	c #FFEEE2",
"(h	c #F2EEDE",
"_h	c #ECDAC5",
":h	c #E0D9D0",
"<h	c #FFEAD8",
"[h	c #E9E6EA",
"}h	c #DCD6C7",
"|h	c #E8DAC5",
"1h	c #E4DAC4",
"2h	c #FDF6F2",
"3h	c #857E72",
"4h	c #4E474D",
"5h	c #47444F",
"6h	c #40404A",
"7h	c #22222A",
"8h	c #EFE7D3",
"9h	c #E1D6C3",
"0h	c #ECDFCA",
"ah	c #FBE8DE",
"bh	c #EADCCA",
"ch	c #EBE2DD",
"dh	c #FCE9DC",
"eh	c #FAF7E2",
"fh	c #E0D4C0",
"gh	c #F6F0EE",
"hh	c #242225",
"ih	c #54525D",
"jh	c #40404E",
"kh	c #5A525A",
"lh	c #F1E5CF",
"mh	c #E1D8C3",
"nh	c #E2D6C2",
"oh	c #F6F0F3",
"ph	c #F0E6EE",
"qh	c #F1E3E5",
"rh	c #F6EEDB",
"sh	c #FCF6ED",
"th	c #F8EFE2",
"uh	c #F7ECD4",
"vh	c #F5ECD5",
"wh	c #48454D",
"xh	c #3D3E4B",
"yh	c #393A46",
"zh	c #3E3C47",
"Ah	c #544E53",
"Bh	c #2A272D",
"Ch	c #F6F6EA",
"Dh	c #E2D8C4",
"Eh	c #F6E1CE",
"Fh	c #F8F3E2",
"Gh	c #FAF5EE",
"Hh	c #FEF7ED",
"Ih	c #FDFAEF",
"Jh	c #FAECDC",
"Kh	c #FAF6E2",
"Lh	c #F3EAD7",
"Mh	c #F8F4E6",
"Nh	c #F7F6EB",
"Oh	c #898477",
"Ph	c #2C2829",
"Qh	c #3E3E48",
"Rh	c #363846",
"Sh	c #3D3C49",
"Th	c #F6EFDB",
"Uh	c #F1E8D3",
"Vh	c #FBEAD8",
"Wh	c #EEE5E6",
"Xh	c #EAD4C2",
"Yh	c #EDE4CE",
"Zh	c #EDE0CD",
"`h	c #FEF6E7",
" i	c #F7F4E6",
".i	c #ECE2CF",
"+i	c #8C8479",
"@i	c #2F2A2C",
"#i	c #575054",
"$i	c #23222A",
"%i	c #F7F3DE",
"&i	c #F6EED7",
"*i	c #EDE5E6",
"=i	c #E1D1CC",
"-i	c #F7EAE5",
";i	c #F0E3D1",
">i	c #ECDECC",
",i	c #F7E7D4",
"'i	c #F7F2DE",
")i	c #F5F0E4",
"!i	c #DCD0BD",
"~i	c #584F53",
"{i	c #393844",
"]i	c #E2DDD0",
"^i	c #F2E6E3",
"/i	c #F0E4D7",
"(i	c #EBDDD0",
"_i	c #FEE9DA",
":i	c #F8E8EA",
"<i	c #EFDFD4",
"[i	c #272528",
"}i	c #3F404E",
"|i	c #343643",
"1i	c #45444E",
"2i	c #27262C",
"3i	c #F6E5D5",
"4i	c #FCE9DE",
"5i	c #FCECE0",
"6i	c #EEE6ED",
"7i	c #FFE9D8",
"8i	c #FEECD7",
"9i	c #F2E7D4",
"0i	c #FAF1DE",
"ai	c #837C70",
"bi	c #2B282B",
"ci	c #45434D",
"di	c #3A3944",
"ei	c #2E2B2E",
"fi	c #E5D8C1",
"gi	c #F0E8E8",
"hi	c #E0DBE1",
"ii	c #E5E4E8",
"ji	c #201F26",
"ki	c #555464",
"li	c #3A3A47",
"mi	c #3B3A44",
"ni	c #433F47",
"oi	c #44414C",
"pi	c #3A3A48",
"qi	c #26242B",
"ri	c #F6F0DB",
"si	c #E4D8C6",
"ti	c #FCEBD9",
"ui	c #FCEBE3",
"vi	c #F9E9E7",
"wi	c #F3E0CD",
"xi	c #F2E5D6",
"yi	c #D6D5D9",
"zi	c #E7E5E4",
"Ai	c #F0E6E1",
"Bi	c #F6E8E1",
"Ci	c #F2E8D6",
"Di	c #FAFAEC",
"Ei	c #E6DEC9",
"Fi	c #837D72",
"Gi	c #44414B",
"Hi	c #373845",
"Ii	c #403D45",
"Ji	c #E4D6C4",
"Ki	c #ECDFCC",
"Li	c #F6E9D8",
"Mi	c #E6D9C6",
"Ni	c #F2E5D3",
"Oi	c #FCECE4",
"Pi	c #C9C0B5",
"Qi	c #D6CAC7",
"Ri	c #FAECE0",
"Si	c #EBE0CA",
"Ti	c #1F1F25",
"Ui	c #353744",
"Vi	c #3D3C48",
"Wi	c #3D3B45",
"Xi	c #383843",
"Yi	c #3B3A43",
"Zi	c #3A3842",
"`i	c #27252A",
" j	c #EEE2E3",
".j	c #FAEADB",
"+j	c #E1D3BE",
"@j	c #ECDDC7",
"#j	c #F6EBD8",
"$j	c #F3ECD7",
"%j	c #F9F2EE",
"&j	c #FBF8ED",
"*j	c #2C282B",
"=j	c #61575C",
"-j	c #6B5F61",
";j	c #2A2F3F",
">j	c #43414A",
",j	c #393843",
"'j	c #3C3A43",
")j	c #373640",
"!j	c #383741",
"~j	c #38363F",
"{j	c #3D3A42",
"]j	c #423E48",
"^j	c #353643",
"/j	c #4A4948",
"(j	c #D0CACB",
"_j	c #FBF8E9",
":j	c #F8E2D5",
"<j	c #EEE5CC",
"[j	c #EADBC7",
"}j	c #EFE8E8",
"|j	c #E4DAC8",
"1j	c #5E5B6A",
"2j	c #3D3E4C",
"3j	c #42414A",
"4j	c #46424C",
"5j	c #3F3C46",
"6j	c #3B3840",
"7j	c #3C3940",
"8j	c #444047",
"9j	c #3D3B44",
"0j	c #363641",
"aj	c #F9F1E5",
"bj	c #BFB8B0",
"cj	c #E4DEDD",
"dj	c #FCE9D7",
"ej	c #EFE4DC",
"fj	c #F6E9D2",
"gj	c #F0E4CD",
"hj	c #EEE3D0",
"ij	c #DAD0BE",
"jj	c #F4EBD4",
"kj	c #E8DFC8",
"lj	c #898175",
"mj	c #58535B",
"nj	c #484752",
"oj	c #30323D",
"pj	c #32333D",
"qj	c #35343C",
"rj	c #34333B",
"sj	c #3E3A40",
"tj	c #3D3A40",
"uj	c #464146",
"vj	c #33333E",
"wj	c #32333E",
"xj	c #33343E",
"yj	c #3A3942",
"zj	c #F0E5E2",
"Aj	c #EFE5E2",
"Bj	c #F6E8E4",
"Cj	c #E8E0DB",
"Dj	c #F8E5D7",
"Ej	c #F3E2D0",
"Fj	c #EEE2D9",
"Gj	c #EAD9CB",
"Hj	c #F3E3D5",
"Ij	c #E7E6EB",
"Jj	c #DED0BE",
"Kj	c #28262A",
"Lj	c #3E3C48",
"Mj	c #3C3C46",
"Nj	c #444049",
"Oj	c #3F3B42",
"Pj	c #443E43",
"Qj	c #433E42",
"Rj	c #413C41",
"Sj	c #413C42",
"Tj	c #464044",
"Uj	c #35343D",
"Vj	c #35353F",
"Wj	c #2E303B",
"Xj	c #35343E",
"Yj	c #3E3A42",
"Zj	c #3B3941",
"`j	c #524A4D",
" k	c #E6E6E6",
".k	c #DBD2C6",
"+k	c #F1EBE8",
"@k	c #FEEDE8",
"#k	c #F6EEE6",
"$k	c #F7E9DC",
"%k	c #EEE4EA",
"&k	c #FFEBDB",
"*k	c #FCECE1",
"=k	c #F2DED6",
"-k	c #FFECD7",
";k	c #DDDADE",
">k	c #F6F3DD",
",k	c #E0D7C1",
"'k	c #887F74",
")k	c #68636E",
"!k	c #3B3943",
"~k	c #363640",
"{k	c #292B38",
"]k	c #3D3940",
"^k	c #36343C",
"/k	c #37353D",
"(k	c #494247",
"_k	c #4B4448",
":k	c #4C454A",
"<k	c #474147",
"[k	c #3D3A43",
"}k	c #F2F0F5",
"|k	c #FDEADE",
"1k	c #F3E5EC",
"2k	c #FEEBD9",
"3k	c #EFE0D7",
"4k	c #E8DCD1",
"5k	c #FEEBD8",
"6k	c #F0E2D6",
"7k	c #F3EADD",
"8k	c #FFEDDA",
"9k	c #F2EEEE",
"0k	c #F0DECD",
"ak	c #EFE8DF",
"bk	c #F6EFF5",
"ck	c #F8E9E4",
"dk	c #E5DCC6",
"ek	c #82767A",
"fk	c #353642",
"gk	c #413F47",
"hk	c #3C3941",
"ik	c #2E2E38",
"jk	c #2B2D38",
"kk	c #38363D",
"lk	c #39363E",
"mk	c #4C4448",
"nk	c #484245",
"ok	c #3C383E",
"pk	c #313039",
"qk	c #3D393F",
"rk	c #3B3940",
"sk	c #433E44",
"tk	c #443E44",
"uk	c #3E3A41",
"vk	c #403B42",
"wk	c #39373F",
"xk	c #464147",
"yk	c #373741",
"zk	c #3A3941",
"Ak	c #4F484C",
"Bk	c #252428",
"Ck	c #FFECDF",
"Dk	c #DED5CD",
"Ek	c #F8E4D3",
"Fk	c #DDD6D2",
"Gk	c #FCEADD",
"Hk	c #B4ABA1",
"Ik	c #DCCCBB",
"Jk	c #ECE7F0",
"Kk	c #F9EEDA",
"Lk	c #615E6C",
"Mk	c #3B3944",
"Nk	c #3A3841",
"Ok	c #30303A",
"Pk	c #4E464A",
"Qk	c #423D43",
"Rk	c #3E3A3F",
"Sk	c #463F43",
"Tk	c #3A373F",
"Uk	c #494347",
"Vk	c #413C43",
"Wk	c #36343D",
"Xk	c #201F24",
"Yk	c #090809",
"Zk	c #F2E4E2",
"`k	c #F3E2DC",
" l	c #DBD2CA",
".l	c #FCF4EE",
"+l	c #F6E6D5",
"@l	c #E1D2C3",
"#l	c #EAE6E4",
"$l	c #FCF5E2",
"%l	c #232226",
"&l	c #4E4B57",
"*l	c #403C45",
"=l	c #30323E",
"-l	c #383842",
";l	c #454046",
">l	c #37363F",
",l	c #31303A",
"'l	c #39363C",
")l	c #413C40",
"!l	c #32313A",
"~l	c #403C43",
"{l	c #4A4347",
"]l	c #544C4F",
"^l	c #080708",
"/l	c #F8EAEA",
"(l	c #EAD8CB",
"_l	c #FEF8EF",
":l	c #F7E9E0",
"<l	c #DED6D0",
"[l	c #B9B1AA",
"}l	c #FEF7E2",
"|l	c #F9F6E3",
"1l	c #FAF8E4",
"2l	c #ECE0CE",
"3l	c #373236",
"4l	c #22232C",
"5l	c #2E2C31",
"6l	c #27252B",
"7l	c #2C2A2D",
"8l	c #26252A",
"9l	c #222228",
"0l	c #262328",
"al	c #292528",
"bl	c #272427",
"cl	c #262327",
"dl	c #1D1D22",
"el	c #252326",
"fl	c #202024",
"gl	c #222125",
"hl	c #1B1B20",
"il	c #1F1E21",
"jl	c #1E1C21",
"kl	c #272325",
"ll	c #1B1B21",
"ml	c #1A191F",
"nl	c #2A2527",
"ol	c #201E23",
"pl	c #252226",
"ql	c #1F1E23",
"rl	c #2A2629",
"sl	c #282428",
"tl	c #16161B",
"ul	c #C0B7AC",
"vl	c #8A827E",
"wl	c #837C7B",
"xl	c #8B8378",
"yl	c #8D8579",
"zl	c #8A8782",
"Al	c #8C857E",
"Bl	c #8C8578",
"Cl	c #868073",
"Dl	c #888176",
"El	c #8A8176",
"Fl	c #877F77",
"Gl	c #8D837D",
"Hl	c #7B7A7A",
"Il	c #8D8377",
"Jl	c #8C8378",
"Kl	c #898278",
"Ll	c #8C867B",
"Ml	c #847F74",
"Nl	c #8B887E",
"Ol	c #888478",
"Pl	c #89867A",
"Ql	c #807A6E",
"Rl	c #827C71",
"Sl	c #605B53",
"Tl	c #191718",
"Ul	c #080808",
"Vl	c #070607",
"Wl	c #090808",
"Xl	c #0A0809",
"Yl	c #393836",
"Zl	c #1E1D1E",
"`l	c #201E1A",
" m	c #201C1A",
".m	c #1F1F1C",
"+m	c #1E1E1D",
"@m	c #1A1917",
"  . . . . . . . . . . . . . . . . . . . . . . . . . . . . . . . . . . . . . . . . . . . . . . . . . . . . . . . + . . . . . . @ # $ % & * = - ; > , ' ) ! ) ! ~ { ] ~ ^ / ( _ : < [ } | 1 ) 2 3 3 4 5 6 7 7 8 9 0 a b c d e f g h i 0 j k l m n o c p g q r 0 s ",
". t u v u u u u u u v v u u u u u u u u v w u x u u u u u u u u u u u u u u u u u u w v u u u u y u u u u u u u u u u u u u z A } B C D E F G H I J K L M K N O P Q R S T U V W X Y Z `  ...+.@.#.$.%.%.&.*.=.-.;.>.,.'.).!.~.{.].^./.(._.:.<.[.].}.|.1.2.3.4.5.",
". u 6.7.8.9.0.a.b.c.d.e.f.g.h.e.9.i.j.k.l.m.n.o.p.q.r.s.t.u.v.w.x.y.z.A.B.C.h.D.E.F.G.H.I.J.J.K.L.M.N.O.P.Q.R.S.T.U.V.W.X.Y.Z.`. +.+++@+#+$+%+&+*+=+-+;+>+*+,+'+)+!+~+{+]+^+/+(+_+:+<+[+}+|+1+2+3+4+5+.+6+7+7+8+9+0+a+b+c+d+e+f+g+h+i+j+k+l+m+7+e+n+o+p+q+r+s+t+",
". u u+v+w+x+y+z+A+B+C+D+E+F+G+H+I+n.J+K+L+M+M+N+O+P+Q+R+S+T+U+V+E+W+X+Y+Z+`+9.L+r.J+ @u+7..@+@@@e.#@$@%@V+&@*@=@-@;@e.w.>@,@'@)@!@~@{@]@^@/@*+(@=+_@@+:@<@[@}@'+|@1@2@3@4@5@6@7@8@9@0@a@b@c@d@e@K ~@f@g@h@i@j@k@l@m@n@o@p@k+q@r@h+s@t@u@v@w@k+e+l@x@y@z@A@B@C@D@",
". u E@F@G@K.H@I@J@K@L@M@N@O@P@Q@R@S@T@i.%@U@V@o.W@X@Y@Z@`@ #.#+#@###$#%#&#*#=#-#;#>#,#'#)#!#J.)#Q+~#{#]#^#/#(#_#:#;@<#[#e.}#|#1#2#3#@+@+4#5#6#7#8#9#0#a#^+b#}@c#d#e#f#g#h#i#j#k#l#m#n#o#p#q#r#s#c@t#M u#v#w#x#y#z#a+y@A#B#C#p@D#E#F#G#F#F H#I#7+ .J#K#L#M#N#O#t+",
". u P#Q#R#S#J+T#R#U#r.z+V#%@W#X#Y#Z#`# $.$+$@$#$$$%$&$*$=$,#-$>#;$U#>$,$E+L+L+'$)$!$e.U+~$o.`+{$Q+L+]$^$/$E+($_$:$<$G+w+~$I.[$}$|$1$2$3$4$5$6$7$8$9$0$a$b$<@{@c$d$e$i#{@f$g$h$i$j$k$l$m$M n$o$Z l$p$q$r$Z s$t$u$v$w$v$o@x$y$8+q@w@z$k+H i@A$h+B$H C$D$v@E$F$G$t+",
". u H$K.8.m.I$J$K$L$E.i.H@M$=#U+T@<$N$O$P$Q$T.R$S$T$U$T@o.V$e.W$X$Y$Z$`$ %.%+%@%#%$%%%&%*%=%-%;%L+<$>%,%'%K$I@)%!%V@G+~%{%]%^%/%(%_%:%{+f#<%[%}%|%1%a$2%3%4%4%5%4%0#6%7%8%9%0%a%n#b%q$c%d%e%f%g%h%i%j%r$h%k%J#l%m%n%y@p@p@o%p%l%m+k+g+q%r%p$g%s%t%u%v%w%x%h%y%t+",
". u z%A%B%C%v+v+D%H@K.E%F%G%H%I%J%K%h.-%L%r.M%G+H+V@V@N%O%P%Q%R%o.U@)#S%T%U%V%W%X%Y%Z%`% &.&+&@&#&$&;%r.%&&&*&:$=&S$-&`$;&;&>&,&'&)&!&~&b#{&]&^&7%/&(&_&R :&<&[&[&4%7%}&|&1&2&3&X m$r$4&5&6&7&t@G 8&r#F#9&0&x$l%a&p%y@b&B#a+c&d&e&f&g&d%D#h&9&w%i&s#j&j%k&l&m&5.",
". x n&o&p&q&r&s&w+v+t&7.B%E%u&v&w&l.x&9.y&z&A&B&C&F+D&!#)#E&V#F&U@V@u.G&H&I&J&K&L&X#M&N&O&P&T.Q&*&~$>#W#%@~$R&S&T&N$)$h.U&V&W&X&2#Y&4$Z&`& *.*+*@*#*2%$*7%%*&***=*-* *[&;*>*a@,*'*)*v#!*7+d%G ~*t%h%{*]*^*/*(*z@_*:*@.y$l@<*m%[*}*f&!*]*H#I#F t%l$|*1*2*3*4*5*t+",
". u 7. @K.+@6*7*@&L+v+@@8*E%9*0*a*b*F+8./$-&0*L+k.c*d*F+!#e*f*g*h*i*T.j*k*l*m*n*o*p*q*r*s*t*u*v*w*x*y*z*A*=$o.d.B*T.C*M+D*E*>&X&F*G*H*I*#+J*<+K*L*K*0%M*|&N*O*P*Q*R*S*T*j$U*,*V*W*X*c%Y*Z*`*r$E#Z*C$ =.=0&+=@=#=$=%=&=n@*===-=;=>=,=B$'=4&h%7+u%F$)=!=j%6&~={=t+",
". u 0*]= @I.^=u&/=]=(=_=:=<=[=}=|=r&`$=#]=1=2=1=3=`$4=F+5={$6=7=8=9=0=a=b=c=d=e=f=E+q*g=h=i=.%j=k=l=y*.%A%m=}#U.n=o=J@f.p=p=W&q=r=s=_@7${@t=u=v=w=x=M*y=z=m#A=B=O*C=;*m#D=E=F=W*f%G=H#`*D#'=w@H=I=k+t$J=+=J#p@K=L=M=N=O=w$P=Q=a+R=7+u@S=c%B$G j@T=j%t%U=V=W=X=5.",
". u Y=6.Z= @`= -:=.-Z=C% -s&+-6.r&@-m.:= -#-J$$-,%v+0*:=%-8.&-*-=---;->-,-'-)-!-~-{-]-^-/-(-_-:-<-[-}-@@F.H+V@N.|-u.T@L+1-2-3-/%[ 7&4-t=@*[&5-O*6-7-8-9-0-a-4+b-c-y=E=1*d-e-f-I=j+t$9+G=m+g-8+ .k+.=J=h-i-C#j-l+f+j-k-l%l-m-n-o-n%p-q-r-r$s-i@t-g@w#L u-K v-w-5.",
". u x-:=y-v+6.u&z-A- @R#u&s&B-B&D&C-D&4=D-E-D-F-G-A%H-I-E%/$Z$J-K-L-M-N-O-P-U+Q-R-S-T-X#U-V-W-X-Y-`$m.9.P%*&Z-`- ;f.A*.;+;G+@;1##;$;%+%;&;i$a%*;y==;U*-;'*u#a-d@M !=v-m$;;>;,;0&';);l@!;J#o%x@l@~;{;];^;A#I# .K=i-0&0&>=z#n-/;(;q@g+h%6&l&u%j%_;:;l$<;i&[;v-O#};",
". u J$J$|;H-H@P# @1;y-E%J.E.2;3;4;5;~$V@6;(=1=7;I$I.#-B%`$8;9;0;a;b;c;d;e;f;g; #h;i;j;k;l;m;n;o;I%p;q;I+A&.@Z$r;s;J++;t;+;u;v;w;[ v#x;&*y;z;a%z=A;A;p#Y*B;C;v#x%D;E;k&F;G;(*H;I;J;K;L;n@k-M;N;y$_*@.O;@.o@R=B#w$P;Q;z@J=R;Q=n@S;T;p@,;I=]*'=!=U;F !=V;l$f@K W;X;",
". u A%0*`$Y;I.K.E%B%F.`=P#Z;`;u&[= >.>I$+>@>9.#>$>[=%>:=)#*#r.`@&>*>=>->;>q*>>,>'>)>!>~>Q.{>]>^>9./>#&H+<$A&`+(>_>h.F+)#D.*&:>q=<>[>2%S*}>|>1>2>3>Z 4>5>B$x%6>7>>;8>Q;9>!;0>a>o%b>c>d>e>n-f>y@_*k-g>{;h>a+p+i>n+m@m-j>i-h>j>{;K;k>M=p@@=,;l>h%i@F#E 6&B;q%m>n>o>",
". u p>u&c*K.D&q>`$r>m.M$$>z-s>E%t>E%8.u>v>w>x>]=;#[=#-m. -y>o.z>A>B>C>D>E>F>G>H>I>J>K>C*q*U.L>M>K$e.w*`+6./>e.F+N>O>r.e.+;e.P>1#2 k@}>Q>R>n#c-S>T>t$U>V>g+c%W>X>8>Y>Z>`> ,.,+,L;@,#,$,%,&,*,o@O={;p%:*=,o-b+-,;,n-:*>,,,w$*=R=',),!,E#~,{,w@r$r%],u%^,k&x%r%/,(,",
". u @@`$c*A&_,8.F@0*'%=#:,<,[,0*},`$6.H-M$|;|,1,@@2,i.!#x*S$y+3,3,4,5,6,7,8,9,0,a,b,S$U.C*h*c,d,e,f,g,D%#-:,n.+&V.h,z+r.V$>#i,1#j,B#A=m#1*n#k,l,t$Q;m,O=c+`*h-.=n,o,p,q,%,r,s,t,u,v,w,x,y,z,P;J=A,B,m@C,D,o%E,S;=,:*f>E,n@O;B#];k-*=J#F,B$G,D#i@H,r$^,T>!*|*I,(,",
". u u.@@@@J,C.K,L,M,N,O,P,Q,7.b*x-b*h._=1=F.R,S,L+e.0*o.U.T,U,V,W,X,Y,8,Z,`,R$ '.'S$V#V.+'c,@'U.&&7.F.#'$'I$A&C&U@%'&'*'='=$-'1#;'K;>'V*,''')'!'z$n@v$h>l%~'{'n+]'K;^'%,/'%,('_':'v,<'$,q,['e>}'|'1'-=2'm,>,g>3'~'m-n@a+4'M=9+/;5'A#6'k+B$3*h&8+^*B$^*4&f&7'I,};",
". u K.8'9'e.0'a'b'c'[='%d'r.D.P#e'I..@+-8;@@f''$.%W#L+P.`@g'#&h'i'j'P-k'l'r.*#F+D.m']%n'o'N+F+A&.@8;p'q'r'+;j.N+G+s'h.~$t'u'v'q=w'x',*E={*F$Z y'I=9+A#5'o@_*z'A'B'o@];C'D'E'F'G'H':'I'J'K'L'M'%,N'O'P'P'y@',Q'),l%b>E,R'S'T'(*v$U'V'K=O=e+7+W'Z* .h-p+H=H#H#I,X;",
". u X'Y'X#Q+E+.#F.Z'v+q;;>T@B-`'E.u&D&q>7.}#0*]=|; )h..)+)@)#)J@$)%)h'&)9;*)=)=#p&L+g*-);)>)'$%-,)L$J+Q#')))&&*&!)e.9;%)~){)]),&^)/)=;d-q#w#`*I=H={,~'O=()<*_)*,o-l%:)<)[)O'C'F'})|)1)2)3)4)5)s,6)7)A#8)9+6'),9)p+E,k>),0)u@a){,O=b)m,$=a&*=p@t$c)o%);d)e+u@e)f)",
". u g)h)i)j)k)h.l)%>m)n)o)$&p)q)r).@P#s)D-+-E%t)u)D%;#S%v)w)x)Q+e.u.%@h.G+y)>#z).%&)A)B)C)D)E)f'+>F)]=F@-$G)x&H)I)9;p.z+J)K)])L)M)N)'*2*p$O)T>O= .9+P)J=w$Q)R)S)T)R;:*U)V)D'W)X)Y)Z)`)`) !.!+!@!#!O'$!j>N;!,u@k+%!e+>=9)&!x#7+}**!+=m@:)=!v$v$);-!e>;!n-z@W'e)X;",
". u >!,!'!)!!!~!{!]!^!V+S$/!q*o.q.A&R#K.J).@:=H-'$]=(!|;=$_!:!<!J@L+`++;D%V@[!F._=}!_$|!1!2!3!4!K$7.H@v+_,5!v+6!L+y&Z$.#7!8!9!0!a!W)S>Z b!c!k+);E,z'n@r+d!z@o+S'9>a+c&c&O'U)e!f!g!h!i!j!k!=.l!%.m!n!o!',m-T;7+B p+!,A@p!g%q!r!%!y$);j>s!B,e>C'_)t!U)u!v!S;o-w!X;",
". u x!y!h..#z!A!B!C!D!E!F!G!H!I!=)V&J!K.`$u&y>B- -+;K!L!=$M!h.N!O!P!D&Q!D&R!@@u&Z$J@J!S!T!L,U!V!M+6.v+@@E%W!N+X!D.>#Y!Z!`! ~.~+~@~#~p$I=&=h&$~%~i-A#^;A#O=~' .b+l@z#_*:)C'&~*~=~g!-~;~>~,~'~)~4)!~~~{~]~v$K#&=h&^~/~,=(~E$_~B;`*h-v$E,P;:~<~[~}~|~1~2~e>3~4~5~D@",
". u 6~7~z+{>_-8~9~0~a~P$b~c~d~e~Q.f~V&w*`$}#g~u& @ -1=h~'$Q+y+i~&)j~]=m.c*I+u&i.*&U.k~l~m~n~o~p~`+h.M+M+q~r~)#s~*#)#t~V..#u~v~1#w~x~l&,;,=y~O=*!+.e+D,z~A~_*_*w$Y>B~n-A'C~D~E~F~h!G~H~I~J~K~L~M~N~O~['('-=c&q@h&e&g%q-E$e%c%}*H#0&);v$z#P~Q~R~S~#~T~U~V~W~X~Y~X;",
". u Z~G>`~ {.{+{O+@{#{${%{&{*{={#&-{M&;{>{A%+-Q!]%u&E%I@v+@&,{'{e.7.){F+K.q>B&F+V@M&!{y>=%~{|!{{Q.V@V@h.]{^{/{({_{:{<{J@S%[{}{+~5 |{h&~,e+ .l@y$P;J#1{2{3{N;a+w$:)L;3~4{5{6{3)7{8{9{0{a{(.J~b{c{%.d{e{s,f{g{h{i{G '=H,j{x%w#k{0&l{c&:)n-m{<'n{o{p{4)q{~~&,g>r{s{",
". u t{u{v{~>w{x{$@x!y{z{A{q*L%P+B{C{D{V$E{J+r&I.v+R#u&+-V@F{c,e.F+K.G{K.H{p.u'V@S$M.I{J{K{S!L{M{d.Q+e.N+N{O{P{Q{R{S{T{U{V{W{X{X&Y{:'t$i-Z{),(*_*`{z'm- ].]i-:*);z#/)L;t,+]@]#]$]%]&]1)*]=]-];]>],]o{']n!y,)]!]A@7'E p$F$l&p$I=^~!;~]]'2{m-{]~~]]^]/]G'(]_]=,:]X;",
". u <]u{[]}]|]1]2]3]q*`@q~4]5]V.%'6]7]e.L+8]w+`$%>:=6. -0*9]0]y>m=B-G{m=l.-$+;H+=)G++#a]b]c]d]e]U@`+g.d.q*f]g]o.d,h]i]A.j]k]l]A 5 m]H=l@(*0&1{,,a+n]o]p]n-:*A,A,_)x'S;q]r]$,I's]'~-]t]u]*]v]w]x]G'o{y]z]R)k>J#x$^~c!%!A]O=a)8+B]0>A'^;B,Z>o!q]C]D]E]F]G]H]n-I]J]",
". u K]L]M]N+N]O]P]&)Q]R]S]w*}#k'T]U]V]y*C&r)w+v+$>`$H-9*-$T@W]x*L+A*t;X]=#Z$Y]0*Z]`] ^.^+^@^#^$^%^.)w*`+&^*^=^N+-^;^>^,^'^)^!^~^{^]^P)Q;^^/^o,x'v$:*3{{~(^c&g>B,P'o-O'&,p]v,$,_^:^<^[^}^|^1^2^3^4^5^o{n!6^<)',>,K#z$';o%x@7^I;Y>A'}'S;8^L;^'9^0^d{a^b^c^v!^;d^e^",
". u f^g^h^i^O+j^k^.#l^[!V@m^n^T@o^9;p^L+7.q^:=m.B%6;r^7.x*q*s^t^`$]=,%8.;#9;u^v^v^w^x^y^z^)>*-O+A^;%B^C^D^E^F^(>G^H^I^J^K^Y#L^)@b M^N^|'S;O^P^p]Q^R^}'S^m-T^n-',P;m-];|'{~U^V^o{3)W^:^%.H~$]3^X^Y^!~M'Z^`^ /8^m%o%w$B~|'S; ]Q^p,o] ]W)y,=!e>./+/@/(^#/$/%/2'&/};",
". u */=/-/;/>/,/'/*#_,'%&&w+y&)/H{<#!/~/'${/9*`=6; >@@R#e.]/^///(/_/.%m.M+J@:/#@</[/}/|/q*q*g*1/U@g*5]2/3/4/X'5/6/7/8/9/0/a/b/c/d/e/);>,;!f/9^g/q,C'0^h/p,u!i/j/$!k/B~x'l/&~m/n!n/o/M~!~n/p/q/y]r/s/t/u/v/w/x/y/p,z/q]+,U)A/*~v!B/*~V)C/L;C'<)>,D/E/3{4~F/y@G/X;",
". u q*J@H/x+<$x*;%7.H@=#V%J.I@9;g*=$H@#- 'M$y-F.B%F..#c*^#I/q*S$J/y&K/9.>#E+:/L/M/9]*&P.N/O/P/=$>#Q/R/S/T/U/A.V/W/X/_{Y/h.y+Z/X&b `/ (L;.(+(A/V^M'2~@(w,w/#($(%(_]^;m{U)&(%,+/E'*(o{=(-(;(>(,],(_^'()(r/<'-(!(`^5{<'~(n{{(](^(@(/(%,((_(L;:(<(=!S)(^z,[(B#R=d^}(",
". u h.>#A*L+|(A&Q+D%1(2(m.I%u'3(w*h.V%I.4(u+|;A*,%5(9;9;C*6(7(_,8(y&9(Q%9;J@0(a(b(U.#&y*l)c(%@h.*#`+d(e(X,Y+f(g(h(i(j(k(l(S$Z/X&d/m(e>o]5{+(n(m/o(p(q(<'1~r(x,s(g>t(n-o]f/f/u(U)v(w(x(|~1~y(J'/.^]z(A(!~I'T~+!q{B(C(D(E(t/F(G(m/x,o!H(k/d>%,x(x'I(*=J(K(!,l+L(M(",
". u N(O(P(L++;E.H+,$f*]=Q(R(7.@@R#V@0..@S(#-7.4=T(4=Y!e.x+H!U(V(W(X(Y(Z(`( _Q.U.T$._+_/>*#@_#_$_%_D.%@&_h.x.*_=_-_;_>_,_'_)_Z/X&!_~_{_{]e!R~<'n!U)^(-(|~_^]_$,/(H(2{o]$//)O'^_q]/_(_f/r]@(%,1~__:^n/'(,(:_T~<_g![_}_,]0{=]4)|_1_2_&,x'x'm-C'V)3_z@4_,;q@7+g%5_t+",
". u 6_7_Z-8_9_0_a_~%b_c_=$0*+-G+D.@@6.w+y>d_m.6;j~P#f'%@l(e_f_g_M@g=h_i_j_+#.#x+P-u.k_C*w*Z$K!l_m_I@z+N+x+n_o_p_q_r_s_t_u_v_w_x_k y_z_A_U^B_,]m/C_D_v,E_#!o(y,R)^'9^8^W~[)R)p]F_G_H_q,x(p(I_d{^]x]>(>(J_J_%]/.}_l!K_,]@!'~L_M_-(N_t,v!#/v!C/)]O_q+T'`*H=D s-P_Q_",
". u H@e.P/K.]%R_E@S_Q!V%v+6.*&V@;#*#6.@@q'T_:=B%B%]=I%[#_!U_V_W_w*X_Y_K,I+e.L+v+=$Z_`_V. :`!=$.:J++:8.v+%@y*@:#:$:%:&:*:=:-:;:,&>:,:G_{~%,!(!~y(V^m/p(m!n!+/C/B/':):/_q]q]Q=j>_(^_!:&,d>v!%,o{~:{:-(z(M'T~=.=.]:g!J_z(K_3)3)^:/:(:_:::a+S)S'K#i{g+q-r$r@<:[:X=t+",
". u &&I+;#D.]=}:m. @|:}#v+7.E%g.y> -'$p>1:[=r&2: -I%]=K!J@#@3:T@I%8;=#4:{%u&}#5:V@6:7:5=S%8:R,b*_=9:g.u&;%g*[#0:a:8~b:c:d:e:Z/,&j f:3{v!g:h:M'J'x~z(~:']z_C/P^u!U)p,/_i:_(-=n@S)S)#/O'S)>,j:N_k:p(R~!~h:*.l:(.=]'~3)m:l:g!K_n:o:p:m%I(4~O;A#O=q:r:i@x%g&i&s:t:e^",
". u u:|;;#v:m.w:x:m.d*v+F@e.j.V@I+q;`$0*y:I$$>z:9.H@A%8;A:%@u)8;u&A%8..@B:C:v+D:E:F:K.K.u:8;.%G:H:I:u:h.V$X-y*J:K:]$%@L:M:N:O:,&P:Q:>,P=g/$,>(/]-(x]R:~:S:k>5'U)$(V)u(>,',(^*,N;o@A#y@T:o-L; (<'r(G'U:!~V:W:X:,~Y:|_Z:u]=]`:=(6^7)E,T;r+>= <D$i@S=u%.<+<@<#<$<%<",
". u #-p>+;*#+;'%*#+;%>v+7.&<*<I+h.D%^==<-<;<E&r>+;_,)#1;u)><x>0*:=8;F.F.q',<'<)<p=!<q&]%`$g.v+~<{<]<E.v+0*'%)$>)^<Y@F+S$]%E+/<,&j (<b>v!_<$,Y^y(:<N_<<I_2_#/|'h/[<!:_]=,N;}<3_q@|<{,q@x$i{K;q]I_v,y]1<%.2<W^3<4<5< !6<7<>~^:1_N_v!R=!,r+H v@3*8<9<0<a<)&b<c<d<e<",
". u f<e.`$J+g<=$E.@@D-h<e.]=8.h.i<j<<$i<A%k<m.J$:=q>C&l<A&m<J+I$@@D-n<9*o<[=p<K.!#]%Y;Z=q<`$E{r<+-s<A&c*@@E%J+t<y*9.2(C&w*E%u<L)d/v<);w<U^2~<'{:v,E'~~w/$,/(x<{]/(&,*,y<z<7+A<e&M#.<u@q:J=j/-=5{$.N_('B(B<C<D<E<F<G<H<I<-]u]n/S:J<K<L<m+f&7'N#M<N<O<P<Q<R<1*S<T<",
". u 1;E%K.y>V&u.=$S%Z(U<K$H-0*,)V<W<X< @ -Y<8.H@6.)#X_Z<@@m.:=%>`<K.v+A% [ [%_E%b*^=.@z-C^R#.[+[@[I@w+H@w+H-`=;<#[w*R#3(E-(=$[1#X=%[T^&[./*[^(m/~::<U)q(z]s,=[B/o!7)v!*,u@-[x%F#C v%r$;[m,];>[G_/_,['[,()[![~[{[][Q:Q:^[}./[H~([_[r+:[u@<[[[}[|[1[2[3[3[4[y=d<D@",
". u `$8.I.c*H+/>x*V#5[6[;#y-:=2-$'7[R#%>`$+-8[ @0*`$7.@@H+ @m.6.9[r& -0[a[E.8.E%D-K.[=b[r&8*:=A%c[r&+-I.I.,%+;}#v+`$&&.-B%0*$[1#d[e[i/B/8^f[G'g[]_E_h[o{<':<=[s,x(&[{~>,h{g+!*E#H j{]*j+$~z'p]>[q,w/^(i[j[k[l[m[n[o[p[q[r[s[t[u[v[q@^~u@x%J w[4+x[y[x=z[b-=;A[B[",
". u E.U@B&c*B&*&Q.C[D[E[h.D%F[r^[=H- -x-8.K.5!E%`=i.^=:=G[`=u& @H[P#_=+-8;h.w*&&`$@@ -p=`$u&H-I[J[K[I+i.J.`$=$.@_,V%7.[=L[M[v'1#d[N[^'^_O[p,%.m/D]P[Q[R[S[$,/(T[U[V[a+a+o@q+k+Z*,=E#h&C$@=W[p,X[{]5{h:Y[Z[`[<. }.}+}@}#}#}$}%}&}k/*}=}^~l>T=-}C;4+;}4[>},}'})}e^",
". u J+r&}# [I+X]N!!}~}9;*#9.T({}G[]}u&m.H-^}/}E% -*&v+H-+-7.(}_}8; -:}&&/=e.#))#K.&&I.D&<}e,[}m.}}|}I%9.7.8.v+E%:=E%2=$'m.-#1}}$2}3}e>C'0^4}<'F'R~K'<_4^g[5}2~x(V)6}]'f>a+E,y@H=G,p@7}k@{'@,|~v,5{^(>([_8}9}0}a}b}c}d}e}f}g}h}i}k/j}g+M=q%l$C;'}1$x[k}l}1['}m}e^",
". u J+]=I$J+/$E+h'n}o}p}D%q;,%q} -%>H@x-I-m.b_r}y-.@i.`= @A%]=p'A%7.:=5(@@W#C*w*s}^=I%F.A* @t} -u}J[%>I%M$8;R# -]=H-:=x-v}w+])/%w}x}y}q,v,;(:'>(x~K'o(z}p(T[A}O'B}n-^;n@&[E,P;>=m+7+7+J=C}D}*~p(h:o(r(T~=.E}F}G}H}I}).J}K}L}#!M}k/A#m,m+,;'=i&o#1$N}O<z=O}P}Q}R}",
". u w+0*]=#-y&]{S}T}U}V}p&W}//j<w+R#A%6*:=E{|;X}Y}B^q<r&[=u&]=E%u&m.v+Z}`$e.U@p=B-r&(}0*{}S(`}M$R#0* |)$|;1;+-E%M$.|x- -+|K.@|X&d<#|$|5{|~%|*]@!z(y(!~w,']q,f{>,L; ]#/&|=,S;i:*|=|H=a)7^A'-|g/~:N_o!$.})4)2);|>|,|%}'|)|T[!|%,C'O'm-<*b+~|t%.+C;4[4+v={|U*]|d<e^",
". v m.L+@@J@e.^|/|Y,(|_|[}m.(!D%[=:|<|[|}|.@d*||H-_=:= @+-F.E.0*1|-$>$A%q>)#;#I+D%2|3|4|I%g~5| @y-0*8;6|+; @(!9*:=:=`$_}@@K.:>X&d[7|M'o(~(%.8|9|o{]]v,_^:<0|f/C'<)+/q]y<y<@.A#%=~,B#a|b|{]g/N~o(I_<<c|,(g!3^M~d|@/e|N_(]J<E'6),[D]./L;A#y@7+r%-}f|1$g|h|f|n#i|e^",
". u j|R$`@k|l|m|n|}#o|p|U#-$`$q|r|s|c*b*(/ @1;0*%>%> @|;E%J.@@&&)#t|y*`$@@U@V%E.X_u|I%#-1;Y}v|w|z%9.8;0*)#A-F.m.m.+;R#D%q<~%])x|w}y|T[A/6)z|A|J_R:]_n!B|<<y}6^#,x/):U[^;T;|'5'4~0&C|2{A'q]U^I_o(5{Y^<'D|`:A|!~A(w(6^R)^_;!E|O'C_g[$,D'S;y@{,t%D#V=F|4[9-G|H|n>t+",
". u 7~x)I|J|K|L|M|N|t{M&O|E@w*P|Q|_=#-[=y-R|1;#[I.+-R#8;m.}#E.S|e.T|`$.@`$E.P%r)U| -M$$>-$A%V|A%:=r&_}7; )7.W|M$F@m.+-8.-&q>X|Y|Z|`|/(V)('p(-(R:5}N_6){_ 1%,n!.1c^+1U[>,T:2'(;|'T^ ,8^@1{~A_[)x(F'J',]o{>(9|#1$1V[^;%1/)q]8^0^E'|~!~$,/_{~&1B d%*10<9-4+]|x[=1R}",
". u -19'U(;1B{>1X',1'1R$f.K.-$)1!1E%E%m.~1+-%>{1R#H@m.(}7.)#5=+;]1&&w*X]H@5=^1/1F:K.P!9.0*B%]=v+u& -h.:=:=w*9.F@H@@@E+x*e.G+(1X&_1:19^d>u,v,m/g/m!{_<<%,<1U)c^q]u![1B/L;',j>z#}1|1[1C'<1^;./1121$|1~4^!~3141T[U[^;7)*,/)-=i/%,(_('$,+]D]H]O;l+3*)=T=516171g|81B[",
". u w*9101a1b1c1d1e1f1f':=(!J)g1h1J.b[2=i1B&9.A%j17.9.w*A&V&U@e.;%.)Q%V&k1l1D.K.4;E.y-M$:=D-[=^=E% -u&:=%>)#i.L+>#Y]m1B)O&u.v'X&A[n1o1#,n!<([~>(m/E_q,z_U)C_p([)_<+(d>&,N)p1y/B/8^=[&(@(L;L;w<p,#($.]_=(x,x,p(n!c^m%g>B,o-^;O'g:s,s,<(o1q1r+*|h&7':;*1o$d@1[S<e^",
". u c*A%O|y*O+r1s1U@R(#)T.t1u1v1w1,%[=x1y1b_I+i.[=+;F.E+=$P-d.b_<$h.0.z1_,r&.@]%r)A%E%A1B1H@u&A& @B%#-D%b*.@@@V&J@C1D1E1F1G1H1I1J1#|k:r]v,x,,[e{K1c^L1<<.1q,n!/_/_D}D]4{[~M1D]g:p,p,I_x,{~q,p,k:*~C]m!((D]<'o(y,+/2{T:A#];3{|'D]$,N1_<D]_(E,V'w$&=x%f@q$K O1P1e^",
". u Q1R1S1R,T1[{U1V1W1//o.X1D%Y1>{Z1`1 2D%.2}#K.+2F@'${>L+r.P.Y#.#=$E+A^O/G[-#@2#2$2m'`$ @7.R#_=u&:=d*d*K$H@A&/>]>%2&2*2=2-2;2X&d<>2,2Q[S:<<x('2s(-={~D/=!)2)25{D_!2~2{2f!f!z(D_<'g[']%,{]('|~]24^%,o!6^V),[^2f{C/P'x'm@c&h>K; (o!D]r,x,N_/2>,i>u@q+'=*10<9-S<R}",
". w r>(2=$9;A:_2:2o|_2g~<2E.'$(![2H-}2[}+-:=`$|2_}p'F@F+A*12*#J@Q.I+=$+;'$L$2232v+F@A%v+A%I.I.m.:=42d*|;52+;=$z+N%6272829202a2b2c2d2e2g!y(/_{~W~P'>,}'7)>,U)|1s,J'<_,]%]@!|)2^_^!~$,1~((f2e!D]$,g20|<1^'O[=[c^H(P^$!::E,m@y</;=!v!N1h2^2O[L;_:l%h{~,M=i2j20-i|t+",
". w k2%--$9.J+l2m2W,n2o28.D%m.|;B%p2q2o<G[r2s2H. -q<t2L+)#U@V@-%V.P-Q+r.;%F.}|r>l)]=A%%>.@i.D%r&u2#-`$:=#-*#G&T.v2w2x2T{y2z2A2X&B2C2D2G'y(T[y,B/O[v!D/E2&[e>k:x,Y^q/g!,]F2:_3^G2-~x~,(K'v/6)F'o(('N_q,+(^_g>P'&,O'O[}'P'@.t(n-p%n-d>=!O[P^B}::c&A#A,J#u@E$-}J1t+",
". u M+O/M$D%=$H2I2J2K2M+K$7.0*m.V|H-6;L2L2|;1=M28;7..%q;8.e.N2`+O2-{%@L+e.R#m.P2D.K.B-Z-@@Q2R2S2+;`$D%]=[=q>T2U2V2W2s_X2Y2Z2`2 3c2.3Z:1_T[p(11x(t,O[}'_)p1$((_x<v,Q[+3G(_^g!L~>~'~g!F(@!A|$,{_g[R:6)N1H(-=k/a+3{y/o]m{>,];{~H(*,S^K<@3o-m%#3c&o@a+J#J#,;D#V=$3e^",
". u F.]=M[%3/$&3*3=3-3u.`$7.v+e.;3A-k.u&(=,%M[]=R#A%j10*+;>3k),3'3+;#)Q+E.A%v+H-)3!3~3{38:]3x1^3/3+@I.u&R#V.M.(3_3[/:3<3[3}3|3)@I,13=]'(23B|2~d{y}{~%,%,8^/'$,E_%|f!*]3343/.g!L~53'(-~Z:G({:v,x,']6^63=!4~R=*,S;q]V)P^]~2{^'O'N;R=i-O;#=73J=T;*|E,p%),:[7'T=d<R}",
". u 83-$-$ -9303x+i_a3w*w*H@H@v+.-2|[=`$@@ -0*V%D-A%9._=m.]=E%@@&&b3c3d3)#e3f31(F@8;A% -E@m.+;A%g3h3~1`$12!#V.i3j3k3l3y!m3n3o3X&p3q3M_K_q{2~@(>(r3L1[)O'e>(_@(|~s3t3u3W:v3,]w3]:-~3^332^.!x3y3(_%,(_@1',',y$J=|'X[B/!:x'i/n-B}o+N^:*6'p@p+m+ .J=A,A#z3r+r!i2A3t+",
". u H+B3C3`$=$%@l)D3V&V@V@Y;+@E3@@6.R#u&}#K.D&+-6.m.F.%>D%`$V@q;F3=#F+G+G3s'U@@&E@G-u&6. -E%Q&E.V%H3I3J3r&=)L+K3L3M3N3O3P3M.b/Q3R3S3 !)(1_2~2~k:0|x(T3W)A_q,{]J'*.=]2<U3V3*]7{.!]:%]`:+!W3g[4^(]f/x,/_G_c&n@@.n@T:%/S^v!@1%/v$z#v$X3a+l%l%w$w$o,S;P;y$u@g%u#Y3e^",
". u m.c*R#(}r.Z3`3V#h.f1P+)#w* 4b_v+2= -.4E.&&.@u&8;]= -6.u&)#+4E.n.V%D%i.A%K$J.I+F. -.@v+n<I..@#[F.t1~$8.A*&)P.@4#4$4%4&4*4=4-4$3;42^#]>4,4@(['x('4];p,s,n(1~,(/]^:+!/.'~)4w]2)L_/.F2!4<_~4T[k/L;L1{4_]o-p%$=N;a+:*:*S;k>O;o@*,}'>,2{',@.:~B/]4V)i:L=A@!*^4/4t+",
". u 9.D%,%D%J@<$(4Y![#S$z+_4:4<4[4}41=|4m. >D-I.147. @R#:=0*H$0*E%L+ -J+m.0*`$r)F.M[H-24x-m.q~b_R#E%+;z134U#Z(C)44546474849404a4b4c43^G~x]!|z_<<<1_(.(9^C_d4:'s/q{<'e43)J~f42)`[e}:^g!<_}_,]:<i/3{O'm%S)h{*=%=J=A#:*y<E,T;N;D,P;m-n-g4m%L;}'m{t,H(O'g>l%7+q:h4Q_",
". u `=%>I%J$F.M+d;i4-$`$I$'$ -9*L+[=L$ -j46;,$]}y>k4l4c*_==$P!K.P#'%9;y&|;8;F.R,z)P#T(H-`=x-#-]%h..@X_-$m4J+n4o4p4q4r4s4t4u4v4Q3J1w4;(o{-(~:1~5}{~):/'C_J'x4H~,]K'!~<_Y)7<,~h!t]y4k!+3G~J_z4T[G]5'2{m%2'R=e+O=x@Q'y<i-S'(**=b&b+B,-!3{v$|'':8^A4j:^;3{*}B4C4D4E4",
". u |;l4o^9*K.*&F4G47.4=J$H4j~8;9;F.E@d*I46;8.E% [E%k16.(} -52p.'%[#L+.#K$D%F@=# -<4b[q' [D-A&I.m.R#9.T(J4K4L4M4N4O4i=`@R#l;P4c/i|Q4R42<_^!~('g[F'u,'[S4s/T4|_@!n/>(U4n/).h!1)}^w3=]$]E]V4]_!|U[=!3{B}R'i-W4m+J#y$L=R=r+H=b>^;o@R;m%g>n-$/':.]X4=,c&b)J(g%8&A3Y4",
". Z43-`4i,$[]) 5.5`2+5@53-#5$5:>%5&5i,3-*5=5u<-5;5O:O:>5i,,5i,$[])'5)5-'@|'5!5v'~5{5]53-^5,5/5(5O:A2_5:5<5[5}5|5P>)51525'5P>35X&45}*5565758595050595a5b5c5d5e5f5g5h5i5j565k57565l5h5m5n595o5p5q5r5s5t5u5d^v5w55*x5y5y5z5A5s5B5Y~B5t5C5D5E5F5G5H5y5r{I5J5K5L5M5N5",
"O51#1#1#,&,&,&q=P5I1~^Q5I1x|}$1#1#}$1#1#,&,&X&x_q=/%}$w;}$}$/%q=q=/%q=,&R5-4/%1#}$1#S5}$1#1#1#Y|}$,&}$1#1#T5}$}$U5A V5}$}$1#1#W5X5Y5Z5`5 6.6+6Z5`5@6#6+6Y5Y5$6#6$6 6#6Y5.6#6Z5%6(,.6Z5 6 6#6&6#6(,&6X;J]};};D@X;X;X;f)};X;*6(,(,(,J](,X;X;(,X;=6*6D@M(t+t+N5N5-6",
";6>6 +[ ,6|$'6)6!62#~6(%{6]6^6/6$ (6% % _6:6<6[6M)}6[6<6|61626366 0 b l 4656q 7 i g 4666r l 7686d o 0 9606a6S<81b6$<c6$<d6J1e6f6  . . . . . . . . . g6. . . . . . . . . . . . . . . . . . . . . . . . . . . . . . . . . . . . . . . . . . . . . . . . . . . . h6",
"= W4i6H,[[j2w[b-2>O}3&4+f@q$D#u$j6|'L;n@k6l6j/x'm6{][~x4g/n633D|-(o6 !p6J~U3q6H'-(r6s6/.V3)(x3V3;|t6u6~.`/v6w6x6y6z6A6n1B6C6.+.6. t u u u u u u u u D6u u E6u u u u u u u w u u u u u u u u w w v u u u u u u u w u u u u u u u u u u u u u u u v u u u u u F6,&",
"% 7+G6H6]&I67$}@J6h#c#}@K6h#L62%z;y=X M6N6O6G*b-,'71P6T>w@7't@O)r$w@g%Q6 .O=R6i@l$S6T6x%g&L n$d%u@M#B$P;];I(n@x'|'q]p,V^$,$.U6(,. u K.v+E@=#q;%&T.V6W6=$X6Y6Z6t~V&&&`6:,+;-#j1v+K. 7K.r).75(E3+7@7#7$7%7&7T@e.*7=70*0*J._,!#-7;7P/E.>79.b_c*`$7.]=F.[=,7 @K.&5Q5",
"'77+)7!7~77%6%{7]7^7h#0#^7J*/7S*1>U*;}(7z=R>_7'*v-d@e%j{v%V=B$i@y~-[I=G=e+g+,;:7^,V=<7'}[7a-l$j2_;r-w#k@i>+=c&];}7V)D]X[6)n!|7J]. u H-:=H-I%D.I%9;17.%]=27'{r.w*`$A%+-3747<}+-H-B%7.#_`$6=57p>3|67)-77[387w*e.97H:07I%D%u+L+l'a7q.b7c7]=M$_/+;x1E@:=A%R20**4>&Q5",
"d7>=}>S*e7f7++{@0#g7h7{@|%%+ *i7>}b-3#,*71V*b-v-j7v#~*q%n$D;*1q%j+C$k+C$u@M=v%6&r$k7f|l7;}61j&s#.+C;D;u%e+!,!,m7$/u!/_q1f/_:n7&6. v `=|;0*1=o71=I$p7J$l48.y&w*m.`$M[6.u&l.6*+-q7q<r7,@r}s7t7u7G3E+v7T!O-67h.w7U@x7D%E%t<{$y7+#v+r&z747 >L+:=x-1= -I.0*1;m.e.'5A7",
"<6=!y=S u=u=B7C7[&D74-E7&+4%@*O*>*]|0-K ,*'*m$F7G7>;`*r-|*U=H7t$G=}*7+I77']*g%j{g%x%o$s#]|b-1*m$6&r%C;:;h@v%C$b+c&O'P'{~x'm%J7X;. v m.0*1;H4x-[|`=K71;0*L7(=#-M7N7v+i.r&_=[==#H@O7P7#_Q7M2!)R7S7%@#)T7[#U7e'V7W7X7_-u&Y7Z7D-D%52`7}= 8m.v+L! >r^6;H-k.1;I$M[.8}$",
"+8|'Q<@8#8$8%8&8*8@+4%=8{@-8;8C=>8O1b-m>j7M Z B (*,;r:F#6+x%s%U>8+D$u%,8k&3*~*[[j&'8r$)83&1[!8~8C;t#{871s#M q%D *=n@i:O']8P'^8X;. u /8F@ @F.52P|(8j1(=N7l)|;r^_8|:52i.c*^=u+:8<8[8Y=]=@@*4A&V@U.V&`+V#J!}8|8182838485868/>6.8.#[78H+88u&_=98$'k.x-d*m.m.08a8b8w;",
"'7c8x[Y&M*d8e8^&f84-a$@*g8h8@*S*;}v=4[1$a-i8w[r$f&8&t%j8U=r$j%I=p@k8k@}*l84&r$x%l$m8n8j2o8-}p8F=u#1$<7-}|[j&i8q8J=#=*=r8h{),Y~};. u R#I+K..@w+v+s8*&w*Y;X-9;L4t8u8v8I%0*w8x8~$y8h.->/8 -D.*&T$S$z8z+]=A8B8t)C8y*>#D89/'% -0*s2A%6.E8F8`$`=[=G8#-|:H-:=`$_=]=H8x_",
"j,I80%J80%a%i$K8&*G65-L87%a$^&S*|>O<M82>t#U=i&u#r$N8k7D;O8j{t@:7B$0&g+D#h@j%k&W'B$[[g@T6)*c%t@P8Q8R8O}S84[2>u#t@ .O=W4A@k+7+T8};. u @@V%v+U89.e.)_M.A&X'V8W8X8Y8b3Z834`8X7 9.9T$+9T_*#@9#9u'y+V.$9u;w*%9y+<8&9A**9f'L4(! -,) -m. [ @=9}=+-+- [}#R#A&`$ @:=-9|#1#",
"M)n@{|;9>9R<;},9'9|&)9!9~9{9}&]9^9/9b@d@D;u#(9,*_9'8k7l,,8t@h%a):9u@k+B$v%2*<9u@g%[9)=B;O)s%j%<;}9k}4+x=;}3+M |9C$J=h>D,!,|<19(,. u +;r&h.K$;%P.293992X+4959t^9;7769`879899909a9b9c9d9e9f9g9.9 9-1+&`+h9T2c*i9I% >j9H@M$r&r)I.`$u&S#r)k9H@6*R#i._=_=+-l9M,:=m9L)",
"n9.]P<V V*f|;}o9u=p9!94.|&q9!7{9a%r9U*o#1*T6s9s#@<V*(9q#F$B$H,:7B$C$'=i2q%D#k&R6V=r$`*]*E#'=,;t9u9v9w9;9l}f|l7-}x9y9z@>=B#K(w5(,. u N2I@`+L+|(.&z9z+w*>#f.>)A9|=B9+&,_C939D9E9F9G9H9I9M&M&V##&J9K9A:L9M9N9@@}4#-O9P9F@8;@@U@R#7.%> [K.E.Q9v+P#8.u&d*R_R9`=+-1}1#",
"S9N;{|b-613&2>P<M*T9>8U9V9R W9N*#8X9m#Y9Z9m>`93&x=61,*j2j2^*i@G R6i@R6 0t@k&h&v@d%~*D#q%^,d%q%.09-w=m#k}k}R8P<+0T>p@J(*!L=J#@0*6. u )##0V.$0%0&0*0*&V&0*y&%@F@/$=0-05=J@A)q*;0.{&)>0-7,0~#'$A%x*'0)0!0~0*-E@|2{0]0B%1=B%[=u&`$u&.@r)#-F)*'m.=#r&E%`=`=^0E3/0=4/%",
"(08)M*c<v-f|4+N}b-3[_0R -8:0J*@*<0P<>}[0P}}0|0s#102>0-l$f@20n$.+[[|930|9x%q%H,D#g%r$^,D#v%5&.<405060y=O1708090c@O)00C p@a0@=b0t+. v x*z+c0d.[3d0e0f0g0w*E.P%Z$)$9(h0e.U@x*W#&)`]L+i0r.j0]<.%>#<#V#k0l0V6U#M$m0n0o0 -1=`=A% @u&%>_=6*%>|;Z$l) -[=[=_=`=p0q0A%r0}$",
"s0X4w9t0{84[y[(7P}v=u0~9R J*^7v0w0x0w=P}y0o#<7a-#<4[}92['}'8~8x%t@w%|9:;2*z0q#r%[[r$~=x%A06&*1P8B0>}G|a-;}P}c-b-_~M<s%g%r:u%B2M(. C0D0E0F0G0H0V(#)&&I0D%u.o.E+j|]=@@&&!#Z-0.P.h.R#.%-$S#5:^=A%'$`+o^y>J09.K$E%K0L0E{I%`$,%n<D%m.F@M0R##-/$H-E%m.D%E%$>N0O0P0])X&",
"& Q0>*O1O}4[k}60l}R0k}B='9S0T0&;3%$**;E=1*D;U0s9Y&Y&;9c<f|61`9l$j%i@n$U00-o$k7V0,8_~i8r$d%:;h@:;W0Y&9-P}X0A;m>l7s#[7U0|*d%G Y0D@. u Z0E^01`0C*N+ a.a]=+a.%x*&)U-Y#@a#a+;;%=$e.!<147. -J$$a%a0*&a*a*7_,9.`$H-|;;)M$`$l)1=K.K$=$=a-a;ar& @'$9.]%h.<}6.`$-a>aE8,a,&",
"'ab|60N}m>6161P}P<80k})ap9x0!a{9~a{a1>=;m$u#K P}2>c<R8]a1[t#v#e%2*g% 0^aq#|9T6m8{*v%n8q#.+.+g@s:Q</a71o#3&;}Q<3&4+4[,*(a:;N#y%e^. u 5])$_aC)i=U@ )K.E%&&:aF9<a[a}a|a1a.#9;]{y:9.Q1 -B-m02aR#u&3a[}4av+i.+- -V|p&F.K$%@D&%_5a6aK.+@K.K.E% @j1&&-$K.R#s&H+d_.@O:X&",
"'av!80w9G*9-4+O<c<x[V d87af7<+u=}>C=U*-}D;8al$9a0a4[R<V*P})*!=r$t%r%t@x%j&e%e%x#6&g%r$h%6+h%i&1$7171c<2[71J8;9aa9-4+O1s#baL W;e^. u caf'y*<$z+da;#;%u'P/Y#eafagahaiajakala|=M$_/F.%> -A*B%:=maD&`=nab[6.`$r&I0]=)#%@u'F@n4oaJ.K.4;c*I.[=+-c*)#&&J.L+pav+w+T$qaX&",
"<6+(3&O}v=P<ra61;9k};}R0S*L***|&sa0%=;c@r#D;ta)8l7j771-}O8uae%r%6&L k7_~va|0wat@i%5&B$j{r$G 0<#<O<J8,*x[J8Y&;9w9Y&X0X0m>K C;w-f). u xa+2r.q~e.+;e..#=$z+yazaAaBa^{CaDaEaFaGaR,G@[=]%m09*A%m.>%8.P!Hax11;2|m<@@R#=#9;Z$)$H@P%Iab[]%c*5:x1F@R#h.m.(! 8+-A&K.i.:>,&",
"Ja':KaLaO<v9G*MaaaNa;}_%0%Oa!9{9A=a@X -}1*j&)&F=o#0-!8M ^aZ K !=f@r%e@a-m>5+f%]*h@Pad%:7,;i@ 0Qav=Ra9-x[V k}y=R<P<P<M*U*s#5+n>SaTax 9/_a*&u:c*5=*&G+C*UaL4L:*$VaWaXaYaZaK/`a b.by&+b -F.8.&-R#z-H@7.@b*)=$D%]=7.]=`+:-j|D%*&c*H$#b}=T($bL$%>4:%b&bK.K.R#v+22*b}$",
"(0U[0a4[4[Y&80=b-b-bO<B=]9P<;bB=B=0%E=e%*1r#j2a-!8D;^a2*[>p+H,x%^*x%l$)*f%p$],t@D#r$E h@h@w% 0>b-b0%/aO1,bz=R8;9P<'b)b,*!bD;~b{b. u L4v)%3e.=0I%]bw*#)o.T1M+O4Y,^b/b(bW6q</3_bH[:bE@`=0*8.<b`$)#I.+#`$[bA% @I%]=J+<$<$]>J@n')#J!u& [M2F.V|#-;#8.0*}bM$,%y-A%v;}$",
"^)_]ra}+|b;9-b;bV B=u=%8^9k}w9801b2b+0k7!=r#)':;e@7&h%h%!*H=I=r:,8G#k&U>]*9&H=w@t%|9|*3b9aN Q870k}'b3[^94bP<y=O1715b6b7bl$j&8b9b. w !/K!9;@9T$A&A&0bab01`@bbcbdbebfbC)gbhbibjbu&kbV|2=:=:=v+&b@@;#j|9;lb4=[=ibmbnbQ%9;r.o~obU@i.V%D%7.pbv+H@F.F@4=F@|;#-M2X-i,q=",
"'7p%#880Oa}+>8G*qbR<d8Q*rbsbU 6-2&U*O17&|9tbh@6&!=f%G `*I=ubm+t-,8D#`*Z*m,P)Q0,;4&i@C;j&s970vbk}w9wbOa0%xbqbybv-3+`9D;30a-7bzbX;. v ]=E@Ab[!Bb=)q.`+a,CbDbEbFbGbHbIbJbKb12e.LbH4Mb1; @*<A% -+-'$'%h0t^>3J+)$G.9;E+NbObR&PbT@`$]%V%}#I..7m.2|=#0*]=z*G-|;B%:='5}$",
"_6m{O<+*QbM8qb80k}J8Oa_&-8L8N*Rb2>3+!=)*t@H,[[4&4&^*!*a) .C$k+I=v%E#E#0&p+];Sbb&O=r!k7Tbl74+w9v=9-aa80Ub90K8G*_7.+~8{8V*t#r%I,(,. y $'j4Vb:-v+h.M&WbXbYbZb`b cQ.#&.c+c{{Q.e.0*@c#c$cH-521;:==#q;<$~#%cZ,U78.:-9;#&q*R&G+O+&c*c/>R#P!X-s&S_=cL$-c;c>cI$]=4=x-%5X&",
"<6S;N6#8B=Y&V ,c_%l#_0)9%+}&z;'cV*`9C;)ch%F F#F#x%T>`*d+B@`*W'q@8+h&!cu$P;a+A#p-~c/~*11$9af|J8O1,bk}8080-b8-=;V*u#:;l7{cC;!=]cX;. u H-%>$>K,^cS$q*/c(cs1h)_cH/:c<c[c}c|cy+w* >1c2c3c0*H-D%u&;#G+M&4c5c6cd97c8cX#5]y+U%9c0cacbcccN(6*K.D*0*7.m.-$=#]=J$K.8;H-:>X&",
"_6dcw0'9#8=bec#8_07--bu=&+(&i7fc`9baw[p$q%d%gc3*`*,;i@|<]*h+|<k+P)J#9+);@3',q@B4i@6&G  0s90-P}80;9z=O1;9W9}>y=2>1[`9e%1$`98ahc5.. u u& @ic]}`$D%w*jc)-zag=kc`+lcmcnc5[V(u.7.)#g~v+`$ocg~M0E@M+U.pcqcrcsctcucvcwcy*q*xcyczcY+AcR$.%Bcn^B&[=8;'$,%@2)#w+/>H@ -CcX&",
"'7DcEcFcu=Gc^&Hc!9|>IcM*=*<+JcV 61D;W*p$k&t%r$B$G=s-G Kc,8[9j+h-#=b&q+y$s!K#9)g&E$h%8&|9a-M v-Lc3#,*x[McUb0%Nc1*m>a-:;1$i8j7Oc};. u  -22Pcu&H@E.G+U.QcRcScc~U@k'TcUcVc{{.#%@!#J.8.7.x-6.WcXcU@M.YcZc`cq*%@ d.d+d@d#d$d)!)-%d&d*dM+=d:-e.L+Z$=$-$`$E.7.r&H@#-m9Y|",
"-d~=;d8%y;&;u=>d$*W9Q*e87-z;60v9]a1*,dh@6&x#u%i@x%!*E$.+ 0{*t$j-R=p+*=b&j/R=r@r$j%x% =_;wa2*)*x%'d9<)dO<a@4[O}O},'t#:;F=4>{*!dX;. v (}~d0*&&A%.@y>;@{d]d-%^dO$/d/>679/S$(dq*C&R#`$_d:dR#,)G%t8&)<d[d}dZ0|dxaY#1dD[2d<$u;k'3d4d5d6dV$7d<$%@r.T@U@r&.@5(v+ -8;:>,&",
">6w@a$%*!9N*}>S*e84.S*7-f7K*V ,};}j7F$ 0!=n$8dPa8&[[<;j%q$r$8+M=:[4_O=m,Sb4_x$k+B$4&H,u%^,c%t@r$k7@<O}P<_0v=x=3[9al$t#2*l$7>9do>. u 0d%>0*P#M0h.H&u.N-&2ad.$;-X#bdH2Z(cd9cddxa'%F.J+{}+-`$7*@@edfdgdhd)_C*q*idjdkd[#h.M&ldmdndodV.d.U#pdu.w*;%v+i.8.v+%3H@]==41#",
"! G ~aqdB='b_%#8+*rd#8S0f7}&{|b-sd61K u#e%8&s:H|[0s9i8n$x%r$p@D#t-td9+J#K(^~c+9+,=u%t@G |9M h%-[i2s#W0O<^9^9x0M8y=o#Z 5&w@udvd(,. u 5;0*0*E%1-wd.#O|9/xdydydzdAd,!Bdh'CdldDdu.9;+-j~j~1;L7m09;EdFdGdq*HdIdJdM.C)E+=$KdLdMdNdOdPdQdRdk'SdV#M!{$=#T$T$.@P|D%+-,51#",
"- ,8Td;dG6UdB=VdR WdXd+*}>>*R>0-S8;9-}Yd.+[[1*j7m>X o$j&:;[97'q-`*A]c+~|3*d+3*v@B u@`*`*F#F$k&,;C430@<ecR &*|&ZdG*-}E F#H;9+T8Z5. u v+0*#-n&i<'%w*U.k;`d e.e+e@e#e$e%e&e*e=eq*Q+-eu:0*;e:= @L+j=c1>es.`@,e'e)e!es1x*j|~e{e]e^e/eG+=$(eI0H@w*>#F.`$D%!#K.R#2=,51#",
"$ u%[%%+!a[&Gc_e]&J*7%e8>'y=R<4[=;f|k,|*j2q#c%i2!8w[)*t#'8a-w[p$G=|<v%k@0&u@7'O)C :e<ev@6&j{]*v@~=9<y=[eVdS*Jc90y=Ncj7}e7^r+v5(,. u u&9*Y=`+l.n.-0d.|eh)`,U-Z$1et.2e3e4ew 5e*&e.y&M$P##[ -:=+;;#P-6e7e8eT@V.o.9e0e`@aebeZ,ceV.deeefe;%+;E{M$'%`$]=I.ge]%(/he;5Y|",
"d7g&g7L6}&a$&+L6}&!9rbie<0k}jeO1R8{cke6&!=!=g@q#q#!=B;-}f-!=)cp$:eW'C$%!J=+=`*0&g+u@^,v%Pai@n$lemel}u9_0#8+*e8a%>8b@neI=e+L=:]};. y M$A%I+E.4=oeV.peqereseteue:2vewexeyezeAeU.P-L+I%[=E@[=u&7.i.Bei=CeN.V$V&V@%)Dey{EeFeGeO2Heu.F@IeJeI+9.8;Ke#-r&Le6*4;}=)1Cc,&",
"!@j{Me%+L*;d$*^&a$Q*4.}><0c-Ne|9f|p8}eD#q$c!h&x%4&>;X>}*Oe7+F#>;l@Pe}*8+Dc:9M=r@:7t%t%n$n$}[w[{82[P<QeN*<0;b'9l#a@Re[>`*^~p@w!};. u U8c*F:F+G+S$H+K>+&SeTeUeVeWej3i^XeYeZe`ei= f`+.f`$n..@_,v+E.m=r.A*{$A)%@%_P7+fS7`<M&;@`+R$*#6.@f6=R|#f8;I$A-F. [Q!.@v+6*$fX&",
") q:1%&*|&e8_&Me[&)7%f&f]aX *fq8G=^*>;g%4&^*^*w@H=h&,=:e(*g+:ex#*!q+8+H=k+^~,;q!v%<;=fq%-f1$}0Qa;fOa#8Qbl#X0>fU*m#,f6&i@,;'='f};. u q*u*z+)f!fdb~f{f-{]f^f/f(f_fj_:f<f[f}fM-|f1f7*m.,%6*%>D-I.&&E@@@r>@@_de.*$>%~#P.+;`+N2E.@@D.$>K$2fr)0*7.8;q|M[H-%>m. - [3f}$",
"! W'4f$*S*u=u=G6T9>f)b-}7&)*5f:eW'(*p+=}9&k+H={'!,$~,=m,l6!,O=J#3*u@I#*!&=I#/~E$6+n$!=6f]|'}l7|[N6Jc-b7f>}71U*4[V*a-'dr$E !*'fe^. u 8fW{9f0fafmcbfcfdfa,efffgfhfifjfkflfmfnfofbew*P#:=F.<}A%r&q<E%w+52I$q&pfl1L$9.H@R#u'A%j17.H@A%u&]}&am. @T(M[|;K.9.*<4:B&:>qf",
"^)O=!9R u=_&L*3%S*6061[;U0T>G w@0&);D,k-+.l-z'v$e+~|d)w$6'E,J(W'..7}R6:7rft-t@6&n$:;k7'8@<4[f|sfO<sawbV 2>P}v=O}3#T6!=M h%r$tfX;. u _{R$w*u.S%V}}fs8ufX#Z(:$vfwfxfK^yfzfAfj'BfCf`$4=DfF.K$m.:= @u&u&EfFfm.%>3;E-6.u&]='$+;#-D%I.H+K.[=8;GfH-1;1=.%m.I%mbD%6*&5Hf",
"d7R=B=P*e74f2%=*R #*R<Ifw#w#`*k@$~9+h>b>A,B,j>y@K(W'b>c&a0x$q@m+:[g+B f&i@`*B E$p$q%0<a-JfO1KfO14[w=>*;}O1x[>};}70Ka'8p$q%D#p3t+. u K.E.R#7.9;Q+9;X#LfM%MfNfOf:-S%c.PfQfx!RfSfTfif:4`]f.+;`$Ufy-24Vfd*528._=Wf.f}#.@_=z-%>%>%>d*D&I._=`=Xf0*H-|;4=o0a/~f'$Yfm91#",
"ZfZ*Wd`f;d[&4fu==*K*]aT6B;5&B$Z*g+ .m%S^',==3{h{!,l6P;c&y$R=p-C f&u%R6w%x#x%^,G#'=(aT6w[1$X0a@Mal}w9,}s#,d|[R8Y&;9J8)*Pa*1P8 g5.. u E.A%[=m.A%9.@@+#:-p^;<.gA%H2>#+g@gJ@#g$g`@V+'_%g&g*g=g-gM+B9]=y&F.:=H-(/_=T|g~T(H@D&;gH-y- -7.=)K.7.>gJ+m.J+L+W.,g'g9.-$)g1#",
"'7k8Xd!g<@4%$*Q*)7K*t0-}F$O)k@I#,=7+ .~g[)X[{g2{*=#=:*r+u@J(g%6+KcT=l$6&d%G g%x%^,.<i&{8;9wb(79-o#d-o#d-H|4+2>J8g|y=S>g@w[i8$3X;. u 8.v+.@v+K..@8.:=P!m.p.L2+><#Of]g^gX7/g(gt^_!%@S%#@H&79_g:g<gZ0=#[g`=H-:=I.H@}g|g!#A%A%I%F@v+Q!E8D%e.1gd3T@Rd2g3g3!s_'04g5g6g",
"7gg+;d6%x;$*$*R*8gN*ybi8c%k&R6C$`*9g0gag{~n-':P'[(q+bgu@C$r:H D#l8p$G u%<;i&cgU=q%+<D;30m#Mad-]|F|f|@<o#9a1*b-O1x[,}dg:;eg-}fgD@. ggL$S#]=x- -i.u&:=hgG[B%D-|:1;R%igjgkglg9/q*N+r.<$;#[b&)mgi^ngogC*E+`=m.J$P#pgqgy*K$.%7.rgsgtgE+d(48ugvgt<wgxgX'yg01zgAgU2'@x|",
"; W'[&S*|&|&S*7-9@Bgk,C;2*H,h%,;j-n+:)L;Cgn-P'K<Pe'=p+'=H=DgC$B$g&U=x%J 1*'8t#|9)8D;:;4[c@`9F=l74+0-;}0-)&f|-}~8O1d@EgV=~8D;W;D@. u D-F.Fg6*6* [R#6.`=24 -p'#-i.A9]>D1D1h'U+($T.q*`+>#g~f=GgHgIgJgKgLgMgNgOgZ;A&w*#2E.u'Pgc,Qg@'RgV@P/U@G+V.V.Y@~<Sg.%V${$Q+Tg1#",
"d7u@v0e7f74.8gqbz=UgC;`9^*F$:e .0&_*y<g>%/E,X4i{D$}*p+G=O=7+p@t-i&|0g@~=D;a-U0Vgo8C;t#p8S>!=|9|0,*_74+P}O}T6f@:;Wgl$g@q#q#v#$3t+. u _d(!:d -r&c*p=R# [_=P#Xg_=.@=#{$`!K${$/>J@*#=$*#*#YgZg`g h.h+h@h#h$h4g%h&h*h,1=h-h;h[/q*r.*&)#>h,h6.8.J.'hM:D%`$)h!hy&9*v'1#",
"~he+u=%82%[&y;9@3&4[T6e@q#q%c!7+g+d+$=6'D,C,{hL#f&i@g%^~e&u@g&[9g@C;<7f|b<O}s9(9m>v-!=6&tbt%r$q#e%q#Q89-;}1[G|V0.+r%D;w#[[.+W;5.. u F.4=v+22_=4;|;A%j1D-I.N7]hA%D%^h9[D%@@H+r&y>q<I+)#)#^1C9/h(h@%n_)#P._h:h|-<h[hj=P.U+`@V@/$,<+;'%}h|h a+#!/1hi.)#l.2h`$j~3h1#",
"M)Q'S*x0Q*)94h;b'b(7R8a-,8F#'='=e+9+B x$D,i{D v%w%[[`*q:r:T=V=|*[72[x[4+Jf615hy[4[3#:;C;k7[[L :;Kai&Kf6hy=k}d@r#j%)=^*],^,g@7h};. v K!w7w*m0R_ -8h9h`$ @47q<0*+;0h.g1;R#.%*&H+J.)#`$m.8;]bRdah#&D-bhY#h.q*chdht.X7ehV$q*W#u.@@|;G-]=fh57ghw*P%F..@A&!#9.V%+-%51#",
"hhihv980$*{9H6L*-b80w9b@t#|*|9.+k@/~W'7+_*bgg%jhu# 0n$kh8<K V=w[)8)&@<_%xbG*x[61P}709-1*[79aj2l$l$@<t#)&o9D=O8:;!=r$9&R6~=s#J1};. u 0*lh*&.- @$9d*mh]=`=p>#- -1;[|E3)$$>X]i.=0y>F+9.D.J.V$V@x*=$J@nh)#w*U.a;ohphqhrh#2sh&)thI@p>M$ ax-}4{}|;E%c*#-}#D&7.uhvh3-}$",
"^)e>G*{|Ub!7[&&;9@;9whb@!=c%.+c%`*t-s%g+r:r@l8x%j%n$:;U=xhK Vg1$m>x[ra_0S*Oa80yhzh3[P}1[p8m>`9V06&[9t#x[Ahl}1*<7u#6&A$H,j% 0Bhf). u ~1+;I%:=u&ChA%r&0*Dh(2`=B%E3H[M[H[4=0*P!9;+2_,~3o.h.z+EhL.]%Fh>aGhHhIhJhu.`@/#A)Q.`+Kh&&E&C^93LhMhNhI$-#G+y>9.I$D%6.I.s&Oh,&",
"Ph<'[;1[y=Qh**P*6-v9k}A;^at%j{j%g%x%<;:;D#B$H,[7s#C;_~|*Rh4+Sh9-O}2[|b_%rdB=|&p9)9l#71F|s#s#F=F$B$8&D;s#meqb71X |0r#'86&j%j%I,e^. u Th52`$i.A-03+-7*E%:=UhD- @x- -Z=`=x-P#F.F@i.E.J@Vh~}Q{WhXh01q~H+~%YhZhq.G+9;h.S$s1%@`hD-m._d/$8;8;K. iY1J$)#q>*<|;.ii9.@+iX&",
"@iK_)c-}l7Oa'9OaR 80G*X s#2*E$i@ 0u#6&U=x#x%r$8dL '8)&b<vbMa#i(7)&Q<Ubk}P*w0u=%8i$0%)d3[4[d-M r%cg_~3b}9sfR<;}p8n$|0f@.+x%G $it+. u K.H@D%Z;j1%i24 -.@+-A%7;b*[=H-I+&i_=E%P#v+s&A%9;G+I{*i=i-iT.B-U@=)w*I+t8;i>i,iU@`+;%'iJ$+;,%0*,%8;l)|;)i!i.|8.m.F. -}#k.`4Y|",
"86J~q-_;1$W0qbL*{9~i>}5+H|o$c%G :;L r%q$h%t-T='8v-|[O}4+0-,cO1W0{iUbqbzh&+=*2%|&N*-bOaC=,}614+'8H|m>1$70;};}whMc9af||01$r$J =1{b. u K.R#v+b_R#]i`$R#E%r&}#I.:du&R#m.`$l<(}v+6.V%*&+&q*^i/i(i_i:i<iU@V@U@r._ao0E.#)M&U@U@L+&- @H@D%8;+;K.D%]=a8]=^hJ$ [+-^=.@O:Y|",
"[i-]H=}ij2a-n#y=;bA=;9j7f|P6t@u%E$t#p$l$^,r-^,4&t@k7p8f|4[}9(7|i{i[&e8sb4f<+4f&;7-0%_0l#b-l7i8f@r#l7V*)&n#m#c<J8Y&2><7a-s91i2i5.. u E%G+B&-& 'E@D%B%_=i.r^r)S1*4K.w+7. -6.R_v+u;D.3i4i5iZ(.96i7i8iK^N+T@*#g*w*5=S$o.V@q>w*H+e'`<e.A*D%]%m.9i0i:=H-L0 -w1S_|;ai,&",
"bib{k8v%l$j{30G|61B=;93+`9u#k7~8K uaB$6+6&Pa[[E ^,[9[7b-ci70-bR Oa_&[&diR u=T0J*N*_0B=z[k}P}o#9as#1*j&a-m>P}4[100%raw9]|;}70ei%<. u {$H+G+!hfi0*.%d*|;_=R#E.G+I.H@q;D%x-%>]hR#u.gihi+'G.G+Z(`cii[3Q.s1N$&)Z$y&i9h.R&C*@@G+&&R#|(`@.#.%e..%%>M,5(.@d* @H@+-]}v;Y|",
"jikig%u%x%)cS=f@9<4[k}X0W01$4+t#C;i830[7V=w[5h30~=-fliJ8}9v=W94.f7)9mig7R T0^&ni3%'9a%-bOaP<oipi]|9aci1*D;f|P}3&O1w=9-l}X 71qiQ_. u ;%.%rim0:=x-q; @p&=#]=si>#w*w+F.T(J$:=$'d*I+tiuiviwi:-xiyiziAiU+#0BiG+-$:=0*e.-%7_E.J+:=0*Q%,iA)@@&&K. @CiDiA%(!N7g~#-EiFi1#",
"q  !s%!=r$r$j{q#301*m>w=GiP<X (9a-o$KfC;m>l7{8O1Q<HiW9zh_0_0WdR Me-8g7Ii!gg7E7;d%+L8K*;bP*x0Raw=)&(7;}4+O}f|s9a-_79a3&N}9-m>2}e^. u E+{/F@Jip^Ki},>{Li`$L+<$T#q|MiNiL$7.:=:=u&e.y>U.Oiu{bePikfV.V.M.QiRiV.m0A%A-8.Si.-F.S|`7j48;m.F@v+m.`$[=_=p;6*8;G[+;J$7.])q=",
"Tit]c+O)r:H x%20w[c@w[j7O}Q<whs#!= 0La709ax[Ui;9Q<Vi;fWiXi4fEc$+Yi4-Zi@+<@-+@+=8}&)9%8_0Ec$*R x0v=J8R8J8}9aa0a4+4+4+F|`9]|x[`ie^. u  ju*]=!/_amb(!H@SiSiP%y+h..jC*u.i9)/.%'$R#.@H@J+K.#)T@G+#@R$U.T@G++j7_@j_,`$fh-$w19*(!r)]=P#`$]=D%H@7*#j,)*4$j%j&j4(R#*<>&,&",
"*j3.3*7+'=G h@i8=j-jq#m>4[)dl#_7m>'8;j]9X0N6_%]9>j_0,j^&g8!gg7'j)j!j,+5#~j{j;+I*(&Xd++-8)9-8]jy;B=d8'9#8^jUb;9O1X0vbciR8v=R<X=R}/j(jL3_j%@F.G%_/J$I$7.+#y*U%(b:j5cz+Z$L+o_/=<jd* -I+)#0*+-j.o.j|T@N+H+@@[j}j&)N+L+7;|jH@+9`=m.y-4;A%D&_=j4)#V%A&e.~%f.y*+;]=CcX&",
"bi1j7+}*5&j@q:X*x%`*H,2jx[_%3jJ84[@<Gi'b4j^9OaP*Ra+*&+5j$+a$;d++^@{j6j6j,+,+7j{j;dT0[&8jnia$9j0j$+T03%EcZi$+)ad8Gi_%_%Giwh;}=1R}. u ,_ajj=`+L+^hMix*;%:->)bjcjdjejU+V@e.<$F+E.6*8. @ -:=.%*4fjU#+;S%w*gjG&{>W._!n<hjij`$R#+-u&jj24x>kjR_A%!#V@A&`+J!K$9;y>A%lj}$",
"p $},;mju@R6'=khO)t@njg@Rhzh&*90w=G*T B=w0q9R p9z;Ec;d6%&8H6ojpj=+]@qjqjrj)+sjtjujvj'jnia$wj;+d$8j0jxj^@yj)jh#I6+*{iR Oa>9zh965.. u zjAjyfT.M.29BjCjDjEjFjGjHjIj(fO/*&T$U@y>4;j1x1 -u&+-[=2=M$R_V@>)Jj/$A:12#&Q%,)w| @.@ [I._=8. -a*H@R#V%+-H+V.<$o.w*e.w*n4^5X&",
"Kj5<~'p+W'E#e&G x%T=[[L x[Lj6-m#y=x[Mjr9<0zhS*Nj'9Xd&8=*^&++Ii^@~jOj'+PjQjRjSjTjOje#Uj]@VjWj2$8$XjXjYj}@Zj=+`jIi[&a$a$_&N*M*$<e^.  k.k+k@k#k(d$k%k&k*k=k-kX+;kAgbdE{'$U@N+V%x*m.F.m.H-H-%>E%v+i.#&d.h*c*g<n..%Q%>k+;7.+-,kr)D-hbA% [h.8.H+)#&&&&c*q>V#V$'$9;'k/%",
"56)k9+P;:[h&h+`*'=g@i&0<70;9v=;9v9N6,9u=B=o9Wi!kB7I6-*)j~kd$d${kYj[@]k^kf#Sj^k:%/kSj(kc#[@e#_k9#e$e$:k<k8#`j *7%<@[kg7Q*4._0n T<. u }k|k1k2k3k4k5k6k7k8k9k0kY#akJ@`$u&x*Q+{$o.(}+;_,m.C%q<+-*#78L4bkckx+u)`+.%|(/>9.J+)#2|dkX_1hR#u&6.+; )F+m.t<;%e.<$w**#.%lj/%",
"86ekJ#y$!,#=i-h+.+|*l71$P}4[l}>9B=O<Xd$*fke7gk=*5%7%J*[k@+hk~jikjkkklkmkuj6#nkokpkqkrksktkukvkwkxkb#g7^@0#:kB7yk]@zkg7Ak&+~7BkE4. u CkC*67W.DkEkC0GeN$FkGkreHkIkx**#V%6.=$&&E.E.0*;<F.#-V|2|J+'$<$M&Jkd.9;pgr.L4V$9.f.8;|; -$>1=KkH@c*v+m.&&m0/$;%E{<$V@w**#Z/X&",
"e Lk6'b&q+m+J(g+C s%K s#613[Nc,c^9qb,9)9Mk$+9j[&&;2%[&++Nk,+e#Ok55h52@^+Pk(+Qke#RkSkQkTkUkVktk7jWk<k^7]&C78jIi~k=+(+e$Zini;dXkYk. u O$Zk`kU1c0>) l#&#&.l+l@l~$U.w*R#K.Z;K.b*F++;`$R#H-x-6.`$h.H@x*{{#lT.L+L0`$`$m.R!F@,%:=F. -q;`$i.w+$lJ$|;m0MfM$P+[#V#N+M+Z/I1",
"%l9}&le+r+p@M#3*q:z0g@'}'d`91$P}v=B=XdB78j*lh#8j4f=l~k-l;l>l,lpk'ld5)l~&h#Xj~jlkok)l!l5@~l4#hk{ld#9#{@Zi++^&=8h#I*;lhk}@]l;df ^l. u /l(lobU+z+*&r.n.=$_l:li=%@+&K.U@i.m.P#F@F@@@*&]%[=0*@@H@e.E{+&<l[lq*Uanhy>)#8'w*q~K$M$B%x-u&}l|l1l|;I%I$E{|;2lm..)h.W#=#-'1#",
"66$8e)3l4l5l{=d<$3zbfgp3y%X=6l7l8l9l76!_r 0lalbl7 cldlelflglhliljl;'klM)Xkllmlnl3 <6a!3 7 ^)ol^)Y{plql7 5 7 46rl%lblsl9 a j tlE4. ulX{vlwlb/Z/xlZ/ylX{zl.~Alv;xlBlZ//<Oh3-ClDl:>:>!5:>v;v;)5ElFlX{GlHlIlJl'5KlZ/Ll^5i,,ai,Ml$[Nlv'v'OlPl{5%5Ql#5Rl%5$[v;])i,Sl1#",
"Tle^X;X;D@e^e^};};};5.};};e^t+R}E4E4D@E4E4E4UlUlE4N5^lE4E4E4^lUlVl^l^lE4E4N5^lWlXlUlE4^l-6E4UlUl^l^lWlE4UlYkYkUl5.UlYkUlE4N5E4-6YlX&Zlc/`.`l/%X&,&q=X&c/w;X&X&,&}$,&}$,&,&}$1#}$/%/%x|X&/%X& m1#I1+~~^X&X&X&,&,&x|,&q=,&1#1#.m+m1#q=1#.m1#1#1#1#1#}$q=}$1#1#}$@m"};
