/* XPM */
static char *_57b9b39608a4f31ab9c082240fdf530ZBswa0baDh0XshoX[] = {
/* columns rows colors chars-per-pixel */
"64 64 35 1 ",
"  c None",
". c black",
"X c #010101",
"o c #020202",
"O c gray1",
"+ c #040404",
"@ c gray2",
"# c #060606",
"$ c gray85",
"% c gray88",
"& c #E1E1E1",
"* c #E7E7E7",
"= c gray91",
"- c #E9E9E9",
"; c gray92",
": c #ECECEC",
"> c gray93",
", c #EEEEEE",
"< c #EFEFEF",
"1 c gray94",
"2 c #F1F1F1",
"3 c gray95",
"4 c #F3F3F3",
"5 c #F4F4F4",
"6 c gray96",
"7 c #F6F6F6",
"8 c gray97",
"9 c #F8F8F8",
"0 c #F9F9F9",
"q c gray98",
"w c #FBFBFB",
"e c gray99",
"r c #FDFDFD",
"t c #FEFEFE",
"y c white",
/* pixels */
"                                                                ",
"                                                                ",
"                                           XXXXXX               ",
"                                         XXXXXXXXXX             ",
"                                       +XXXXXXXXXXXX+           ",
"                                      XXXXXXXXXXXXXXX+          ",
"                                     +XXXXXXXXXXXXXXXX          ",
"                                     XXXXXXXXXXXXXXXXXX         ",
"                                    XXXXXXXXXXXXXXXXXXXX        ",
"                                    XXXXXXXXXXXXXXXXXXXX        ",
"                                   XXXXXXXXXXXXXXXXXXXXXX       ",
"                                   XXXXXXXXXXXXXXXXXXXXXX       ",
"                                   XXXXXXXXXXXXXXXXXXXXXX       ",
"                                  XXXXXXXXXXXXXXXXXXXXXXXX      ",
"                                  XXXXXXXXXXXXXXXXXXXXXXXX      ",
"                                  XXXXXXXXXXXXXXXXXXXXXXXX      ",
"                                  XXXXXXXXXXXXXXXXXXXXXXXX      ",
"                                  XXXXXXXXXXXXXXXXXXXXXXXX      ",
"                                  XXXXXXXXXXXXXXXXXXXXXXXX      ",
"                                  XXXXXXXXXXXXXXXXXXXXXXXX      ",
"                                  XXXXXXXXXXXXXXXXXXXXXXXX      ",
"                                   XXXXXXXXXXXXXXXXXXXXXX       ",
"                                   XXXXXXXXXXXXXXXXXXXXXX       ",
"                              >7>  XXXXXXXXXXXXXXXXXXXXXX       ",
"                             7yy7   XXXXXXXXXXXXXXXXXXXX        ",
"                           >9y9>$   XXXXXXXXXXXXXXXXXXXX        ",
"                          7yy7       XXXXXXXXXXXXXXXXXX         ",
"                         9yy>        XXXXXXXXXXXXXXXXX+         ",
"                       >9y9*          XXXXXXXXXXXXXXX+          ",
"                     >9yy7             XXXXXXXXXXXXX+           ",
"                    2yy92               +XXXXXXXXXX+            ",
"                   7yy2              2-   +XXXXXX+              ",
"                 >yy9>             >9y7                         ",
"                2yy7              7yy7&                         ",
"               7yy2             29y9>                           ",
"              7yy2             7yy7                             ",
"             7y9-            >9y9>                              ",
"            9y9             2yy9             >2                 ",
"           7y9            >9yy2             >y9                 ",
"           99            7yy9>             -yy-                 ",
"           $            9yy2              -9y2                  ",
"                      2yy9>              >9y7                   ",
"                    -7yy7               2yy7                    ",
"                   2yy9>               2yy2                     ",
"                 29yy7                7yy>                      ",
"               >9yy9>                9yy>                       ",
"              2yy9>                 9y9                         ",
"            >9yy2                 -9y7                          ",
"           2yy9>                 >9y7                           ",
"          2yy7                  2yy7                            ",
"         7yy2                  >yy2                             ",
"        7y9>                  2yy2                              ",
"       &y9                   7yy2                               ",
"        -                   9y9>                                ",
"                          >9y9                                  ",
"                         >yy9                                   ",
"                        >9y7                                    ",
"                       >yy7                                     ",
"                      -9y7                                      ",
"                     >yy7                                       ",
"                    -yy7                                        ",
"                    -92                                         ",
"                                                                ",
"                                                                "
};
