/* XPM */
static char *_512fac32cce46409ab999d66741df30VTPpSMGTvUwp7Fto[] = {
/* columns rows colors chars-per-pixel */
"64 64 250 2 ",
"   c #050712",
".  c #050A15",
"X  c #060E1C",
"o  c #0B0D1B",
"O  c #090A15",
"+  c #0C111D",
"@  c #05101F",
"#  c #14131C",
"$  c #18171D",
"%  c #0D0B14",
"&  c #0B1323",
"*  c #0D1629",
"=  c #0D1A2D",
"-  c #051429",
";  c #121624",
":  c #141B2C",
">  c #1B1E2B",
",  c #171A25",
"<  c #041A34",
"1  c #081D37",
"2  c #151E32",
"3  c #191E31",
"4  c #080F21",
"5  c #201D27",
"6  c #1B212D",
"7  c #0B233C",
"8  c #07223B",
"9  c #152235",
"0  c #1B2334",
"q  c #14243B",
"w  c #1C263A",
"e  c #1D2A3C",
"r  c #17293B",
"t  c #25242D",
"y  c #222534",
"u  c #242A36",
"i  c #232A3C",
"p  c #2A2D3B",
"a  c #262838",
"s  c #2D313E",
"d  c #373239",
"f  c #342B2E",
"g  c #493937",
"h  c #53423F",
"j  c #0B2442",
"k  c #0D2A44",
"l  c #092848",
"z  c #142A44",
"x  c #1C2B43",
"c  c #142C4A",
"v  c #1C2D4B",
"b  c #162642",
"n  c #16324D",
"m  c #1C324C",
"M  c #1B3549",
"N  c #0D3457",
"B  c #153453",
"V  c #1B3453",
"C  c #1C3B54",
"Z  c #1B3C5B",
"A  c #16385A",
"S  c #132F50",
"D  c #232D43",
"F  c #242C46",
"G  c #253245",
"H  c #2B3344",
"J  c #23334C",
"K  c #2B354B",
"L  c #2B394C",
"P  c #263A4C",
"I  c #343543",
"U  c #353A44",
"Y  c #3B3B45",
"T  c #333A4D",
"R  c #3A3D4B",
"E  c #32364A",
"W  c #233652",
"Q  c #2A3652",
"!  c #243A54",
"~  c #2C3B53",
"^  c #223B5B",
"/  c #2C3D5B",
"(  c #333D52",
")  c #373D57",
"_  c #2D2F50",
"`  c #1B3D62",
"'  c #153D63",
"]  c #0D3B61",
"[  c #273F61",
"{  c #423D45",
"}  c #1C415D",
"|  c #1D4056",
" . c #3D424C",
".. c #24435C",
"X. c #2C435C",
"o. c #2C4559",
"O. c #344254",
"+. c #3B4355",
"@. c #34435B",
"#. c #3B455A",
"$. c #3B4A5C",
"%. c #36485B",
"&. c #1B4364",
"*. c #1C4C6D",
"=. c #194568",
"-. c #1C5174",
";. c #224464",
":. c #244B6C",
">. c #294867",
",. c #344C64",
"<. c #3B4B64",
"1. c #364967",
"2. c #27516C",
"3. c #39536A",
"4. c #234D73",
"5. c #294D73",
"6. c #245274",
"7. c #24557B",
"8. c #2C5B7C",
"9. c #2B5579",
"0. c #385975",
"q. c #314E70",
"w. c #356279",
"e. c #46444A",
"r. c #444955",
"t. c #4A4C55",
"y. c #434B5C",
"u. c #464957",
"i. c #4B525D",
"p. c #56545C",
"a. c #554C4D",
"s. c #695954",
"d. c #434E64",
"f. c #445364",
"g. c #4B5362",
"h. c #43546C",
"j. c #4C556A",
"k. c #4C5A6C",
"l. c #455A6C",
"z. c #535B6C",
"x. c #575B67",
"c. c #435673",
"v. c #435B75",
"b. c #4C5C74",
"n. c #475B79",
"m. c #535E73",
"M. c #555E76",
"N. c #5C616A",
"B. c #48637B",
"V. c #546375",
"C. c #5C6274",
"Z. c #54637B",
"A. c #5B657C",
"S. c #5C6A7C",
"D. c #4D606E",
"F. c #636B7C",
"G. c #676A75",
"H. c #6C7378",
"J. c #787678",
"K. c #726A6A",
"L. c #6C605E",
"P. c #867A73",
"I. c #877771",
"U. c #93837B",
"Y. c #275B83",
"T. c #345D84",
"R. c #2B638C",
"E. c #2B6486",
"W. c #31648B",
"Q. c #376889",
"!. c #286994",
"~. c #346C94",
"^. c #287298",
"/. c #397599",
"(. c #3B728F",
"). c #3A7BA4",
"_. c #2276A2",
"`. c #4D5E82",
"'. c #4B6482",
"]. c #486986",
"[. c #536B84",
"{. c #5C6C84",
"}. c #566B89",
"|. c #55728C",
" X c #5C738C",
".X c #587789",
"XX c #437B9C",
"oX c #477697",
"OX c #577896",
"+X c #47718C",
"@X c #636E83",
"#X c #656F8A",
"$X c #687588",
"%X c #767B8A",
"&X c #667B97",
"*X c #747D93",
"=X c #487DA4",
"-X c #537FA5",
";X c #697DA2",
":X c #807F8F",
">X c #3883AA",
",X c #388AB6",
"<X c #3990B7",
"1X c #59849B",
"2X c #4C849B",
"3X c #69839B",
"4X c #79879A",
"5X c #738490",
"6X c #4784A8",
"7X c #5688A9",
"8X c #488CB4",
"9X c #538BB5",
"0X c #4895BB",
"qX c #5996BA",
"wX c #6B88A4",
"eX c #758BA6",
"rX c #7693A8",
"tX c #6796B7",
"yX c #7899B6",
"uX c #6896AB",
"iX c #78A1B9",
"pX c #3D95C3",
"aX c #479AC6",
"sX c #539CC4",
"dX c #57A3C8",
"fX c #59B4DA",
"gX c #4FA9D2",
"hX c #66A3C6",
"jX c #76A7C8",
"kX c #79B9D8",
"lX c #69B1D5",
"zX c #5CBBE4",
"xX c #6BBBE3",
"cX c #71CBED",
"vX c #61C1E4",
"bX c #968B87",
"nX c #868B98",
"mX c #908F90",
"MX c #8894A6",
"NX c #8C98A9",
"BX c #92A7B5",
"VX c #A9A09F",
"CX c #8CB3CE",
"ZX c #A5BDC7",
"AX c #8EC3DD",
"SX c #88D8F8",
"DX c #8ECCED",
"FX c #ADDAEE",
"GX c #ACE7FF",
"HX c #A1DEF2",
/* pixels */
"5.5.B k 7 r 2 y i w 9 r G H U U R s 0 u H u ; & + o o + & & 4 @ . . . X X X = w x P P x v v c c z c c c c V >.q.A A A B V V v b ",
":.9.&.c 7 r 2 0 i e e r 0 0 u p s u 6 u H u , ; o o o o + + @ @ . . . . X & : w x K Q J v c c v c v W W W ^ ^ ;.` ` A A ^ W v v ",
"4.8.5.A k r 9 0 i D G r 9 : > t > > : 6 i i : + O O O o + + X X . . O . @ : w e x G Q Q v c v v v v v V V C ^ ;.` A A A ^ W J v ",
"7.T.9.&.B z q q e D x r = : , ; ; : : : w y > o       o + & @ X . O O . & 0 i D x x P W v c v v v x b z c B Z ;.' ' ' ` ^ ^ W v ",
"T.T.8.:.} n z q x ! ! M q : ; # : > : : 3 i 0 + O     O + & & X O % o + , : w i x x J J v c v c b b b z m B Z ` ' =.:.:.;.^ W W ",
"T.W.W.6.:.Z m 7 m ! o.! x 9 : : : 0 3 * : w y ; o O   O o + & X O O + , : : 0 e x x x v v c c b r q r c V Z &.*.*.4.7.5.:.[ ^ W ",
"R.R.~.E.8.;...V n V C C M e 0 : 2 0 0 : * 3 0 ; o O   O o o & + O o + , : : 2 w r x x x v v c z q q b c B ` 4.7.7.7.7.9.5.` V ! ",
"R.R.~.(.Q.:.>.>.Z Z A } ..! e : 9 w x 2 * 2 0 ;   O O o o X X & + & & : : : = = 9 x v c V V c c b b v C ` =.4.Y.R.Y.Y.W.8.;.Z ;.",
"R.R.~.=X8.8.8.:.5.;.&.0.0.,.~ = q x D x w 2 p ; O     o + & & & X & ; : : = = = r z v m V n n V z c V Z =.*.Y.R./.~.!.=XW.9.5.B ",
"~./.~.6X(.E.8.9.9.9.:.Q.w.0.o.x q x x J D 0 i X X O O o ; ; * * & & * * * = = 1 7 b z c V m n V c c B ` 4.7.Y.~.).6X=X8XoX9.;.` ",
"/.6X~.6XXXE.6.8.6.7.7.8.8.2.C c v x z z r 9 i * X o o + & : = * - * = = = 1 < 1 7 z z c V c c V B B &.&.6.Y.Y.~.).8X9X9X=XT.;.` ",
"/.6X~.6X6XQ.7.7.Y.Y.E.E.8.2.Z n n z z q r r e : & o o + ; : = = - - 9 1 1 7 < 1 7 z z c c c j c S A :.&.4.Y.Y.R.).8XsX6X-X(.5.` ",
"=X=X(.XX6XXXQ.Y.W.R././.~.6.=.A n z z 8 q z D 0 * & & * : 9 9 1 1 < 8 < < 1 < 1 1 j j j j j j l B ` :.=.6.7.Y.R./.).=X/.oXQ.9.` ",
"7X6XXX/.XXXX/.W.~.~./.8X6XE.*.A B c k < 7 z G G : ; & * : 9 q q 8 8 7 7 7 8 1 1 < 1 7 j j j j l Z ` &.:.8.8.E././.R.Y.Y.Q.Q.0.[ ",
"7X6X6X(.Q.(.(././.).^.0XhX~.-.&.B c k k c z x G w : * : 2 9 q 7 7 k j n n 8 j < j < 1 j j j c j A &.Z :.Q.Q.(.XX=X/.7.7.Q.+X].q.",
"XXXX6X(.w.Q.(.6X).>X!.9XkX/.*.=.>.B l j z 7 x P K w 2 9 q 1 7 7 j k j B n j l j c < 1 j j k c j l ;.Z &.Q.(.oX(./.9XW.4.9.Q.].0.",
"6X(.oXQ.w.2X6X>X8X).R.~.XXoXQ.4.&.Z B S l ^ m m J J x q q q r m k B } N N N N l l j m j c k l 8 B A =.:.Q.oXXX6X/.6X/.6.9.T.+Xw.",
"6X7XQ.8.2.2X9X8X<X>XR.W.Q.Q.E.Y.4.&.N N l B n W W W m z z r v M M B } =.' ] N ' N l z 1 j j l l S } =.6.Q.oX7X7X6X7X7X=.;.0.OX+X",
"qXqXXXoX8.Q.8X8X8X6X~.E.W.8.E.Q.E.*.A N N B B ..^ ! J m x x J J o.C } &.' ] =.9.A c 8 1 8 7 j B B ;.=.:.+X=X7X6XoX-XwX>./ n..X.X",
"qXhXqX7XY./.0X>X>X8X/.W.W.Y.Q.(.(.7.=.=.} Z Z >...! W m v x J m z M ;.;.=.=.&.;.V z 8 1 7 < 1 C >.` :.*./.7X=XXXQ.OX|.<.~ %.B.1X",
"tXkXhXqX/.lXsX>X).8X6X/.R.E.W.(./.E.-.=.=.*.:.:.>.^ V V m m J m q M ,.>.;.;.} Z n k 7 < 8 < j ^ ;.' 6.7.2X6X/.=XoXOXb.( +.f.[.iX",
"1XjXAXhXdXlXaXaX>X8X9X6X~.R.~./././.E.*.-.6.8.5.>.^ B V m m m m P P X.>.;.} } ..n k 7 - < < c ;.` =.-.W.9X6X).6X-XOXA.p I O.0.iX",
"+XuXDXhXxXfXfXfX<X>X0X0X).!.^.^./.>X/.E.E.8.W.9.4.;.Z V V m V ! ~ ~ %.,.,...C | C z 7 - < j V ` ' *.-./.qX6X/.XXoX1X$Xr.K G 3.uX",
"B.0.tXDXSXxXzXzXaX>X,XaX>X^.^.^.>X6X6X/.~.R.Q.8.6.:.&.Z C V C X.@.O.%.%.X...C C C n 7 < < c B B A 6.Q.=XqX/.W.XXoX].<.f.f.k..X1X",
"G $.OXjXDXSXcXfXaX>X>X>XaX,X_.^.^.>X8X6X8X=X~.E.8.6.*.&.} } } X.o.$.$.o.o.X.M M C k 7 8 c B A l A :.+X=X-XoXQ.Q.w.0.,.b.b. X X.X",
"u %.|.tXkXSXSXvXgX<X<X,XpXpX<X_.^.>X8X8XqX9X).~.Y.7.6.2.&.;.;.X.%.<.O.O.o.o.! M M z j l V ;.;.A V :.+X-XoXOX'.0.q.B.].OXOX&X&X X",
"s +.b.B.tXDXSXcXfX<X,X<X,XpXaX,X>X>X0X8XsXsX8X6XR.E.E.8.2.2.:...,.$.L L O.P P M M M k c Z 5.:.;.>.3.oX6XOXOX`.3.3.].tXAXjXwXeX&X",
"s R $.,.wXAXkXcXlX0X,X<X<XaXgXpX<X,X0X<XsXdX0X8X/.~.(.E.8.0.0...@.O.L H T G L G P ! z k B ;.;.>.3.B.+X1XoX|.c.3.3.+XkXHXjX7XyX&X",
"T H T %. XCXjXkXdXsX8X,X0XgXzXgXaXpXaXaXgXfXsX8X6X=XXX+X].0.0.,.O.( O.K E T +.O.O.~ z k V ;.:.q.v.&X].1X].&Xj.n.0.OXAXGXAX7XwX&X",
"b.K T +.k.eXiXjXqXqX8X>X0XgXzXvXfXgXgXaXzXcXlX0X6X6X7X2XOX0.0.,.~ K +.K H  .+.r.#.L r z ..q.0.0.}.wX.X.X.X4X#X[.].tXAXDXAX7X|.|.",
" X%.+.i.x.*XwX7XqX9X8X8XsXaXgXvXzXzXfXaXzXcXxXlXqXqXqX7X1X3.,.,.O.K T R R r.t.r.R D r M >.3.B.|.;X&X$X$X4XNXMX#X].tXjXOXOXwX1X|.",
"3Xb.+.i.G.@X XwXOX-XtX9XhXdXdXfXzXcXcXfXvXcXcXkXkXjXuXwX3X3.X.%.%.O.E i.t.t.i.r.I e e x X.,.[.&XwX#Xb.4XnXBXBX4X&XOXOX[.[.wXyXyX",
"$XC.r.g.F.@XS.3X].OXyXtXjXhXhXhXlXcXcXcXcXSXSXDXAXCX4X$X{.f.%.3.k.y.+.x.i.N.x.e.I i w 9 G @.b.A.#X#X*X$XMXnX4X*X#X{.M.eXeX3XeXyX",
"@XC.z.z.F.V.V.S. X|.yXyXjXjXjXjXjXkXSXHXSXHXGXFXFXBXNXH.N.D.V.f.k.$XG.G.x. .x.t.U p 0 0 H +.F.F.F.*XnX4X4X*X*XA.A.j.j.#X*X&XwX X",
"C.A.z.z.F.S.@X$X&X[.wXyXjXyXiXjXCXCXDXGXGXHXFXZXVXmXbXK.p.x.S.V.C.nX%XG.J.e.{ e.U t 0 H H z.MXF.F.%X*XMX4X@X&X{.c.b.#X*X#X#XMX4X",
"r.F.g.g.G.G.F.5X4X{.$XeXyXrXeXyXyXjXCXCXFXAXBXNXbXbXU.P.K.a.p.x.H.NX%XK.K.e.f e.d f u I +.z.$XF.:XnX*X4X$Xb.[.'.3.n.*X4X$X*XMX5X",
"w j.r.r.x.x.x.F.%X@X{.$X*X3X3XeXwXyXCXCXCXBXMXmXbXU.U.bXP.a.t.t.J.VXJ.P.I.s.a.f f t e.p.i.y.j.F.%XNXnX$XM.n.n.v.c.c.M.#X#X%X%X%X",
"T y.g.i.x.x.G.N.C.F.F.m.V.@X$X5XeX3XrXwXrXrX5XJ.P.I.P.U.VXJ.a.e.N.mXbXU.I.L.s.g g f x.H.u.j.C.F.J.nXnX$X{. X}.].`.0.c.M.M.F.C.$X",
"x.x.G.N.x.N.H.G.x.C.C.j.g.z.@X$X4X$X.X.X1XrX5XH.H.J.J.J.VXU.a.a.K.J.J.L.L.L.s.g g a.p.p.i.g.d.C.%X4XnXeX&XeX&X|.'.0.c.c.j.j.T ( ",
"R i.x.x.t.p.x.J.G.z.x.m.z.k.F.F.$X*XD.l..X4X5X$XH.J.L.P.bXU.K.s.H.H.p.L.s.e.h g { e.{ t.r.T +.@X*X4XMXNX&XyXeX|.'.0.n.1.) ) K ( ",
"u p Y  .e.t.x.x.G.G.M.z.z.k.k.z.F.F.F.V.4XBX4XS.H.J.J.bXbXJ.J.K.C.m.x.t.e.f g f g a.p.x.i.i.M.$X&XeXwX&XyXBXyX|.'.1.X.X./ Q x x ",
"r.r.r.e.Y Y t.p.x.x.z.z.k.k.j.k.C.@XS.S.*X*X*XF.$X5XmXmXnXH.G.5XA.f.d.U d t d d { a.p.N.z.x.F.$X X&X&Xv.[.eX&X Xv.>.! V v v J / ",
"i.t.t.t.Y Y r.x.i.j.z.z.m.j.f.f.S.@XA.Z.A.m.F.$X%XnXnXnX$XG.C.4X{.<.@.e > > t d I t.x.C.M.F.@X@X&XeX X3.1. X3X&Xc.1./ W v v / c.",
"u.i.i.t.U Y  .r.r.g.z.j.j.f.f.f.b.b.S.{.#XF.C.%X%XnX4X*X$X@XZ.&X'.,.! r 0 y s U R r.x.m.M.@X@X{.wXrX|.3.1.[.eX3Xv.,./ W v v Q 1.",
"y.g.i.r.U U U U r.i.g.y.y.y.g.k.k.l.V.V.@X@XV.$X4XMX3X XwX&X|.].B.3.! x e i T T #.d.V.m.Z.{.{. XeX&X X3.c. X&XwX'.1.W m J J F _ ",
"O.O.+.y. . .U R R r.u.y.r.r.y.f.f.D.y.k.m.b.V.{.&X3XOX|.wX3XOX'.'.n.X.J D D ( T $.h.b.'.}.[.[. X3X|.'.h.[. X&X&X'.1.W J ~ ( D w ",
"L L O.+.+. .Y U s R r.i.r. .R  . .i.y.z.A.{.}.}.|.|.].].OXOX|.'.n.c.@.Q P K O.<.<.3.n.|.wX}.'.}.[.l.@.<.n.`. X`.c.[ V W ( T a 6 ",
"x G K G E U  .U U R r.r.e.Y I Y r.r.y.g.m.{.n.'.].].].].|.OX'.[.'.c.<.@.~ ~ ~ <.<.3.n.&XyX|.n.B.k.( P ~ <.[.`.n.c.[ W J T E p a ",
"i i i i s s s s U r.R e.R R I I R y.g.j.k.m.Z.b.v.B.0.B.[.|.B.0.B.v.,.o.~ ~ @.h.v.3.n.wXCX&Xc.h.#.K G L d.c.n.c.3.1.Q D K ( I p ",
"w w y i s s p u I t.e.Y I { U p T d.j.j.m.V.m.V.b.b.v.v.B.B.0.v.v.3.,.%.@.%.<.h.c.v.'.&XrX'.<.$.( H G P <.d.h.<.<.<.@.~ K K I R ",
"0 6 0 u p s p u I t.e.I s U I i K y.f.f.V.A.b.b.h.c.h.c.v.v.v.B.0.,.X.o.$.k.m.k.d.c.B.'.}.h.<.~ G D G G @.@.1.@.1./ Q K T E D I ",
"9 9 9 w u u u u d R Y Y s p I E T $.d.f.V.V.b.h.<.<.<.<.h.n.B.v.3.3.X.~ #.d.y.+.#.d.b.b.c.<.%.L D i F G ~ / 1./ Q J J D K K D H ",
"r 0 0 0 0 6 6 t a s I U H p ( y.f.$.f.k.k.k.h.<.@.@.@.@.<.c.n.v.].[.3.P K K H R ( #.d.d.<.@.O.G e y D D ~ ~ / ~ W J Q D ~ ( T K ",
"e e e u 6 > , > t p d s p H y.d.f.$.f.k.d.$.<.<.%.~ Q @.@.<.c.B.OX X3.J P T E ) R ( ( ( ( L L G e w D D Q J W W / ~ ~ x ) ( T H ",
"G e w y 6 , $ , 5 t p u i H y.#.#.O.#.$.#.O.$.$.%.~ ~ @.@.h.b.n.v.0.X.! O.#.( T ( ( K K K K K G i w e x J x J W / / @.F G D G K ",
"L i w 6 , $ # $ 5 5 t y p E d.#.+.T E T +.#.#.$.#.%.O.~ @.b.Z.<.3.>.X.! m L $.#.$.y.O.( L K K K D w w w x b J ~ @.W W b P G G G ",
"H e : , $ # % # $ $ , > i H ( #.+.K D K +.$.T T %.$.$.@.o.<.3.,.X.! X.,.,.3.l.l.3.<.$.O.L K F D i w w 9 e x P Q W J b x D D e i ",
"e 0 : ; # # % # # , > y D K ( O.T E E T E H D T ( #.$.O.~ o.o.! ! W ! o.,.3.0.B.3.3.$.O.L H D w 0 0 0 9 w e x x v e q q e w 0 0 ",
"6 : , ; # o # $ # , t p K ( @.@.K H K H D y 0 H T O.#.O.L P P x x x m V ..>.>.3.3.,.@.O.K F i 0 : 2 2 9 9 9 2 2 q 2 = = 2 : = : ",
": : : ; + o # ; , > y H L ) @.@.K D i w y y 0 i E E T ( L L L J D D G m ! ^ ....,.o.~ L G i 0 2 : 2 : : = 2 = = : = & & * & X & ",
"0 : : : ; ; : 3 0 i F K Q ~ / @.P F i 2 2 0 0 p s p K E K K K H p i e e m ! ^ ,.X.~ L G i 0 : : : : * = & : * * * * & X X O . X ",
"w 0 0 2 2 0 w e D D P Q Q / / X.Q J e 2 2 2 3 y w w p H H H D i 6 6 0 w J ! W / / Q H D w 2 : : * : * * & & & & & & + O O       ",
"K D e e x D J J P Q / / / ^ / / W x e 2 2 0 : > > > y i i i y 6 , , 6 i ~ ~ F Q ) K D y 0 : : : * : : & & 4 & X X X X O O       ",
"O.T G G J P W J X.@.1.1.[ ^ ^ W v x x 9 9 0 : : , > y y y y y 6 $ $ > e Q Q F _ ) _ a 0 3 : * * : : : & & 4 & X . X o         % "
};
